(Block-name: Header)
(Block-expand: 0)
(Block-enable: 1)
%
(Header)
(Generated by gcodetools from Inkscape.)
(Using default header. To add your own header create file "header" in the output dir.)
M3
(Header end.)
G21 (All units in mm)

(Start cutting path id: path4)
(Change tool to Default tool)

G00 Z30.000000
(Block-name: path4)
(Block-expand: 0)
(Block-enable: 0)

(End cutting path id: path4)


(Start cutting path id: path4)
(Change tool to Default tool)

G00 Z30.000000
G00 X13.250026 Y216.250166

G01 Z-1.000000 F100.0(Penetrate)
G01 X13.250027 Y228.750166 Z-1.000000 F400.000000
G01 X36.749928 Y228.750164 Z-1.000000
G01 X36.749927 Y216.250164 Z-1.000000
G01 X13.250026 Y216.250166 Z-1.000000
G00 Z30.000000
(Block-name: path4 [in,cut])
(Block-expand: 0)
(Block-enable: 0)
g0 x14.000026 y217.000166
g1 z0 f300
g1 x13.780356 y216.780496 f650
g1 x14.000026 y217.000166
g1 x14.000027 y228.000166
g1 x13.780357 y228.219836
g1 x14.000027 y228.000166
g1 x35.999928 y228.000164
g1 x36.219598 y228.219834
g1 x35.999928 y228.000164
g1 x35.999927 y217.000164
g1 x36.219597 y216.780494
g1 x35.999927 y217.000164
g1 x14.000026 y217.000166
g1 z-1 f300
g1 x13.780356 y216.780496 f650
g1 x14.000026 y217.000166
g1 x14.000027 y228.000166
g1 x13.780357 y228.219836
g1 x14.000027 y228.000166
g1 x35.999928 y228.000164
g1 x36.219598 y228.219834
g1 x35.999928 y228.000164
g1 x35.999927 y217.000164
g1 x36.219597 y216.780494
g1 x35.999927 y217.000164
g1 x14.000026 y217.000166
g1 z-2 f300
g1 x13.780356 y216.780496 f650
g1 x14.000026 y217.000166
g1 x14.000027 y228.000166
g1 x13.780357 y228.219836
g1 x14.000027 y228.000166
g1 x35.999928 y228.000164
g1 x36.219598 y228.219834
g1 x35.999928 y228.000164
g1 x35.999927 y217.000164
g1 x36.219597 y216.780494
g1 x35.999927 y217.000164
g1 x14.000026 y217.000166
g0 z30
(Block-name: path4)
(Block-expand: 0)
(Block-enable: 0)

(End cutting path id: path4)


(Start cutting path id: path4)
(Change tool to Default tool)

G00 Z30.000000
G00 X38.562827 Y221.252164

G01 Z-1.000000 F100.0(Penetrate)
G01 X38.312528 Y221.268164 Z-1.000000 F400.000000
G01 X38.074229 Y221.345164 Z-1.000000
G01 X37.862527 Y221.479164 Z-1.000000
G01 X37.690927 Y221.662164 Z-1.000000
G01 X37.570226 Y221.882164 Z-1.000000
G01 X37.507826 Y222.125164 Z-1.000000
G01 X37.507826 Y222.375164 Z-1.000000
G01 X37.570226 Y222.618164 Z-1.000000
G01 X37.690927 Y222.838164 Z-1.000000
G01 X37.862527 Y223.020164 Z-1.000000
G01 X38.074229 Y223.155164 Z-1.000000
G01 X38.312528 Y223.232164 Z-1.000000
G01 X38.562827 Y223.248164 Z-1.000000
G01 X38.808926 Y223.201164 Z-1.000000
G01 X39.035828 Y223.094165 Z-1.000000
G01 X39.228828 Y222.934165 Z-1.000000
G01 X39.376227 Y222.732165 Z-1.000000
G01 X39.468527 Y222.499165 Z-1.000000
G01 X39.500027 Y222.250165 Z-1.000000
G01 X39.468527 Y222.001165 Z-1.000000
G01 X39.376227 Y221.768164 Z-1.000000
G01 X39.228828 Y221.565165 Z-1.000000
G01 X39.035828 Y221.406164 Z-1.000000
G01 X38.808926 Y221.299165 Z-1.000000
G01 X38.562827 Y221.252164 Z-1.000000
G00 Z30.000000
(Block-name: path4 [in,cut])
(Block-expand: 0)
(Block-enable: 0)
g0 x38.515654 y222.00671
g1 z0 f300
g1 x38.516029 y222.000703 f650
g1 x38.515654 y222.00671
g1 x38.453927 y222.010656
g1 x38.452835 y222.004923
g1 x38.453927 y222.010656
g1 x38.395151 y222.029648
g1 x38.392611 y222.024232
g1 x38.395151 y222.029648
g1 x38.344319 y222.061823
g1 x38.340463 y222.057158
g1 x38.344319 y222.061823
g1 x38.302868 y222.106028
g1 x38.298037 y222.102524
g1 x38.302868 y222.106028
g1 x38.273176 y222.160147
g1 x38.267672 y222.15797
g1 x38.273176 y222.160147
g1 x38.257826 y222.219923
g1 x38.251911 y222.219176
g1 x38.257826 y222.219923
g1 x38.257826 y222.280405
g1 x38.251911 y222.281152
g1 x38.257826 y222.280405
g1 x38.273176 y222.340181
g1 x38.267672 y222.342358
g1 x38.273176 y222.340181
g1 x38.302367 y222.393387
g1 x38.297435 y222.396974
g1 x38.302367 y222.393387
g1 x38.344318 y222.437881
g1 x38.340645 y222.44232
g1 x38.344318 y222.437881
g1 x38.396371 y222.471074
g1 x38.393753 y222.476633
g1 x38.396371 y222.471074
g1 x38.453927 y222.489672
g1 x38.452835 y222.495405
g1 x38.453927 y222.489672
g1 x38.515655 y222.493618
g1 x38.516031 y222.499625
g1 x38.515655 y222.493618
g1 x38.574942 y222.482295
g1 x38.576796 y222.487991
g1 x38.574942 y222.482295
g1 x38.630167 y222.456253
g1 x38.633371 y222.461292
g1 x38.630167 y222.456253
g1 x38.678129 y222.416492
g1 x38.682365 y222.420474
g1 x38.678129 y222.416492
g1 x38.714103 y222.367192
g1 x38.719403 y222.370113
g1 x38.714103 y222.367192
g1 x38.736349 y222.311035
g1 x38.742123 y222.312519
g1 x38.736349 y222.311035
g1 x38.744049 y222.250165
g1 x38.750027 y222.250165
g1 x38.744049 y222.250165
g1 x38.736349 y222.189294
g1 x38.742123 y222.187811
g1 x38.736349 y222.189294
g1 x38.713774 y222.132305
g1 x38.718978 y222.129445
g1 x38.713774 y222.132305
g1 x38.678129 y222.083216
g1 x38.682553 y222.079055
g1 x38.678129 y222.083216
g1 x38.631227 y222.044576
g1 x38.634345 y222.039655
g1 x38.631227 y222.044576
g1 x38.57494 y222.018033
g1 x38.576794 y222.012337
g1 x38.57494 y222.018033
g1 x38.515654 y222.00671
g1 z-1 f300
g1 x38.516029 y222.000703 f650
g1 x38.515654 y222.00671
g1 x38.453927 y222.010656
g1 x38.452835 y222.004923
g1 x38.453927 y222.010656
g1 x38.395151 y222.029648
g1 x38.392611 y222.024232
g1 x38.395151 y222.029648
g1 x38.344319 y222.061823
g1 x38.340463 y222.057158
g1 x38.344319 y222.061823
g1 x38.302868 y222.106028
g1 x38.298037 y222.102524
g1 x38.302868 y222.106028
g1 x38.273176 y222.160147
g1 x38.267672 y222.15797
g1 x38.273176 y222.160147
g1 x38.257826 y222.219923
g1 x38.251911 y222.219176
g1 x38.257826 y222.219923
g1 x38.257826 y222.280405
g1 x38.251911 y222.281152
g1 x38.257826 y222.280405
g1 x38.273176 y222.340181
g1 x38.267672 y222.342358
g1 x38.273176 y222.340181
g1 x38.302367 y222.393387
g1 x38.297435 y222.396974
g1 x38.302367 y222.393387
g1 x38.344318 y222.437881
g1 x38.340645 y222.44232
g1 x38.344318 y222.437881
g1 x38.396371 y222.471074
g1 x38.393753 y222.476633
g1 x38.396371 y222.471074
g1 x38.453927 y222.489672
g1 x38.452835 y222.495405
g1 x38.453927 y222.489672
g1 x38.515655 y222.493618
g1 x38.516031 y222.499625
g1 x38.515655 y222.493618
g1 x38.574942 y222.482295
g1 x38.576796 y222.487991
g1 x38.574942 y222.482295
g1 x38.630167 y222.456253
g1 x38.633371 y222.461292
g1 x38.630167 y222.456253
g1 x38.678129 y222.416492
g1 x38.682365 y222.420474
g1 x38.678129 y222.416492
g1 x38.714103 y222.367192
g1 x38.719403 y222.370113
g1 x38.714103 y222.367192
g1 x38.736349 y222.311035
g1 x38.742123 y222.312519
g1 x38.736349 y222.311035
g1 x38.744049 y222.250165
g1 x38.750027 y222.250165
g1 x38.744049 y222.250165
g1 x38.736349 y222.189294
g1 x38.742123 y222.187811
g1 x38.736349 y222.189294
g1 x38.713774 y222.132305
g1 x38.718978 y222.129445
g1 x38.713774 y222.132305
g1 x38.678129 y222.083216
g1 x38.682553 y222.079055
g1 x38.678129 y222.083216
g1 x38.631227 y222.044576
g1 x38.634345 y222.039655
g1 x38.631227 y222.044576
g1 x38.57494 y222.018033
g1 x38.576794 y222.012337
g1 x38.57494 y222.018033
g1 x38.515654 y222.00671
g1 z-2 f300
g1 x38.516029 y222.000703 f650
g1 x38.515654 y222.00671
g1 x38.453927 y222.010656
g1 x38.452835 y222.004923
g1 x38.453927 y222.010656
g1 x38.395151 y222.029648
g1 x38.392611 y222.024232
g1 x38.395151 y222.029648
g1 x38.344319 y222.061823
g1 x38.340463 y222.057158
g1 x38.344319 y222.061823
g1 x38.302868 y222.106028
g1 x38.298037 y222.102524
g1 x38.302868 y222.106028
g1 x38.273176 y222.160147
g1 x38.267672 y222.15797
g1 x38.273176 y222.160147
g1 x38.257826 y222.219923
g1 x38.251911 y222.219176
g1 x38.257826 y222.219923
g1 x38.257826 y222.280405
g1 x38.251911 y222.281152
g1 x38.257826 y222.280405
g1 x38.273176 y222.340181
g1 x38.267672 y222.342358
g1 x38.273176 y222.340181
g1 x38.302367 y222.393387
g1 x38.297435 y222.396974
g1 x38.302367 y222.393387
g1 x38.344318 y222.437881
g1 x38.340645 y222.44232
g1 x38.344318 y222.437881
g1 x38.396371 y222.471074
g1 x38.393753 y222.476633
g1 x38.396371 y222.471074
g1 x38.453927 y222.489672
g1 x38.452835 y222.495405
g1 x38.453927 y222.489672
g1 x38.515655 y222.493618
g1 x38.516031 y222.499625
g1 x38.515655 y222.493618
g1 x38.574942 y222.482295
g1 x38.576796 y222.487991
g1 x38.574942 y222.482295
g1 x38.630167 y222.456253
g1 x38.633371 y222.461292
g1 x38.630167 y222.456253
g1 x38.678129 y222.416492
g1 x38.682365 y222.420474
g1 x38.678129 y222.416492
g1 x38.714103 y222.367192
g1 x38.719403 y222.370113
g1 x38.714103 y222.367192
g1 x38.736349 y222.311035
g1 x38.742123 y222.312519
g1 x38.736349 y222.311035
g1 x38.744049 y222.250165
g1 x38.750027 y222.250165
g1 x38.744049 y222.250165
g1 x38.736349 y222.189294
g1 x38.742123 y222.187811
g1 x38.736349 y222.189294
g1 x38.713774 y222.132305
g1 x38.718978 y222.129445
g1 x38.713774 y222.132305
g1 x38.678129 y222.083216
g1 x38.682553 y222.079055
g1 x38.678129 y222.083216
g1 x38.631227 y222.044576
g1 x38.634345 y222.039655
g1 x38.631227 y222.044576
g1 x38.57494 y222.018033
g1 x38.576794 y222.012337
g1 x38.57494 y222.018033
g1 x38.515654 y222.00671
g0 z30
(Block-name: path4)
(Block-expand: 0)
(Block-enable: 0)

(End cutting path id: path4)


(Start cutting path id: path4)
(Change tool to Default tool)

G00 Z30.000000
G00 X11.062824 Y221.252166

G01 Z-1.000000 F100.0(Penetrate)
G01 X10.812524 Y221.268166 Z-1.000000 F400.000000
G01 X10.574224 Y221.345166 Z-1.000000
G01 X10.362524 Y221.479166 Z-1.000000
G01 X10.190924 Y221.662166 Z-1.000000
G01 X10.070224 Y221.882166 Z-1.000000
G01 X10.007824 Y222.125166 Z-1.000000
G01 X10.007824 Y222.375166 Z-1.000000
G01 X10.070224 Y222.618166 Z-1.000000
G01 X10.190924 Y222.838166 Z-1.000000
G01 X10.362524 Y223.020166 Z-1.000000
G01 X10.574224 Y223.155166 Z-1.000000
G01 X10.812524 Y223.232166 Z-1.000000
G01 X11.062824 Y223.248166 Z-1.000000
G01 X11.308924 Y223.201166 Z-1.000000
G01 X11.535824 Y223.094166 Z-1.000000
G01 X11.729024 Y222.934167 Z-1.000000
G01 X11.876224 Y222.732166 Z-1.000000
G01 X11.968524 Y222.499166 Z-1.000000
G01 X12.000024 Y222.250166 Z-1.000000
G01 X11.968524 Y222.001166 Z-1.000000
G01 X11.876224 Y221.768166 Z-1.000000
G01 X11.729024 Y221.565166 Z-1.000000
G01 X11.535824 Y221.406166 Z-1.000000
G01 X11.308924 Y221.299166 Z-1.000000
G01 X11.062824 Y221.252166 Z-1.000000
G00 Z30.000000
(Block-name: path4 [in,cut])
(Block-expand: 0)
(Block-enable: 0)
g0 x11.015652 y222.006712
g1 z0 f300
g1 x11.016028 y222.000705 f650
g1 x11.015652 y222.006712
g1 x10.953923 y222.010658
g1 x10.952831 y222.004925
g1 x10.953923 y222.010658
g1 x10.895147 y222.02965
g1 x10.892607 y222.024233
g1 x10.895147 y222.02965
g1 x10.844317 y222.061823
g1 x10.840461 y222.057159
g1 x10.844317 y222.061823
g1 x10.802866 y222.106029
g1 x10.798035 y222.102525
g1 x10.802866 y222.106029
g1 x10.773174 y222.160147
g1 x10.767671 y222.157971
g1 x10.773174 y222.160147
g1 x10.757824 y222.219925
g1 x10.751909 y222.219178
g1 x10.757824 y222.219925
g1 x10.757824 y222.280407
g1 x10.751909 y222.281154
g1 x10.757824 y222.280407
g1 x10.773174 y222.340185
g1 x10.767671 y222.342361
g1 x10.773174 y222.340185
g1 x10.802364 y222.393389
g1 x10.797432 y222.396977
g1 x10.802364 y222.393389
g1 x10.844316 y222.437884
g1 x10.840643 y222.442323
g1 x10.844316 y222.437884
g1 x10.896367 y222.471076
g1 x10.893749 y222.476636
g1 x10.896367 y222.471076
g1 x10.953923 y222.489674
g1 x10.952831 y222.495407
g1 x10.953923 y222.489674
g1 x11.015652 y222.49362
g1 x11.016028 y222.499627
g1 x11.015652 y222.49362
g1 x11.074937 y222.482298
g1 x11.076791 y222.487994
g1 x11.074937 y222.482298
g1 x11.130337 y222.456172
g1 x11.133527 y222.461191
g1 x11.130337 y222.456172
g1 x11.178251 y222.416493
g1 x11.182527 y222.420512
g1 x11.178251 y222.416493
g1 x11.21401 y222.367421
g1 x11.219283 y222.370326
g1 x11.21401 y222.367421
g1 x11.236346 y222.311036
g1 x11.24212 y222.31252
g1 x11.236346 y222.311036
g1 x11.244046 y222.250166
g1 x11.250024 y222.250166
g1 x11.244046 y222.250166
g1 x11.236346 y222.189296
g1 x11.24212 y222.187812
g1 x11.236346 y222.189296
g1 x11.21368 y222.13208
g1 x11.218859 y222.129235
g1 x11.21368 y222.13208
g1 x11.17825 y222.083219
g1 x11.182714 y222.07902
g1 x11.17825 y222.083219
g1 x11.131397 y222.044659
g1 x11.134501 y222.039759
g1 x11.131397 y222.044659
g1 x11.074937 y222.018034
g1 x11.076791 y222.012338
g1 x11.074937 y222.018034
g1 x11.015652 y222.006712
g1 z-1 f300
g1 x11.016028 y222.000705 f650
g1 x11.015652 y222.006712
g1 x10.953923 y222.010658
g1 x10.952831 y222.004925
g1 x10.953923 y222.010658
g1 x10.895147 y222.02965
g1 x10.892607 y222.024233
g1 x10.895147 y222.02965
g1 x10.844317 y222.061823
g1 x10.840461 y222.057159
g1 x10.844317 y222.061823
g1 x10.802866 y222.106029
g1 x10.798035 y222.102525
g1 x10.802866 y222.106029
g1 x10.773174 y222.160147
g1 x10.767671 y222.157971
g1 x10.773174 y222.160147
g1 x10.757824 y222.219925
g1 x10.751909 y222.219178
g1 x10.757824 y222.219925
g1 x10.757824 y222.280407
g1 x10.751909 y222.281154
g1 x10.757824 y222.280407
g1 x10.773174 y222.340185
g1 x10.767671 y222.342361
g1 x10.773174 y222.340185
g1 x10.802364 y222.393389
g1 x10.797432 y222.396977
g1 x10.802364 y222.393389
g1 x10.844316 y222.437884
g1 x10.840643 y222.442323
g1 x10.844316 y222.437884
g1 x10.896367 y222.471076
g1 x10.893749 y222.476636
g1 x10.896367 y222.471076
g1 x10.953923 y222.489674
g1 x10.952831 y222.495407
g1 x10.953923 y222.489674
g1 x11.015652 y222.49362
g1 x11.016028 y222.499627
g1 x11.015652 y222.49362
g1 x11.074937 y222.482298
g1 x11.076791 y222.487994
g1 x11.074937 y222.482298
g1 x11.130337 y222.456172
g1 x11.133527 y222.461191
g1 x11.130337 y222.456172
g1 x11.178251 y222.416493
g1 x11.182527 y222.420512
g1 x11.178251 y222.416493
g1 x11.21401 y222.367421
g1 x11.219283 y222.370326
g1 x11.21401 y222.367421
g1 x11.236346 y222.311036
g1 x11.24212 y222.31252
g1 x11.236346 y222.311036
g1 x11.244046 y222.250166
g1 x11.250024 y222.250166
g1 x11.244046 y222.250166
g1 x11.236346 y222.189296
g1 x11.24212 y222.187812
g1 x11.236346 y222.189296
g1 x11.21368 y222.13208
g1 x11.218859 y222.129235
g1 x11.21368 y222.13208
g1 x11.17825 y222.083219
g1 x11.182714 y222.07902
g1 x11.17825 y222.083219
g1 x11.131397 y222.044659
g1 x11.134501 y222.039759
g1 x11.131397 y222.044659
g1 x11.074937 y222.018034
g1 x11.076791 y222.012338
g1 x11.074937 y222.018034
g1 x11.015652 y222.006712
g1 z-2 f300
g1 x11.016028 y222.000705 f650
g1 x11.015652 y222.006712
g1 x10.953923 y222.010658
g1 x10.952831 y222.004925
g1 x10.953923 y222.010658
g1 x10.895147 y222.02965
g1 x10.892607 y222.024233
g1 x10.895147 y222.02965
g1 x10.844317 y222.061823
g1 x10.840461 y222.057159
g1 x10.844317 y222.061823
g1 x10.802866 y222.106029
g1 x10.798035 y222.102525
g1 x10.802866 y222.106029
g1 x10.773174 y222.160147
g1 x10.767671 y222.157971
g1 x10.773174 y222.160147
g1 x10.757824 y222.219925
g1 x10.751909 y222.219178
g1 x10.757824 y222.219925
g1 x10.757824 y222.280407
g1 x10.751909 y222.281154
g1 x10.757824 y222.280407
g1 x10.773174 y222.340185
g1 x10.767671 y222.342361
g1 x10.773174 y222.340185
g1 x10.802364 y222.393389
g1 x10.797432 y222.396977
g1 x10.802364 y222.393389
g1 x10.844316 y222.437884
g1 x10.840643 y222.442323
g1 x10.844316 y222.437884
g1 x10.896367 y222.471076
g1 x10.893749 y222.476636
g1 x10.896367 y222.471076
g1 x10.953923 y222.489674
g1 x10.952831 y222.495407
g1 x10.953923 y222.489674
g1 x11.015652 y222.49362
g1 x11.016028 y222.499627
g1 x11.015652 y222.49362
g1 x11.074937 y222.482298
g1 x11.076791 y222.487994
g1 x11.074937 y222.482298
g1 x11.130337 y222.456172
g1 x11.133527 y222.461191
g1 x11.130337 y222.456172
g1 x11.178251 y222.416493
g1 x11.182527 y222.420512
g1 x11.178251 y222.416493
g1 x11.21401 y222.367421
g1 x11.219283 y222.370326
g1 x11.21401 y222.367421
g1 x11.236346 y222.311036
g1 x11.24212 y222.31252
g1 x11.236346 y222.311036
g1 x11.244046 y222.250166
g1 x11.250024 y222.250166
g1 x11.244046 y222.250166
g1 x11.236346 y222.189296
g1 x11.24212 y222.187812
g1 x11.236346 y222.189296
g1 x11.21368 y222.13208
g1 x11.218859 y222.129235
g1 x11.21368 y222.13208
g1 x11.17825 y222.083219
g1 x11.182714 y222.07902
g1 x11.17825 y222.083219
g1 x11.131397 y222.044659
g1 x11.134501 y222.039759
g1 x11.131397 y222.044659
g1 x11.074937 y222.018034
g1 x11.076791 y222.012338
g1 x11.074937 y222.018034
g1 x11.015652 y222.006712
g0 z30
(Block-name: path4)
(Block-expand: 0)
(Block-enable: 0)

(End cutting path id: path4)


(Start cutting path id: path4)
(Change tool to Default tool)

G00 Z30.000000
G00 X58.250027 Y216.250162

G01 Z-1.000000 F100.0(Penetrate)
G01 X58.250029 Y228.750162 Z-1.000000 F400.000000
G01 X81.749929 Y228.750160 Z-1.000000
G01 X81.749928 Y216.250159 Z-1.000000
G01 X58.250027 Y216.250162 Z-1.000000
G00 Z30.000000
(Block-name: path4 [in,cut])
(Block-expand: 0)
(Block-enable: 0)
g0 x59.000027 y217.000162
g1 z0 f300
g1 x58.780357 y216.780492 f650
g1 x59.000027 y217.000162
g1 x59.000029 y228.000162
g1 x58.780359 y228.219832
g1 x59.000029 y228.000162
g1 x80.999929 y228.00016
g1 x81.219599 y228.21983
g1 x80.999929 y228.00016
g1 x80.999928 y217.000159
g1 x81.219598 y216.780489
g1 x80.999928 y217.000159
g1 x59.000027 y217.000162
g1 z-1 f300
g1 x58.780357 y216.780492 f650
g1 x59.000027 y217.000162
g1 x59.000029 y228.000162
g1 x58.780359 y228.219832
g1 x59.000029 y228.000162
g1 x80.999929 y228.00016
g1 x81.219599 y228.21983
g1 x80.999929 y228.00016
g1 x80.999928 y217.000159
g1 x81.219598 y216.780489
g1 x80.999928 y217.000159
g1 x59.000027 y217.000162
g1 z-2 f300
g1 x58.780357 y216.780492 f650
g1 x59.000027 y217.000162
g1 x59.000029 y228.000162
g1 x58.780359 y228.219832
g1 x59.000029 y228.000162
g1 x80.999929 y228.00016
g1 x81.219599 y228.21983
g1 x80.999929 y228.00016
g1 x80.999928 y217.000159
g1 x81.219598 y216.780489
g1 x80.999928 y217.000159
g1 x59.000027 y217.000162
g0 z30
(Block-name: path4)
(Block-expand: 0)
(Block-enable: 0)

(End cutting path id: path4)


(Start cutting path id: path4)
(Change tool to Default tool)

G00 Z30.000000
G00 X83.562827 Y221.252159

G01 Z-1.000000 F100.0(Penetrate)
G01 X83.312528 Y221.268159 Z-1.000000 F400.000000
G01 X83.074228 Y221.345159 Z-1.000000
G01 X82.862527 Y221.479159 Z-1.000000
G01 X82.690927 Y221.662159 Z-1.000000
G01 X82.570229 Y221.882159 Z-1.000000
G01 X82.507829 Y222.125159 Z-1.000000
G01 X82.507830 Y222.375159 Z-1.000000
G01 X82.570230 Y222.618159 Z-1.000000
G01 X82.690928 Y222.838159 Z-1.000000
G01 X82.862528 Y223.020159 Z-1.000000
G01 X83.074229 Y223.155159 Z-1.000000
G01 X83.312529 Y223.232159 Z-1.000000
G01 X83.562828 Y223.248159 Z-1.000000
G01 X83.808930 Y223.201159 Z-1.000000
G01 X84.035828 Y223.094160 Z-1.000000
G01 X84.228829 Y222.934160 Z-1.000000
G01 X84.376228 Y222.732160 Z-1.000000
G01 X84.468528 Y222.499160 Z-1.000000
G01 X84.500028 Y222.250160 Z-1.000000
G01 X84.468528 Y222.001160 Z-1.000000
G01 X84.376227 Y221.768159 Z-1.000000
G01 X84.228828 Y221.565160 Z-1.000000
G01 X84.035827 Y221.406159 Z-1.000000
G01 X83.808929 Y221.299160 Z-1.000000
G01 X83.562827 Y221.252159 Z-1.000000
G00 Z30.000000
(Block-name: path4 [in,cut])
(Block-expand: 0)
(Block-enable: 0)
g0 x83.515655 y222.006705
g1 z0 f300
g1 x83.51603 y222.000698 f650
g1 x83.515655 y222.006705
g1 x83.453927 y222.010651
g1 x83.452835 y222.004918
g1 x83.453927 y222.010651
g1 x83.39515 y222.029643
g1 x83.39261 y222.024226
g1 x83.39515 y222.029643
g1 x83.34432 y222.061817
g1 x83.340463 y222.057153
g1 x83.34432 y222.061817
g1 x83.30287 y222.10602
g1 x83.29804 y222.102516
g1 x83.30287 y222.10602
g1 x83.27318 y222.160138
g1 x83.267676 y222.157961
g1 x83.27318 y222.160138
g1 x83.257829 y222.219917
g1 x83.251914 y222.219169
g1 x83.257829 y222.219917
g1 x83.25783 y222.280398
g1 x83.251914 y222.281146
g1 x83.25783 y222.280398
g1 x83.273181 y222.34018
g1 x83.267677 y222.342357
g1 x83.273181 y222.34018
g1 x83.30237 y222.393384
g1 x83.297438 y222.396972
g1 x83.30237 y222.393384
g1 x83.34432 y222.437876
g1 x83.340646 y222.442316
g1 x83.34432 y222.437876
g1 x83.396371 y222.471069
g1 x83.393754 y222.476628
g1 x83.396371 y222.471069
g1 x83.453928 y222.489667
g1 x83.452836 y222.4954
g1 x83.453928 y222.489667
g1 x83.515657 y222.493613
g1 x83.516033 y222.49962
g1 x83.515657 y222.493613
g1 x83.574944 y222.48229
g1 x83.576798 y222.487987
g1 x83.574944 y222.48229
g1 x83.630166 y222.456249
g1 x83.63337 y222.461288
g1 x83.630166 y222.456249
g1 x83.678131 y222.416486
g1 x83.682367 y222.420468
g1 x83.678131 y222.416486
g1 x83.714104 y222.367187
g1 x83.719404 y222.370108
g1 x83.714104 y222.367187
g1 x83.73635 y222.31103
g1 x83.742124 y222.312514
g1 x83.73635 y222.31103
g1 x83.74405 y222.25016
g1 x83.750028 y222.25016
g1 x83.74405 y222.25016
g1 x83.73635 y222.189291
g1 x83.742124 y222.187807
g1 x83.73635 y222.189291
g1 x83.713774 y222.132301
g1 x83.718979 y222.129441
g1 x83.713774 y222.132301
g1 x83.67813 y222.083212
g1 x83.682553 y222.079051
g1 x83.67813 y222.083212
g1 x83.631225 y222.04457
g1 x83.634343 y222.03965
g1 x83.631225 y222.04457
g1 x83.574942 y222.018028
g1 x83.576796 y222.012332
g1 x83.574942 y222.018028
g1 x83.515655 y222.006705
g1 z-1 f300
g1 x83.51603 y222.000698 f650
g1 x83.515655 y222.006705
g1 x83.453927 y222.010651
g1 x83.452835 y222.004918
g1 x83.453927 y222.010651
g1 x83.39515 y222.029643
g1 x83.39261 y222.024226
g1 x83.39515 y222.029643
g1 x83.34432 y222.061817
g1 x83.340463 y222.057153
g1 x83.34432 y222.061817
g1 x83.30287 y222.10602
g1 x83.29804 y222.102516
g1 x83.30287 y222.10602
g1 x83.27318 y222.160138
g1 x83.267676 y222.157961
g1 x83.27318 y222.160138
g1 x83.257829 y222.219917
g1 x83.251914 y222.219169
g1 x83.257829 y222.219917
g1 x83.25783 y222.280398
g1 x83.251914 y222.281146
g1 x83.25783 y222.280398
g1 x83.273181 y222.34018
g1 x83.267677 y222.342357
g1 x83.273181 y222.34018
g1 x83.30237 y222.393384
g1 x83.297438 y222.396972
g1 x83.30237 y222.393384
g1 x83.34432 y222.437876
g1 x83.340646 y222.442316
g1 x83.34432 y222.437876
g1 x83.396371 y222.471069
g1 x83.393754 y222.476628
g1 x83.396371 y222.471069
g1 x83.453928 y222.489667
g1 x83.452836 y222.4954
g1 x83.453928 y222.489667
g1 x83.515657 y222.493613
g1 x83.516033 y222.49962
g1 x83.515657 y222.493613
g1 x83.574944 y222.48229
g1 x83.576798 y222.487987
g1 x83.574944 y222.48229
g1 x83.630166 y222.456249
g1 x83.63337 y222.461288
g1 x83.630166 y222.456249
g1 x83.678131 y222.416486
g1 x83.682367 y222.420468
g1 x83.678131 y222.416486
g1 x83.714104 y222.367187
g1 x83.719404 y222.370108
g1 x83.714104 y222.367187
g1 x83.73635 y222.31103
g1 x83.742124 y222.312514
g1 x83.73635 y222.31103
g1 x83.74405 y222.25016
g1 x83.750028 y222.25016
g1 x83.74405 y222.25016
g1 x83.73635 y222.189291
g1 x83.742124 y222.187807
g1 x83.73635 y222.189291
g1 x83.713774 y222.132301
g1 x83.718979 y222.129441
g1 x83.713774 y222.132301
g1 x83.67813 y222.083212
g1 x83.682553 y222.079051
g1 x83.67813 y222.083212
g1 x83.631225 y222.04457
g1 x83.634343 y222.03965
g1 x83.631225 y222.04457
g1 x83.574942 y222.018028
g1 x83.576796 y222.012332
g1 x83.574942 y222.018028
g1 x83.515655 y222.006705
g1 z-2 f300
g1 x83.51603 y222.000698 f650
g1 x83.515655 y222.006705
g1 x83.453927 y222.010651
g1 x83.452835 y222.004918
g1 x83.453927 y222.010651
g1 x83.39515 y222.029643
g1 x83.39261 y222.024226
g1 x83.39515 y222.029643
g1 x83.34432 y222.061817
g1 x83.340463 y222.057153
g1 x83.34432 y222.061817
g1 x83.30287 y222.10602
g1 x83.29804 y222.102516
g1 x83.30287 y222.10602
g1 x83.27318 y222.160138
g1 x83.267676 y222.157961
g1 x83.27318 y222.160138
g1 x83.257829 y222.219917
g1 x83.251914 y222.219169
g1 x83.257829 y222.219917
g1 x83.25783 y222.280398
g1 x83.251914 y222.281146
g1 x83.25783 y222.280398
g1 x83.273181 y222.34018
g1 x83.267677 y222.342357
g1 x83.273181 y222.34018
g1 x83.30237 y222.393384
g1 x83.297438 y222.396972
g1 x83.30237 y222.393384
g1 x83.34432 y222.437876
g1 x83.340646 y222.442316
g1 x83.34432 y222.437876
g1 x83.396371 y222.471069
g1 x83.393754 y222.476628
g1 x83.396371 y222.471069
g1 x83.453928 y222.489667
g1 x83.452836 y222.4954
g1 x83.453928 y222.489667
g1 x83.515657 y222.493613
g1 x83.516033 y222.49962
g1 x83.515657 y222.493613
g1 x83.574944 y222.48229
g1 x83.576798 y222.487987
g1 x83.574944 y222.48229
g1 x83.630166 y222.456249
g1 x83.63337 y222.461288
g1 x83.630166 y222.456249
g1 x83.678131 y222.416486
g1 x83.682367 y222.420468
g1 x83.678131 y222.416486
g1 x83.714104 y222.367187
g1 x83.719404 y222.370108
g1 x83.714104 y222.367187
g1 x83.73635 y222.31103
g1 x83.742124 y222.312514
g1 x83.73635 y222.31103
g1 x83.74405 y222.25016
g1 x83.750028 y222.25016
g1 x83.74405 y222.25016
g1 x83.73635 y222.189291
g1 x83.742124 y222.187807
g1 x83.73635 y222.189291
g1 x83.713774 y222.132301
g1 x83.718979 y222.129441
g1 x83.713774 y222.132301
g1 x83.67813 y222.083212
g1 x83.682553 y222.079051
g1 x83.67813 y222.083212
g1 x83.631225 y222.04457
g1 x83.634343 y222.03965
g1 x83.631225 y222.04457
g1 x83.574942 y222.018028
g1 x83.576796 y222.012332
g1 x83.574942 y222.018028
g1 x83.515655 y222.006705
g0 z30
(Block-name: path4)
(Block-expand: 0)
(Block-enable: 0)

(End cutting path id: path4)


(Start cutting path id: path4)
(Change tool to Default tool)

G00 Z30.000000
G00 X56.062829 Y221.252162

G01 Z-1.000000 F100.0(Penetrate)
G01 X55.812528 Y221.268162 Z-1.000000 F400.000000
G01 X55.574228 Y221.345162 Z-1.000000
G01 X55.362527 Y221.479162 Z-1.000000
G01 X55.190929 Y221.662162 Z-1.000000
G01 X55.070228 Y221.882162 Z-1.000000
G01 X55.007828 Y222.125162 Z-1.000000
G01 X55.007828 Y222.375162 Z-1.000000
G01 X55.070228 Y222.618162 Z-1.000000
G01 X55.190929 Y222.838162 Z-1.000000
G01 X55.362527 Y223.020162 Z-1.000000
G01 X55.574228 Y223.155162 Z-1.000000
G01 X55.812528 Y223.232162 Z-1.000000
G01 X56.062829 Y223.248162 Z-1.000000
G01 X56.308928 Y223.201162 Z-1.000000
G01 X56.535827 Y223.094163 Z-1.000000
G01 X56.729028 Y222.934163 Z-1.000000
G01 X56.876227 Y222.732163 Z-1.000000
G01 X56.968527 Y222.499163 Z-1.000000
G01 X57.000027 Y222.250163 Z-1.000000
G01 X56.968527 Y222.001163 Z-1.000000
G01 X56.876227 Y221.768162 Z-1.000000
G01 X56.729028 Y221.565163 Z-1.000000
G01 X56.535827 Y221.406162 Z-1.000000
G01 X56.308928 Y221.299163 Z-1.000000
G01 X56.062829 Y221.252162 Z-1.000000
G00 Z30.000000
(Block-name: path4 [in,cut])
(Block-expand: 0)
(Block-enable: 0)
g0 x56.015656 y222.006708
g1 z0 f300
g1 x56.016031 y222.000701 f650
g1 x56.015656 y222.006708
g1 x55.953926 y222.010654
g1 x55.952835 y222.004921
g1 x55.953926 y222.010654
g1 x55.89515 y222.029646
g1 x55.89261 y222.024229
g1 x55.89515 y222.029646
g1 x55.844322 y222.061819
g1 x55.840465 y222.057155
g1 x55.844322 y222.061819
g1 x55.802871 y222.106024
g1 x55.798041 y222.10252
g1 x55.802871 y222.106024
g1 x55.773178 y222.160145
g1 x55.767674 y222.157968
g1 x55.773178 y222.160145
g1 x55.757828 y222.219921
g1 x55.751913 y222.219174
g1 x55.757828 y222.219921
g1 x55.757828 y222.280403
g1 x55.751913 y222.28115
g1 x55.757828 y222.280403
g1 x55.773178 y222.340179
g1 x55.767674 y222.342356
g1 x55.773178 y222.340179
g1 x55.80237 y222.393386
g1 x55.797438 y222.396974
g1 x55.80237 y222.393386
g1 x55.844321 y222.437881
g1 x55.840647 y222.44232
g1 x55.844321 y222.437881
g1 x55.89637 y222.471072
g1 x55.893753 y222.476631
g1 x55.89637 y222.471072
g1 x55.953926 y222.48967
g1 x55.952835 y222.495403
g1 x55.953926 y222.48967
g1 x56.015657 y222.493616
g1 x56.016033 y222.499623
g1 x56.015657 y222.493616
g1 x56.074942 y222.482294
g1 x56.076796 y222.48799
g1 x56.074942 y222.482294
g1 x56.130341 y222.456169
g1 x56.133531 y222.461188
g1 x56.130341 y222.456169
g1 x56.178254 y222.416489
g1 x56.182531 y222.420509
g1 x56.178254 y222.416489
g1 x56.214013 y222.367419
g1 x56.219286 y222.370323
g1 x56.214013 y222.367419
g1 x56.236349 y222.311033
g1 x56.242123 y222.312517
g1 x56.236349 y222.311033
g1 x56.244049 y222.250163
g1 x56.250027 y222.250163
g1 x56.244049 y222.250163
g1 x56.236349 y222.189292
g1 x56.242123 y222.187809
g1 x56.236349 y222.189292
g1 x56.213683 y222.132075
g1 x56.218861 y222.12923
g1 x56.213683 y222.132075
g1 x56.178254 y222.083215
g1 x56.182718 y222.079016
g1 x56.178254 y222.083215
g1 x56.1314 y222.044655
g1 x56.134504 y222.039755
g1 x56.1314 y222.044655
g1 x56.07494 y222.018031
g1 x56.076794 y222.012335
g1 x56.07494 y222.018031
g1 x56.015656 y222.006708
g1 z-1 f300
g1 x56.016031 y222.000701 f650
g1 x56.015656 y222.006708
g1 x55.953926 y222.010654
g1 x55.952835 y222.004921
g1 x55.953926 y222.010654
g1 x55.89515 y222.029646
g1 x55.89261 y222.024229
g1 x55.89515 y222.029646
g1 x55.844322 y222.061819
g1 x55.840465 y222.057155
g1 x55.844322 y222.061819
g1 x55.802871 y222.106024
g1 x55.798041 y222.10252
g1 x55.802871 y222.106024
g1 x55.773178 y222.160145
g1 x55.767674 y222.157968
g1 x55.773178 y222.160145
g1 x55.757828 y222.219921
g1 x55.751913 y222.219174
g1 x55.757828 y222.219921
g1 x55.757828 y222.280403
g1 x55.751913 y222.28115
g1 x55.757828 y222.280403
g1 x55.773178 y222.340179
g1 x55.767674 y222.342356
g1 x55.773178 y222.340179
g1 x55.80237 y222.393386
g1 x55.797438 y222.396974
g1 x55.80237 y222.393386
g1 x55.844321 y222.437881
g1 x55.840647 y222.44232
g1 x55.844321 y222.437881
g1 x55.89637 y222.471072
g1 x55.893753 y222.476631
g1 x55.89637 y222.471072
g1 x55.953926 y222.48967
g1 x55.952835 y222.495403
g1 x55.953926 y222.48967
g1 x56.015657 y222.493616
g1 x56.016033 y222.499623
g1 x56.015657 y222.493616
g1 x56.074942 y222.482294
g1 x56.076796 y222.48799
g1 x56.074942 y222.482294
g1 x56.130341 y222.456169
g1 x56.133531 y222.461188
g1 x56.130341 y222.456169
g1 x56.178254 y222.416489
g1 x56.182531 y222.420509
g1 x56.178254 y222.416489
g1 x56.214013 y222.367419
g1 x56.219286 y222.370323
g1 x56.214013 y222.367419
g1 x56.236349 y222.311033
g1 x56.242123 y222.312517
g1 x56.236349 y222.311033
g1 x56.244049 y222.250163
g1 x56.250027 y222.250163
g1 x56.244049 y222.250163
g1 x56.236349 y222.189292
g1 x56.242123 y222.187809
g1 x56.236349 y222.189292
g1 x56.213683 y222.132075
g1 x56.218861 y222.12923
g1 x56.213683 y222.132075
g1 x56.178254 y222.083215
g1 x56.182718 y222.079016
g1 x56.178254 y222.083215
g1 x56.1314 y222.044655
g1 x56.134504 y222.039755
g1 x56.1314 y222.044655
g1 x56.07494 y222.018031
g1 x56.076794 y222.012335
g1 x56.07494 y222.018031
g1 x56.015656 y222.006708
g1 z-2 f300
g1 x56.016031 y222.000701 f650
g1 x56.015656 y222.006708
g1 x55.953926 y222.010654
g1 x55.952835 y222.004921
g1 x55.953926 y222.010654
g1 x55.89515 y222.029646
g1 x55.89261 y222.024229
g1 x55.89515 y222.029646
g1 x55.844322 y222.061819
g1 x55.840465 y222.057155
g1 x55.844322 y222.061819
g1 x55.802871 y222.106024
g1 x55.798041 y222.10252
g1 x55.802871 y222.106024
g1 x55.773178 y222.160145
g1 x55.767674 y222.157968
g1 x55.773178 y222.160145
g1 x55.757828 y222.219921
g1 x55.751913 y222.219174
g1 x55.757828 y222.219921
g1 x55.757828 y222.280403
g1 x55.751913 y222.28115
g1 x55.757828 y222.280403
g1 x55.773178 y222.340179
g1 x55.767674 y222.342356
g1 x55.773178 y222.340179
g1 x55.80237 y222.393386
g1 x55.797438 y222.396974
g1 x55.80237 y222.393386
g1 x55.844321 y222.437881
g1 x55.840647 y222.44232
g1 x55.844321 y222.437881
g1 x55.89637 y222.471072
g1 x55.893753 y222.476631
g1 x55.89637 y222.471072
g1 x55.953926 y222.48967
g1 x55.952835 y222.495403
g1 x55.953926 y222.48967
g1 x56.015657 y222.493616
g1 x56.016033 y222.499623
g1 x56.015657 y222.493616
g1 x56.074942 y222.482294
g1 x56.076796 y222.48799
g1 x56.074942 y222.482294
g1 x56.130341 y222.456169
g1 x56.133531 y222.461188
g1 x56.130341 y222.456169
g1 x56.178254 y222.416489
g1 x56.182531 y222.420509
g1 x56.178254 y222.416489
g1 x56.214013 y222.367419
g1 x56.219286 y222.370323
g1 x56.214013 y222.367419
g1 x56.236349 y222.311033
g1 x56.242123 y222.312517
g1 x56.236349 y222.311033
g1 x56.244049 y222.250163
g1 x56.250027 y222.250163
g1 x56.244049 y222.250163
g1 x56.236349 y222.189292
g1 x56.242123 y222.187809
g1 x56.236349 y222.189292
g1 x56.213683 y222.132075
g1 x56.218861 y222.12923
g1 x56.213683 y222.132075
g1 x56.178254 y222.083215
g1 x56.182718 y222.079016
g1 x56.178254 y222.083215
g1 x56.1314 y222.044655
g1 x56.134504 y222.039755
g1 x56.1314 y222.044655
g1 x56.07494 y222.018031
g1 x56.076794 y222.012335
g1 x56.07494 y222.018031
g1 x56.015656 y222.006708
g0 z30
(Block-name: path4)
(Block-expand: 0)
(Block-enable: 0)

(End cutting path id: path4)


(Start cutting path id: path4)
(Change tool to Default tool)

G00 Z30.000000
G00 X143.250024 Y216.250153

G01 Z-1.000000 F100.0(Penetrate)
G01 X143.250025 Y228.750153 Z-1.000000 F400.000000
G01 X166.750026 Y228.750151 Z-1.000000
G01 X166.750025 Y216.250151 Z-1.000000
G01 X143.250024 Y216.250153 Z-1.000000
G00 Z30.000000
(Block-name: path4 [in,cut])
(Block-expand: 0)
(Block-enable: 0)
g0 x144.000024 y217.000153
g1 z0 f300
g1 x143.780354 y216.780483 f650
g1 x144.000024 y217.000153
g1 x144.000025 y228.000153
g1 x143.780355 y228.219823
g1 x144.000025 y228.000153
g1 x166.000026 y228.000151
g1 x166.219696 y228.219821
g1 x166.000026 y228.000151
g1 x166.000025 y217.000151
g1 x166.219695 y216.780481
g1 x166.000025 y217.000151
g1 x144.000024 y217.000153
g1 z-1 f300
g1 x143.780354 y216.780483 f650
g1 x144.000024 y217.000153
g1 x144.000025 y228.000153
g1 x143.780355 y228.219823
g1 x144.000025 y228.000153
g1 x166.000026 y228.000151
g1 x166.219696 y228.219821
g1 x166.000026 y228.000151
g1 x166.000025 y217.000151
g1 x166.219695 y216.780481
g1 x166.000025 y217.000151
g1 x144.000024 y217.000153
g1 z-2 f300
g1 x143.780354 y216.780483 f650
g1 x144.000024 y217.000153
g1 x144.000025 y228.000153
g1 x143.780355 y228.219823
g1 x144.000025 y228.000153
g1 x166.000026 y228.000151
g1 x166.219696 y228.219821
g1 x166.000026 y228.000151
g1 x166.000025 y217.000151
g1 x166.219695 y216.780481
g1 x166.000025 y217.000151
g1 x144.000024 y217.000153
g0 z30
(Block-name: path4)
(Block-expand: 0)
(Block-enable: 0)

(End cutting path id: path4)


(Start cutting path id: path4)
(Change tool to Default tool)

G00 Z30.000000
G00 X168.563025 Y221.252151

G01 Z-1.000000 F100.0(Penetrate)
G01 X168.313025 Y221.268151 Z-1.000000 F400.000000
G01 X168.074025 Y221.345151 Z-1.000000
G01 X167.863025 Y221.479151 Z-1.000000
G01 X167.691025 Y221.662151 Z-1.000000
G01 X167.570025 Y221.882151 Z-1.000000
G01 X167.508025 Y222.125151 Z-1.000000
G01 X167.508025 Y222.375151 Z-1.000000
G01 X167.570025 Y222.618151 Z-1.000000
G01 X167.691025 Y222.838151 Z-1.000000
G01 X167.863025 Y223.020151 Z-1.000000
G01 X168.074025 Y223.155151 Z-1.000000
G01 X168.313025 Y223.232151 Z-1.000000
G01 X168.563025 Y223.248151 Z-1.000000
G01 X168.809025 Y223.201151 Z-1.000000
G01 X169.036025 Y223.094152 Z-1.000000
G01 X169.229025 Y222.934152 Z-1.000000
G01 X169.376025 Y222.732152 Z-1.000000
G01 X169.469025 Y222.499152 Z-1.000000
G01 X169.500025 Y222.250152 Z-1.000000
G01 X169.469025 Y222.001152 Z-1.000000
G01 X169.376025 Y221.768151 Z-1.000000
G01 X169.229025 Y221.565152 Z-1.000000
G01 X169.036025 Y221.406151 Z-1.000000
G01 X168.809025 Y221.299152 Z-1.000000
G01 X168.563025 Y221.252151 Z-1.000000
G00 Z30.000000
(Block-name: path4 [in,cut])
(Block-expand: 0)
(Block-enable: 0)
g0 x168.515852 y222.006705
g1 z0 f300
g1 x168.516228 y222.00069 f650
g1 x168.515852 y222.006705
g1 x168.454125 y222.010655
g1 x168.453044 y222.004965
g1 x168.454125 y222.010655
g1 x168.395215 y222.029634
g1 x168.392626 y222.024116
g1 x168.395215 y222.029634
g1 x168.344835 y222.061629
g1 x168.341059 y222.057064
g1 x168.344835 y222.061629
g1 x168.30248 y222.106693
g1 x168.297649 y222.103181
g1 x168.30248 y222.106693
g1 x168.27316 y222.160003
g1 x168.26754 y222.157782
g1 x168.27316 y222.160003
g1 x168.258025 y222.219322
g1 x168.252182 y222.218588
g1 x168.258025 y222.219322
g1 x168.258025 y222.28098
g1 x168.252182 y222.281714
g1 x168.258025 y222.28098
g1 x168.27316 y222.340299
g1 x168.26754 y222.34252
g1 x168.27316 y222.340299
g1 x168.301978 y222.392696
g1 x168.297046 y222.396292
g1 x168.301978 y222.392696
g1 x168.344837 y222.438047
g1 x168.341242 y222.44239
g1 x168.344837 y222.438047
g1 x168.396438 y222.471061
g1 x168.393769 y222.476724
g1 x168.396438 y222.471061
g1 x168.454125 y222.489647
g1 x168.453044 y222.495337
g1 x168.454125 y222.489647
g1 x168.515854 y222.493598
g1 x168.51623 y222.499612
g1 x168.515854 y222.493598
g1 x168.575077 y222.482282
g1 x168.576928 y222.487967
g1 x168.575077 y222.482282
g1 x168.630413 y222.456199
g1 x168.633621 y222.461245
g1 x168.630413 y222.456199
g1 x168.677948 y222.416792
g1 x168.682231 y222.420813
g1 x168.677948 y222.416792
g1 x168.714302 y222.366837
g1 x168.719437 y222.369672
g1 x168.714302 y222.366837
g1 x168.736692 y222.310741
g1 x168.742678 y222.312282
g1 x168.736692 y222.310741
g1 x168.744235 y222.250152
g1 x168.750025 y222.250152
g1 x168.744235 y222.250152
g1 x168.736692 y222.189562
g1 x168.742678 y222.188022
g1 x168.736692 y222.189562
g1 x168.71397 y222.132636
g1 x168.719012 y222.129861
g1 x168.71397 y222.132636
g1 x168.677948 y222.082891
g1 x168.682419 y222.07869
g1 x168.677948 y222.082891
g1 x168.631473 y222.044603
g1 x168.634595 y222.039676
g1 x168.631473 y222.044603
g1 x168.575076 y222.01802
g1 x168.576926 y222.012335
g1 x168.575076 y222.01802
g1 x168.515852 y222.006705
g1 z-1 f300
g1 x168.516228 y222.00069 f650
g1 x168.515852 y222.006705
g1 x168.454125 y222.010655
g1 x168.453044 y222.004965
g1 x168.454125 y222.010655
g1 x168.395215 y222.029634
g1 x168.392626 y222.024116
g1 x168.395215 y222.029634
g1 x168.344835 y222.061629
g1 x168.341059 y222.057064
g1 x168.344835 y222.061629
g1 x168.30248 y222.106693
g1 x168.297649 y222.103181
g1 x168.30248 y222.106693
g1 x168.27316 y222.160003
g1 x168.26754 y222.157782
g1 x168.27316 y222.160003
g1 x168.258025 y222.219322
g1 x168.252182 y222.218588
g1 x168.258025 y222.219322
g1 x168.258025 y222.28098
g1 x168.252182 y222.281714
g1 x168.258025 y222.28098
g1 x168.27316 y222.340299
g1 x168.26754 y222.34252
g1 x168.27316 y222.340299
g1 x168.301978 y222.392696
g1 x168.297046 y222.396292
g1 x168.301978 y222.392696
g1 x168.344837 y222.438047
g1 x168.341242 y222.44239
g1 x168.344837 y222.438047
g1 x168.396438 y222.471061
g1 x168.393769 y222.476724
g1 x168.396438 y222.471061
g1 x168.454125 y222.489647
g1 x168.453044 y222.495337
g1 x168.454125 y222.489647
g1 x168.515854 y222.493598
g1 x168.51623 y222.499612
g1 x168.515854 y222.493598
g1 x168.575077 y222.482282
g1 x168.576928 y222.487967
g1 x168.575077 y222.482282
g1 x168.630413 y222.456199
g1 x168.633621 y222.461245
g1 x168.630413 y222.456199
g1 x168.677948 y222.416792
g1 x168.682231 y222.420813
g1 x168.677948 y222.416792
g1 x168.714302 y222.366837
g1 x168.719437 y222.369672
g1 x168.714302 y222.366837
g1 x168.736692 y222.310741
g1 x168.742678 y222.312282
g1 x168.736692 y222.310741
g1 x168.744235 y222.250152
g1 x168.750025 y222.250152
g1 x168.744235 y222.250152
g1 x168.736692 y222.189562
g1 x168.742678 y222.188022
g1 x168.736692 y222.189562
g1 x168.71397 y222.132636
g1 x168.719012 y222.129861
g1 x168.71397 y222.132636
g1 x168.677948 y222.082891
g1 x168.682419 y222.07869
g1 x168.677948 y222.082891
g1 x168.631473 y222.044603
g1 x168.634595 y222.039676
g1 x168.631473 y222.044603
g1 x168.575076 y222.01802
g1 x168.576926 y222.012335
g1 x168.575076 y222.01802
g1 x168.515852 y222.006705
g1 z-2 f300
g1 x168.516228 y222.00069 f650
g1 x168.515852 y222.006705
g1 x168.454125 y222.010655
g1 x168.453044 y222.004965
g1 x168.454125 y222.010655
g1 x168.395215 y222.029634
g1 x168.392626 y222.024116
g1 x168.395215 y222.029634
g1 x168.344835 y222.061629
g1 x168.341059 y222.057064
g1 x168.344835 y222.061629
g1 x168.30248 y222.106693
g1 x168.297649 y222.103181
g1 x168.30248 y222.106693
g1 x168.27316 y222.160003
g1 x168.26754 y222.157782
g1 x168.27316 y222.160003
g1 x168.258025 y222.219322
g1 x168.252182 y222.218588
g1 x168.258025 y222.219322
g1 x168.258025 y222.28098
g1 x168.252182 y222.281714
g1 x168.258025 y222.28098
g1 x168.27316 y222.340299
g1 x168.26754 y222.34252
g1 x168.27316 y222.340299
g1 x168.301978 y222.392696
g1 x168.297046 y222.396292
g1 x168.301978 y222.392696
g1 x168.344837 y222.438047
g1 x168.341242 y222.44239
g1 x168.344837 y222.438047
g1 x168.396438 y222.471061
g1 x168.393769 y222.476724
g1 x168.396438 y222.471061
g1 x168.454125 y222.489647
g1 x168.453044 y222.495337
g1 x168.454125 y222.489647
g1 x168.515854 y222.493598
g1 x168.51623 y222.499612
g1 x168.515854 y222.493598
g1 x168.575077 y222.482282
g1 x168.576928 y222.487967
g1 x168.575077 y222.482282
g1 x168.630413 y222.456199
g1 x168.633621 y222.461245
g1 x168.630413 y222.456199
g1 x168.677948 y222.416792
g1 x168.682231 y222.420813
g1 x168.677948 y222.416792
g1 x168.714302 y222.366837
g1 x168.719437 y222.369672
g1 x168.714302 y222.366837
g1 x168.736692 y222.310741
g1 x168.742678 y222.312282
g1 x168.736692 y222.310741
g1 x168.744235 y222.250152
g1 x168.750025 y222.250152
g1 x168.744235 y222.250152
g1 x168.736692 y222.189562
g1 x168.742678 y222.188022
g1 x168.736692 y222.189562
g1 x168.71397 y222.132636
g1 x168.719012 y222.129861
g1 x168.71397 y222.132636
g1 x168.677948 y222.082891
g1 x168.682419 y222.07869
g1 x168.677948 y222.082891
g1 x168.631473 y222.044603
g1 x168.634595 y222.039676
g1 x168.631473 y222.044603
g1 x168.575076 y222.01802
g1 x168.576926 y222.012335
g1 x168.575076 y222.01802
g1 x168.515852 y222.006705
g0 z30
(Block-name: path4)
(Block-expand: 0)
(Block-enable: 0)

(End cutting path id: path4)


(Start cutting path id: path4)
(Change tool to Default tool)

G00 Z30.000000
G00 X141.063025 Y221.252154

G01 Z-1.000000 F100.0(Penetrate)
G01 X140.813025 Y221.268154 Z-1.000000 F400.000000
G01 X140.574025 Y221.345154 Z-1.000000
G01 X140.363025 Y221.479154 Z-1.000000
G01 X140.191025 Y221.662154 Z-1.000000
G01 X140.070025 Y221.882154 Z-1.000000
G01 X140.008025 Y222.125154 Z-1.000000
G01 X140.008025 Y222.375154 Z-1.000000
G01 X140.070025 Y222.618154 Z-1.000000
G01 X140.191025 Y222.838154 Z-1.000000
G01 X140.363025 Y223.020154 Z-1.000000
G01 X140.574025 Y223.155154 Z-1.000000
G01 X140.813025 Y223.232154 Z-1.000000
G01 X141.063025 Y223.248154 Z-1.000000
G01 X141.309025 Y223.201154 Z-1.000000
G01 X141.536025 Y223.094155 Z-1.000000
G01 X141.729025 Y222.934155 Z-1.000000
G01 X141.876025 Y222.732155 Z-1.000000
G01 X141.969025 Y222.499154 Z-1.000000
G01 X142.000025 Y222.250154 Z-1.000000
G01 X141.969025 Y222.001154 Z-1.000000
G01 X141.876025 Y221.768153 Z-1.000000
G01 X141.729025 Y221.565155 Z-1.000000
G01 X141.536025 Y221.406154 Z-1.000000
G01 X141.309025 Y221.299155 Z-1.000000
G01 X141.063025 Y221.252154 Z-1.000000
G00 Z30.000000
(Block-name: path4 [in,cut])
(Block-expand: 0)
(Block-enable: 0)
g0 x141.015852 y222.006708
g1 z0 f300
g1 x141.016228 y222.000693 f650
g1 x141.015852 y222.006708
g1 x140.954125 y222.010658
g1 x140.953044 y222.004968
g1 x140.954125 y222.010658
g1 x140.895215 y222.029637
g1 x140.892626 y222.024119
g1 x140.895215 y222.029637
g1 x140.844835 y222.061632
g1 x140.841059 y222.057067
g1 x140.844835 y222.061632
g1 x140.80248 y222.106696
g1 x140.797649 y222.103184
g1 x140.80248 y222.106696
g1 x140.77316 y222.160006
g1 x140.76754 y222.157785
g1 x140.77316 y222.160006
g1 x140.758025 y222.219325
g1 x140.752182 y222.218591
g1 x140.758025 y222.219325
g1 x140.758025 y222.280983
g1 x140.752182 y222.281717
g1 x140.758025 y222.280983
g1 x140.77316 y222.340302
g1 x140.76754 y222.342523
g1 x140.77316 y222.340302
g1 x140.801978 y222.392699
g1 x140.797046 y222.396295
g1 x140.801978 y222.392699
g1 x140.844837 y222.43805
g1 x140.841242 y222.442393
g1 x140.844837 y222.43805
g1 x140.896438 y222.471064
g1 x140.893769 y222.476727
g1 x140.896438 y222.471064
g1 x140.954125 y222.48965
g1 x140.953044 y222.49534
g1 x140.954125 y222.48965
g1 x141.015854 y222.493601
g1 x141.01623 y222.499615
g1 x141.015854 y222.493601
g1 x141.075077 y222.482285
g1 x141.076928 y222.48797
g1 x141.075077 y222.482285
g1 x141.130413 y222.456202
g1 x141.133621 y222.461248
g1 x141.130413 y222.456202
g1 x141.177948 y222.416795
g1 x141.182231 y222.420816
g1 x141.177948 y222.416795
g1 x141.214301 y222.36684
g1 x141.219437 y222.369675
g1 x141.214301 y222.36684
g1 x141.236692 y222.310744
g1 x141.242678 y222.312284
g1 x141.236692 y222.310744
g1 x141.244235 y222.250154
g1 x141.250025 y222.250154
g1 x141.244235 y222.250154
g1 x141.236692 y222.189564
g1 x141.242678 y222.188024
g1 x141.236692 y222.189564
g1 x141.213971 y222.132639
g1 x141.219012 y222.129863
g1 x141.213971 y222.132639
g1 x141.177948 y222.082894
g1 x141.182419 y222.078694
g1 x141.177948 y222.082894
g1 x141.131473 y222.044606
g1 x141.134595 y222.039679
g1 x141.131473 y222.044606
g1 x141.075076 y222.018023
g1 x141.076926 y222.012338
g1 x141.075076 y222.018023
g1 x141.015852 y222.006708
g1 z-1 f300
g1 x141.016228 y222.000693 f650
g1 x141.015852 y222.006708
g1 x140.954125 y222.010658
g1 x140.953044 y222.004968
g1 x140.954125 y222.010658
g1 x140.895215 y222.029637
g1 x140.892626 y222.024119
g1 x140.895215 y222.029637
g1 x140.844835 y222.061632
g1 x140.841059 y222.057067
g1 x140.844835 y222.061632
g1 x140.80248 y222.106696
g1 x140.797649 y222.103184
g1 x140.80248 y222.106696
g1 x140.77316 y222.160006
g1 x140.76754 y222.157785
g1 x140.77316 y222.160006
g1 x140.758025 y222.219325
g1 x140.752182 y222.218591
g1 x140.758025 y222.219325
g1 x140.758025 y222.280983
g1 x140.752182 y222.281717
g1 x140.758025 y222.280983
g1 x140.77316 y222.340302
g1 x140.76754 y222.342523
g1 x140.77316 y222.340302
g1 x140.801978 y222.392699
g1 x140.797046 y222.396295
g1 x140.801978 y222.392699
g1 x140.844837 y222.43805
g1 x140.841242 y222.442393
g1 x140.844837 y222.43805
g1 x140.896438 y222.471064
g1 x140.893769 y222.476727
g1 x140.896438 y222.471064
g1 x140.954125 y222.48965
g1 x140.953044 y222.49534
g1 x140.954125 y222.48965
g1 x141.015854 y222.493601
g1 x141.01623 y222.499615
g1 x141.015854 y222.493601
g1 x141.075077 y222.482285
g1 x141.076928 y222.48797
g1 x141.075077 y222.482285
g1 x141.130413 y222.456202
g1 x141.133621 y222.461248
g1 x141.130413 y222.456202
g1 x141.177948 y222.416795
g1 x141.182231 y222.420816
g1 x141.177948 y222.416795
g1 x141.214301 y222.36684
g1 x141.219437 y222.369675
g1 x141.214301 y222.36684
g1 x141.236692 y222.310744
g1 x141.242678 y222.312284
g1 x141.236692 y222.310744
g1 x141.244235 y222.250154
g1 x141.250025 y222.250154
g1 x141.244235 y222.250154
g1 x141.236692 y222.189564
g1 x141.242678 y222.188024
g1 x141.236692 y222.189564
g1 x141.213971 y222.132639
g1 x141.219012 y222.129863
g1 x141.213971 y222.132639
g1 x141.177948 y222.082894
g1 x141.182419 y222.078694
g1 x141.177948 y222.082894
g1 x141.131473 y222.044606
g1 x141.134595 y222.039679
g1 x141.131473 y222.044606
g1 x141.075076 y222.018023
g1 x141.076926 y222.012338
g1 x141.075076 y222.018023
g1 x141.015852 y222.006708
g1 z-2 f300
g1 x141.016228 y222.000693 f650
g1 x141.015852 y222.006708
g1 x140.954125 y222.010658
g1 x140.953044 y222.004968
g1 x140.954125 y222.010658
g1 x140.895215 y222.029637
g1 x140.892626 y222.024119
g1 x140.895215 y222.029637
g1 x140.844835 y222.061632
g1 x140.841059 y222.057067
g1 x140.844835 y222.061632
g1 x140.80248 y222.106696
g1 x140.797649 y222.103184
g1 x140.80248 y222.106696
g1 x140.77316 y222.160006
g1 x140.76754 y222.157785
g1 x140.77316 y222.160006
g1 x140.758025 y222.219325
g1 x140.752182 y222.218591
g1 x140.758025 y222.219325
g1 x140.758025 y222.280983
g1 x140.752182 y222.281717
g1 x140.758025 y222.280983
g1 x140.77316 y222.340302
g1 x140.76754 y222.342523
g1 x140.77316 y222.340302
g1 x140.801978 y222.392699
g1 x140.797046 y222.396295
g1 x140.801978 y222.392699
g1 x140.844837 y222.43805
g1 x140.841242 y222.442393
g1 x140.844837 y222.43805
g1 x140.896438 y222.471064
g1 x140.893769 y222.476727
g1 x140.896438 y222.471064
g1 x140.954125 y222.48965
g1 x140.953044 y222.49534
g1 x140.954125 y222.48965
g1 x141.015854 y222.493601
g1 x141.01623 y222.499615
g1 x141.015854 y222.493601
g1 x141.075077 y222.482285
g1 x141.076928 y222.48797
g1 x141.075077 y222.482285
g1 x141.130413 y222.456202
g1 x141.133621 y222.461248
g1 x141.130413 y222.456202
g1 x141.177948 y222.416795
g1 x141.182231 y222.420816
g1 x141.177948 y222.416795
g1 x141.214301 y222.36684
g1 x141.219437 y222.369675
g1 x141.214301 y222.36684
g1 x141.236692 y222.310744
g1 x141.242678 y222.312284
g1 x141.236692 y222.310744
g1 x141.244235 y222.250154
g1 x141.250025 y222.250154
g1 x141.244235 y222.250154
g1 x141.236692 y222.189564
g1 x141.242678 y222.188024
g1 x141.236692 y222.189564
g1 x141.213971 y222.132639
g1 x141.219012 y222.129863
g1 x141.213971 y222.132639
g1 x141.177948 y222.082894
g1 x141.182419 y222.078694
g1 x141.177948 y222.082894
g1 x141.131473 y222.044606
g1 x141.134595 y222.039679
g1 x141.131473 y222.044606
g1 x141.075076 y222.018023
g1 x141.076926 y222.012338
g1 x141.075076 y222.018023
g1 x141.015852 y222.006708
g0 z30
(Block-name: path4)
(Block-expand: 0)
(Block-enable: 0)

(End cutting path id: path4)


(Start cutting path id: path4)
(Change tool to Default tool)

G00 Z30.000000
G00 X100.750033 Y216.250157

G01 Z-1.000000 F100.0(Penetrate)
G01 X100.750034 Y228.750158 Z-1.000000 F400.000000
G01 X124.250025 Y228.750155 Z-1.000000
G01 X124.250024 Y216.250155 Z-1.000000
G01 X100.750033 Y216.250157 Z-1.000000
G00 Z30.000000
(Block-name: path4 [in,cut])
(Block-expand: 0)
(Block-enable: 0)
g0 x101.500033 y217.000157
g1 z0 f300
g1 x101.280363 y216.780487 f650
g1 x101.500033 y217.000157
g1 x101.500034 y228.000158
g1 x101.280364 y228.219828
g1 x101.500034 y228.000158
g1 x123.500025 y228.000155
g1 x123.719695 y228.219825
g1 x123.500025 y228.000155
g1 x123.500024 y217.000155
g1 x123.719694 y216.780485
g1 x123.500024 y217.000155
g1 x101.500033 y217.000157
g1 z-1 f300
g1 x101.280363 y216.780487 f650
g1 x101.500033 y217.000157
g1 x101.500034 y228.000158
g1 x101.280364 y228.219828
g1 x101.500034 y228.000158
g1 x123.500025 y228.000155
g1 x123.719695 y228.219825
g1 x123.500025 y228.000155
g1 x123.500024 y217.000155
g1 x123.719694 y216.780485
g1 x123.500024 y217.000155
g1 x101.500033 y217.000157
g1 z-2 f300
g1 x101.280363 y216.780487 f650
g1 x101.500033 y217.000157
g1 x101.500034 y228.000158
g1 x101.280364 y228.219828
g1 x101.500034 y228.000158
g1 x123.500025 y228.000155
g1 x123.719695 y228.219825
g1 x123.500025 y228.000155
g1 x123.500024 y217.000155
g1 x123.719694 y216.780485
g1 x123.500024 y217.000155
g1 x101.500033 y217.000157
g0 z30
(Block-name: path4)
(Block-expand: 0)
(Block-enable: 0)

(End cutting path id: path4)


(Start cutting path id: path4)
(Change tool to Default tool)

G00 Z30.000000
G00 X126.063024 Y221.252155

G01 Z-1.000000 F100.0(Penetrate)
G01 X125.813024 Y221.268155 Z-1.000000 F400.000000
G01 X125.574024 Y221.345155 Z-1.000000
G01 X125.363024 Y221.479155 Z-1.000000
G01 X125.191024 Y221.662155 Z-1.000000
G01 X125.070024 Y221.882155 Z-1.000000
G01 X125.008024 Y222.125155 Z-1.000000
G01 X125.008024 Y222.375155 Z-1.000000
G01 X125.070024 Y222.618155 Z-1.000000
G01 X125.191024 Y222.838155 Z-1.000000
G01 X125.363024 Y223.020155 Z-1.000000
G01 X125.574024 Y223.155155 Z-1.000000
G01 X125.813024 Y223.232155 Z-1.000000
G01 X126.063024 Y223.248155 Z-1.000000
G01 X126.309024 Y223.201155 Z-1.000000
G01 X126.536024 Y223.094156 Z-1.000000
G01 X126.729024 Y222.934156 Z-1.000000
G01 X126.876024 Y222.732156 Z-1.000000
G01 X126.969024 Y222.499156 Z-1.000000
G01 X127.000024 Y222.250156 Z-1.000000
G01 X126.969024 Y222.001156 Z-1.000000
G01 X126.876024 Y221.768155 Z-1.000000
G01 X126.729024 Y221.565156 Z-1.000000
G01 X126.536024 Y221.406155 Z-1.000000
G01 X126.309024 Y221.299156 Z-1.000000
G01 X126.063024 Y221.252155 Z-1.000000
G00 Z30.000000
(Block-name: path4 [in,cut])
(Block-expand: 0)
(Block-enable: 0)
g0 x126.015851 y222.006709
g1 z0 f300
g1 x126.016227 y222.000694 f650
g1 x126.015851 y222.006709
g1 x125.954124 y222.010659
g1 x125.953043 y222.004969
g1 x125.954124 y222.010659
g1 x125.895214 y222.029638
g1 x125.892625 y222.02412
g1 x125.895214 y222.029638
g1 x125.844834 y222.061633
g1 x125.841058 y222.057068
g1 x125.844834 y222.061633
g1 x125.802479 y222.106697
g1 x125.797648 y222.103185
g1 x125.802479 y222.106697
g1 x125.773159 y222.160007
g1 x125.767539 y222.157786
g1 x125.773159 y222.160007
g1 x125.758024 y222.219326
g1 x125.752181 y222.218592
g1 x125.758024 y222.219326
g1 x125.758024 y222.280984
g1 x125.752181 y222.281718
g1 x125.758024 y222.280984
g1 x125.773159 y222.340303
g1 x125.767539 y222.342524
g1 x125.773159 y222.340303
g1 x125.801977 y222.3927
g1 x125.797045 y222.396296
g1 x125.801977 y222.3927
g1 x125.844836 y222.438051
g1 x125.841241 y222.442394
g1 x125.844836 y222.438051
g1 x125.896437 y222.471065
g1 x125.893768 y222.476728
g1 x125.896437 y222.471065
g1 x125.954124 y222.489651
g1 x125.953043 y222.495341
g1 x125.954124 y222.489651
g1 x126.015853 y222.493602
g1 x126.016229 y222.499616
g1 x126.015853 y222.493602
g1 x126.075076 y222.482286
g1 x126.076927 y222.487971
g1 x126.075076 y222.482286
g1 x126.130412 y222.456203
g1 x126.13362 y222.461249
g1 x126.130412 y222.456203
g1 x126.177947 y222.416796
g1 x126.18223 y222.420817
g1 x126.177947 y222.416796
g1 x126.214301 y222.366841
g1 x126.219436 y222.369676
g1 x126.214301 y222.366841
g1 x126.236691 y222.310745
g1 x126.242677 y222.312286
g1 x126.236691 y222.310745
g1 x126.244234 y222.250156
g1 x126.250024 y222.250156
g1 x126.244234 y222.250156
g1 x126.236691 y222.189566
g1 x126.242677 y222.188026
g1 x126.236691 y222.189566
g1 x126.213969 y222.13264
g1 x126.219011 y222.129865
g1 x126.213969 y222.13264
g1 x126.177947 y222.082895
g1 x126.182418 y222.078694
g1 x126.177947 y222.082895
g1 x126.131472 y222.044607
g1 x126.134594 y222.03968
g1 x126.131472 y222.044607
g1 x126.075075 y222.018024
g1 x126.076925 y222.012339
g1 x126.075075 y222.018024
g1 x126.015851 y222.006709
g1 z-1 f300
g1 x126.016227 y222.000694 f650
g1 x126.015851 y222.006709
g1 x125.954124 y222.010659
g1 x125.953043 y222.004969
g1 x125.954124 y222.010659
g1 x125.895214 y222.029638
g1 x125.892625 y222.02412
g1 x125.895214 y222.029638
g1 x125.844834 y222.061633
g1 x125.841058 y222.057068
g1 x125.844834 y222.061633
g1 x125.802479 y222.106697
g1 x125.797648 y222.103185
g1 x125.802479 y222.106697
g1 x125.773159 y222.160007
g1 x125.767539 y222.157786
g1 x125.773159 y222.160007
g1 x125.758024 y222.219326
g1 x125.752181 y222.218592
g1 x125.758024 y222.219326
g1 x125.758024 y222.280984
g1 x125.752181 y222.281718
g1 x125.758024 y222.280984
g1 x125.773159 y222.340303
g1 x125.767539 y222.342524
g1 x125.773159 y222.340303
g1 x125.801977 y222.3927
g1 x125.797045 y222.396296
g1 x125.801977 y222.3927
g1 x125.844836 y222.438051
g1 x125.841241 y222.442394
g1 x125.844836 y222.438051
g1 x125.896437 y222.471065
g1 x125.893768 y222.476728
g1 x125.896437 y222.471065
g1 x125.954124 y222.489651
g1 x125.953043 y222.495341
g1 x125.954124 y222.489651
g1 x126.015853 y222.493602
g1 x126.016229 y222.499616
g1 x126.015853 y222.493602
g1 x126.075076 y222.482286
g1 x126.076927 y222.487971
g1 x126.075076 y222.482286
g1 x126.130412 y222.456203
g1 x126.13362 y222.461249
g1 x126.130412 y222.456203
g1 x126.177947 y222.416796
g1 x126.18223 y222.420817
g1 x126.177947 y222.416796
g1 x126.214301 y222.366841
g1 x126.219436 y222.369676
g1 x126.214301 y222.366841
g1 x126.236691 y222.310745
g1 x126.242677 y222.312286
g1 x126.236691 y222.310745
g1 x126.244234 y222.250156
g1 x126.250024 y222.250156
g1 x126.244234 y222.250156
g1 x126.236691 y222.189566
g1 x126.242677 y222.188026
g1 x126.236691 y222.189566
g1 x126.213969 y222.13264
g1 x126.219011 y222.129865
g1 x126.213969 y222.13264
g1 x126.177947 y222.082895
g1 x126.182418 y222.078694
g1 x126.177947 y222.082895
g1 x126.131472 y222.044607
g1 x126.134594 y222.03968
g1 x126.131472 y222.044607
g1 x126.075075 y222.018024
g1 x126.076925 y222.012339
g1 x126.075075 y222.018024
g1 x126.015851 y222.006709
g1 z-2 f300
g1 x126.016227 y222.000694 f650
g1 x126.015851 y222.006709
g1 x125.954124 y222.010659
g1 x125.953043 y222.004969
g1 x125.954124 y222.010659
g1 x125.895214 y222.029638
g1 x125.892625 y222.02412
g1 x125.895214 y222.029638
g1 x125.844834 y222.061633
g1 x125.841058 y222.057068
g1 x125.844834 y222.061633
g1 x125.802479 y222.106697
g1 x125.797648 y222.103185
g1 x125.802479 y222.106697
g1 x125.773159 y222.160007
g1 x125.767539 y222.157786
g1 x125.773159 y222.160007
g1 x125.758024 y222.219326
g1 x125.752181 y222.218592
g1 x125.758024 y222.219326
g1 x125.758024 y222.280984
g1 x125.752181 y222.281718
g1 x125.758024 y222.280984
g1 x125.773159 y222.340303
g1 x125.767539 y222.342524
g1 x125.773159 y222.340303
g1 x125.801977 y222.3927
g1 x125.797045 y222.396296
g1 x125.801977 y222.3927
g1 x125.844836 y222.438051
g1 x125.841241 y222.442394
g1 x125.844836 y222.438051
g1 x125.896437 y222.471065
g1 x125.893768 y222.476728
g1 x125.896437 y222.471065
g1 x125.954124 y222.489651
g1 x125.953043 y222.495341
g1 x125.954124 y222.489651
g1 x126.015853 y222.493602
g1 x126.016229 y222.499616
g1 x126.015853 y222.493602
g1 x126.075076 y222.482286
g1 x126.076927 y222.487971
g1 x126.075076 y222.482286
g1 x126.130412 y222.456203
g1 x126.13362 y222.461249
g1 x126.130412 y222.456203
g1 x126.177947 y222.416796
g1 x126.18223 y222.420817
g1 x126.177947 y222.416796
g1 x126.214301 y222.366841
g1 x126.219436 y222.369676
g1 x126.214301 y222.366841
g1 x126.236691 y222.310745
g1 x126.242677 y222.312286
g1 x126.236691 y222.310745
g1 x126.244234 y222.250156
g1 x126.250024 y222.250156
g1 x126.244234 y222.250156
g1 x126.236691 y222.189566
g1 x126.242677 y222.188026
g1 x126.236691 y222.189566
g1 x126.213969 y222.13264
g1 x126.219011 y222.129865
g1 x126.213969 y222.13264
g1 x126.177947 y222.082895
g1 x126.182418 y222.078694
g1 x126.177947 y222.082895
g1 x126.131472 y222.044607
g1 x126.134594 y222.03968
g1 x126.131472 y222.044607
g1 x126.075075 y222.018024
g1 x126.076925 y222.012339
g1 x126.075075 y222.018024
g1 x126.015851 y222.006709
g0 z30
(Block-name: path4)
(Block-expand: 0)
(Block-enable: 0)

(End cutting path id: path4)


(Start cutting path id: path4)
(Change tool to Default tool)

G00 Z30.000000
G00 X98.563028 Y221.252158

G01 Z-1.000000 F100.0(Penetrate)
G01 X98.313028 Y221.268158 Z-1.000000 F400.000000
G01 X98.074030 Y221.345158 Z-1.000000
G01 X97.863030 Y221.479158 Z-1.000000
G01 X97.691030 Y221.662158 Z-1.000000
G01 X97.570028 Y221.882158 Z-1.000000
G01 X97.508028 Y222.125158 Z-1.000000
G01 X97.508028 Y222.375158 Z-1.000000
G01 X97.570028 Y222.618158 Z-1.000000
G01 X97.691030 Y222.838158 Z-1.000000
G01 X97.863030 Y223.020158 Z-1.000000
G01 X98.074030 Y223.155158 Z-1.000000
G01 X98.313028 Y223.232158 Z-1.000000
G01 X98.563028 Y223.248158 Z-1.000000
G01 X98.809029 Y223.201158 Z-1.000000
G01 X99.036029 Y223.094158 Z-1.000000
G01 X99.229029 Y222.934159 Z-1.000000
G01 X99.376029 Y222.732158 Z-1.000000
G01 X99.469029 Y222.499158 Z-1.000000
G01 X99.500029 Y222.250158 Z-1.000000
G01 X99.469029 Y222.001158 Z-1.000000
G01 X99.376029 Y221.768158 Z-1.000000
G01 X99.229029 Y221.565158 Z-1.000000
G01 X99.036029 Y221.406158 Z-1.000000
G01 X98.809029 Y221.299158 Z-1.000000
G01 X98.563028 Y221.252158 Z-1.000000
G00 Z30.000000
(Block-name: path4 [in,cut])
(Block-expand: 0)
(Block-enable: 0)
g0 x98.515857 y222.006711
g1 z0 f300
g1 x98.516233 y222.000697 f650
g1 x98.515857 y222.006711
g1 x98.454129 y222.010662
g1 x98.453048 y222.004972
g1 x98.454129 y222.010662
g1 x98.395221 y222.029641
g1 x98.392632 y222.024123
g1 x98.395221 y222.029641
g1 x98.34484 y222.061636
g1 x98.341064 y222.057071
g1 x98.34484 y222.061636
g1 x98.302484 y222.106702
g1 x98.297653 y222.10319
g1 x98.302484 y222.106702
g1 x98.273162 y222.160013
g1 x98.267542 y222.157792
g1 x98.273162 y222.160013
g1 x98.258028 y222.219329
g1 x98.252185 y222.218595
g1 x98.258028 y222.219329
g1 x98.258028 y222.280987
g1 x98.252185 y222.281721
g1 x98.258028 y222.280987
g1 x98.273162 y222.340303
g1 x98.267542 y222.342524
g1 x98.273162 y222.340303
g1 x98.301981 y222.392701
g1 x98.297049 y222.396297
g1 x98.301981 y222.392701
g1 x98.344842 y222.438054
g1 x98.341247 y222.442397
g1 x98.344842 y222.438054
g1 x98.396444 y222.471069
g1 x98.393775 y222.476731
g1 x98.396444 y222.471069
g1 x98.454129 y222.489654
g1 x98.453048 y222.495344
g1 x98.454129 y222.489654
g1 x98.515857 y222.493605
g1 x98.516233 y222.499619
g1 x98.515857 y222.493605
g1 x98.57508 y222.48229
g1 x98.576931 y222.487975
g1 x98.57508 y222.48229
g1 x98.630417 y222.456206
g1 x98.633625 y222.461251
g1 x98.630417 y222.456206
g1 x98.677952 y222.416799
g1 x98.682235 y222.42082
g1 x98.677952 y222.416799
g1 x98.714305 y222.366844
g1 x98.71944 y222.369678
g1 x98.714305 y222.366844
g1 x98.736696 y222.310747
g1 x98.742682 y222.312288
g1 x98.736696 y222.310747
g1 x98.744239 y222.250158
g1 x98.750029 y222.250158
g1 x98.744239 y222.250158
g1 x98.736696 y222.189569
g1 x98.742682 y222.188028
g1 x98.736696 y222.189569
g1 x98.713974 y222.132643
g1 x98.719016 y222.129867
g1 x98.713974 y222.132643
g1 x98.677952 y222.082897
g1 x98.682423 y222.078696
g1 x98.677952 y222.082897
g1 x98.631477 y222.04461
g1 x98.634599 y222.039683
g1 x98.631477 y222.04461
g1 x98.57508 y222.018026
g1 x98.576931 y222.012341
g1 x98.57508 y222.018026
g1 x98.515857 y222.006711
g1 z-1 f300
g1 x98.516233 y222.000697 f650
g1 x98.515857 y222.006711
g1 x98.454129 y222.010662
g1 x98.453048 y222.004972
g1 x98.454129 y222.010662
g1 x98.395221 y222.029641
g1 x98.392632 y222.024123
g1 x98.395221 y222.029641
g1 x98.34484 y222.061636
g1 x98.341064 y222.057071
g1 x98.34484 y222.061636
g1 x98.302484 y222.106702
g1 x98.297653 y222.10319
g1 x98.302484 y222.106702
g1 x98.273162 y222.160013
g1 x98.267542 y222.157792
g1 x98.273162 y222.160013
g1 x98.258028 y222.219329
g1 x98.252185 y222.218595
g1 x98.258028 y222.219329
g1 x98.258028 y222.280987
g1 x98.252185 y222.281721
g1 x98.258028 y222.280987
g1 x98.273162 y222.340303
g1 x98.267542 y222.342524
g1 x98.273162 y222.340303
g1 x98.301981 y222.392701
g1 x98.297049 y222.396297
g1 x98.301981 y222.392701
g1 x98.344842 y222.438054
g1 x98.341247 y222.442397
g1 x98.344842 y222.438054
g1 x98.396444 y222.471069
g1 x98.393775 y222.476731
g1 x98.396444 y222.471069
g1 x98.454129 y222.489654
g1 x98.453048 y222.495344
g1 x98.454129 y222.489654
g1 x98.515857 y222.493605
g1 x98.516233 y222.499619
g1 x98.515857 y222.493605
g1 x98.57508 y222.48229
g1 x98.576931 y222.487975
g1 x98.57508 y222.48229
g1 x98.630417 y222.456206
g1 x98.633625 y222.461251
g1 x98.630417 y222.456206
g1 x98.677952 y222.416799
g1 x98.682235 y222.42082
g1 x98.677952 y222.416799
g1 x98.714305 y222.366844
g1 x98.71944 y222.369678
g1 x98.714305 y222.366844
g1 x98.736696 y222.310747
g1 x98.742682 y222.312288
g1 x98.736696 y222.310747
g1 x98.744239 y222.250158
g1 x98.750029 y222.250158
g1 x98.744239 y222.250158
g1 x98.736696 y222.189569
g1 x98.742682 y222.188028
g1 x98.736696 y222.189569
g1 x98.713974 y222.132643
g1 x98.719016 y222.129867
g1 x98.713974 y222.132643
g1 x98.677952 y222.082897
g1 x98.682423 y222.078696
g1 x98.677952 y222.082897
g1 x98.631477 y222.04461
g1 x98.634599 y222.039683
g1 x98.631477 y222.04461
g1 x98.57508 y222.018026
g1 x98.576931 y222.012341
g1 x98.57508 y222.018026
g1 x98.515857 y222.006711
g1 z-2 f300
g1 x98.516233 y222.000697 f650
g1 x98.515857 y222.006711
g1 x98.454129 y222.010662
g1 x98.453048 y222.004972
g1 x98.454129 y222.010662
g1 x98.395221 y222.029641
g1 x98.392632 y222.024123
g1 x98.395221 y222.029641
g1 x98.34484 y222.061636
g1 x98.341064 y222.057071
g1 x98.34484 y222.061636
g1 x98.302484 y222.106702
g1 x98.297653 y222.10319
g1 x98.302484 y222.106702
g1 x98.273162 y222.160013
g1 x98.267542 y222.157792
g1 x98.273162 y222.160013
g1 x98.258028 y222.219329
g1 x98.252185 y222.218595
g1 x98.258028 y222.219329
g1 x98.258028 y222.280987
g1 x98.252185 y222.281721
g1 x98.258028 y222.280987
g1 x98.273162 y222.340303
g1 x98.267542 y222.342524
g1 x98.273162 y222.340303
g1 x98.301981 y222.392701
g1 x98.297049 y222.396297
g1 x98.301981 y222.392701
g1 x98.344842 y222.438054
g1 x98.341247 y222.442397
g1 x98.344842 y222.438054
g1 x98.396444 y222.471069
g1 x98.393775 y222.476731
g1 x98.396444 y222.471069
g1 x98.454129 y222.489654
g1 x98.453048 y222.495344
g1 x98.454129 y222.489654
g1 x98.515857 y222.493605
g1 x98.516233 y222.499619
g1 x98.515857 y222.493605
g1 x98.57508 y222.48229
g1 x98.576931 y222.487975
g1 x98.57508 y222.48229
g1 x98.630417 y222.456206
g1 x98.633625 y222.461251
g1 x98.630417 y222.456206
g1 x98.677952 y222.416799
g1 x98.682235 y222.42082
g1 x98.677952 y222.416799
g1 x98.714305 y222.366844
g1 x98.71944 y222.369678
g1 x98.714305 y222.366844
g1 x98.736696 y222.310747
g1 x98.742682 y222.312288
g1 x98.736696 y222.310747
g1 x98.744239 y222.250158
g1 x98.750029 y222.250158
g1 x98.744239 y222.250158
g1 x98.736696 y222.189569
g1 x98.742682 y222.188028
g1 x98.736696 y222.189569
g1 x98.713974 y222.132643
g1 x98.719016 y222.129867
g1 x98.713974 y222.132643
g1 x98.677952 y222.082897
g1 x98.682423 y222.078696
g1 x98.677952 y222.082897
g1 x98.631477 y222.04461
g1 x98.634599 y222.039683
g1 x98.631477 y222.04461
g1 x98.57508 y222.018026
g1 x98.576931 y222.012341
g1 x98.57508 y222.018026
g1 x98.515857 y222.006711
g0 z30
(Block-name: path4)
(Block-expand: 0)
(Block-enable: 0)

(End cutting path id: path4)


(Start cutting path id: path4)
(Change tool to Default tool)

G00 Z30.000000
G00 X100.750031 Y191.250154

G01 Z-1.000000 F100.0(Penetrate)
G01 X100.750032 Y203.750157 Z-1.000000 F400.000000
G01 X124.250023 Y203.750155 Z-1.000000
G01 X124.250021 Y191.250152 Z-1.000000
G01 X100.750031 Y191.250154 Z-1.000000
G00 Z30.000000
(Block-name: path4 [in,cut])
(Block-expand: 0)
(Block-enable: 0)
g0 x101.500031 y192.000154
g1 z0 f300
g1 x101.280361 y191.780484 f650
g1 x101.500031 y192.000154
g1 x101.500032 y203.000157
g1 x101.280362 y203.219827
g1 x101.500032 y203.000157
g1 x123.500023 y203.000155
g1 x123.719693 y203.219825
g1 x123.500023 y203.000155
g1 x123.500021 y192.000152
g1 x123.719691 y191.780482
g1 x123.500021 y192.000152
g1 x101.500031 y192.000154
g1 z-1 f300
g1 x101.280361 y191.780484 f650
g1 x101.500031 y192.000154
g1 x101.500032 y203.000157
g1 x101.280362 y203.219827
g1 x101.500032 y203.000157
g1 x123.500023 y203.000155
g1 x123.719693 y203.219825
g1 x123.500023 y203.000155
g1 x123.500021 y192.000152
g1 x123.719691 y191.780482
g1 x123.500021 y192.000152
g1 x101.500031 y192.000154
g1 z-2 f300
g1 x101.280361 y191.780484 f650
g1 x101.500031 y192.000154
g1 x101.500032 y203.000157
g1 x101.280362 y203.219827
g1 x101.500032 y203.000157
g1 x123.500023 y203.000155
g1 x123.719693 y203.219825
g1 x123.500023 y203.000155
g1 x123.500021 y192.000152
g1 x123.719691 y191.780482
g1 x123.500021 y192.000152
g1 x101.500031 y192.000154
g0 z30
(Block-name: path4)
(Block-expand: 0)
(Block-enable: 0)

(End cutting path id: path4)


(Start cutting path id: path4)
(Change tool to Default tool)

G00 Z30.000000
G00 X126.063022 Y196.252152

G01 Z-1.000000 F100.0(Penetrate)
G01 X125.813022 Y196.268152 Z-1.000000 F400.000000
G01 X125.574022 Y196.345152 Z-1.000000
G01 X125.363022 Y196.479152 Z-1.000000
G01 X125.191022 Y196.662152 Z-1.000000
G01 X125.070022 Y196.882152 Z-1.000000
G01 X125.008022 Y197.125154 Z-1.000000
G01 X125.008022 Y197.375154 Z-1.000000
G01 X125.070022 Y197.618155 Z-1.000000
G01 X125.191022 Y197.838154 Z-1.000000
G01 X125.363022 Y198.020155 Z-1.000000
G01 X125.574022 Y198.155156 Z-1.000000
G01 X125.813022 Y198.232156 Z-1.000000
G01 X126.063022 Y198.248166 Z-1.000000
G01 X126.309022 Y198.201166 Z-1.000000
G01 X126.536022 Y198.094166 Z-1.000000
G01 X126.729022 Y197.934167 Z-1.000000
G01 X126.876022 Y197.732165 Z-1.000000
G01 X126.969022 Y197.499167 Z-1.000000
G01 X127.000022 Y197.250165 Z-1.000000
G01 X126.969022 Y197.001166 Z-1.000000
G01 X126.876022 Y196.768161 Z-1.000000
G01 X126.729022 Y196.565171 Z-1.000000
G01 X126.536022 Y196.406161 Z-1.000000
G01 X126.309022 Y196.299162 Z-1.000000
G01 X126.063022 Y196.252152 Z-1.000000
G00 Z30.000000
(Block-name: path4 [in,cut])
(Block-expand: 0)
(Block-enable: 0)
g0 x126.015836 y197.006706
g1 z0 f300
g1 x126.016212 y197.00069 f650
g1 x126.015836 y197.006706
g1 x125.954122 y197.010656
g1 x125.953041 y197.004966
g1 x125.954122 y197.010656
g1 x125.895212 y197.029635
g1 x125.892623 y197.024117
g1 x125.895212 y197.029635
g1 x125.844832 y197.06163
g1 x125.841056 y197.057065
g1 x125.844832 y197.06163
g1 x125.802477 y197.106694
g1 x125.797646 y197.103182
g1 x125.802477 y197.106694
g1 x125.773157 y197.160003
g1 x125.767537 y197.157783
g1 x125.773157 y197.160003
g1 x125.758022 y197.219324
g1 x125.752179 y197.21859
g1 x125.758022 y197.219324
g1 x125.758022 y197.280984
g1 x125.752179 y197.281717
g1 x125.758022 y197.280984
g1 x125.773157 y197.340303
g1 x125.767537 y197.342523
g1 x125.773157 y197.340303
g1 x125.801975 y197.392699
g1 x125.797043 y197.396296
g1 x125.801975 y197.392699
g1 x125.844836 y197.438052
g1 x125.841241 y197.442395
g1 x125.844836 y197.438052
g1 x125.896436 y197.471067
g1 x125.893767 y197.476729
g1 x125.896436 y197.471067
g1 x125.954137 y197.489657
g1 x125.953056 y197.495345
g1 x125.954137 y197.489657
g1 x126.015865 y197.49361
g1 x126.016241 y197.499626
g1 x126.015865 y197.49361
g1 x126.075073 y197.482298
g1 x126.076923 y197.487983
g1 x126.075073 y197.482298
g1 x126.13041 y197.456214
g1 x126.133618 y197.461259
g1 x126.13041 y197.456214
g1 x126.177944 y197.416807
g1 x126.182228 y197.420829
g1 x126.177944 y197.416807
g1 x126.214299 y197.36685
g1 x126.219434 y197.369685
g1 x126.214299 y197.36685
g1 x126.236689 y197.310756
g1 x126.242676 y197.312296
g1 x126.236689 y197.310756
g1 x126.244232 y197.250166
g1 x126.250022 y197.250166
g1 x126.244232 y197.250166
g1 x126.236688 y197.189574
g1 x126.242675 y197.188034
g1 x126.236688 y197.189574
g1 x126.213969 y197.132652
g1 x126.219012 y197.129876
g1 x126.213969 y197.132652
g1 x126.177945 y197.082906
g1 x126.182414 y197.078707
g1 x126.177945 y197.082906
g1 x126.13146 y197.044609
g1 x126.134583 y197.03968
g1 x126.13146 y197.044609
g1 x126.075061 y197.018024
g1 x126.076911 y197.012341
g1 x126.075061 y197.018024
g1 x126.015836 y197.006706
g1 z-1 f300
g1 x126.016212 y197.00069 f650
g1 x126.015836 y197.006706
g1 x125.954122 y197.010656
g1 x125.953041 y197.004966
g1 x125.954122 y197.010656
g1 x125.895212 y197.029635
g1 x125.892623 y197.024117
g1 x125.895212 y197.029635
g1 x125.844832 y197.06163
g1 x125.841056 y197.057065
g1 x125.844832 y197.06163
g1 x125.802477 y197.106694
g1 x125.797646 y197.103182
g1 x125.802477 y197.106694
g1 x125.773157 y197.160003
g1 x125.767537 y197.157783
g1 x125.773157 y197.160003
g1 x125.758022 y197.219324
g1 x125.752179 y197.21859
g1 x125.758022 y197.219324
g1 x125.758022 y197.280984
g1 x125.752179 y197.281717
g1 x125.758022 y197.280984
g1 x125.773157 y197.340303
g1 x125.767537 y197.342523
g1 x125.773157 y197.340303
g1 x125.801975 y197.392699
g1 x125.797043 y197.396296
g1 x125.801975 y197.392699
g1 x125.844836 y197.438052
g1 x125.841241 y197.442395
g1 x125.844836 y197.438052
g1 x125.896436 y197.471067
g1 x125.893767 y197.476729
g1 x125.896436 y197.471067
g1 x125.954137 y197.489657
g1 x125.953056 y197.495345
g1 x125.954137 y197.489657
g1 x126.015865 y197.49361
g1 x126.016241 y197.499626
g1 x126.015865 y197.49361
g1 x126.075073 y197.482298
g1 x126.076923 y197.487983
g1 x126.075073 y197.482298
g1 x126.13041 y197.456214
g1 x126.133618 y197.461259
g1 x126.13041 y197.456214
g1 x126.177944 y197.416807
g1 x126.182228 y197.420829
g1 x126.177944 y197.416807
g1 x126.214299 y197.36685
g1 x126.219434 y197.369685
g1 x126.214299 y197.36685
g1 x126.236689 y197.310756
g1 x126.242676 y197.312296
g1 x126.236689 y197.310756
g1 x126.244232 y197.250166
g1 x126.250022 y197.250166
g1 x126.244232 y197.250166
g1 x126.236688 y197.189574
g1 x126.242675 y197.188034
g1 x126.236688 y197.189574
g1 x126.213969 y197.132652
g1 x126.219012 y197.129876
g1 x126.213969 y197.132652
g1 x126.177945 y197.082906
g1 x126.182414 y197.078707
g1 x126.177945 y197.082906
g1 x126.13146 y197.044609
g1 x126.134583 y197.03968
g1 x126.13146 y197.044609
g1 x126.075061 y197.018024
g1 x126.076911 y197.012341
g1 x126.075061 y197.018024
g1 x126.015836 y197.006706
g1 z-2 f300
g1 x126.016212 y197.00069 f650
g1 x126.015836 y197.006706
g1 x125.954122 y197.010656
g1 x125.953041 y197.004966
g1 x125.954122 y197.010656
g1 x125.895212 y197.029635
g1 x125.892623 y197.024117
g1 x125.895212 y197.029635
g1 x125.844832 y197.06163
g1 x125.841056 y197.057065
g1 x125.844832 y197.06163
g1 x125.802477 y197.106694
g1 x125.797646 y197.103182
g1 x125.802477 y197.106694
g1 x125.773157 y197.160003
g1 x125.767537 y197.157783
g1 x125.773157 y197.160003
g1 x125.758022 y197.219324
g1 x125.752179 y197.21859
g1 x125.758022 y197.219324
g1 x125.758022 y197.280984
g1 x125.752179 y197.281717
g1 x125.758022 y197.280984
g1 x125.773157 y197.340303
g1 x125.767537 y197.342523
g1 x125.773157 y197.340303
g1 x125.801975 y197.392699
g1 x125.797043 y197.396296
g1 x125.801975 y197.392699
g1 x125.844836 y197.438052
g1 x125.841241 y197.442395
g1 x125.844836 y197.438052
g1 x125.896436 y197.471067
g1 x125.893767 y197.476729
g1 x125.896436 y197.471067
g1 x125.954137 y197.489657
g1 x125.953056 y197.495345
g1 x125.954137 y197.489657
g1 x126.015865 y197.49361
g1 x126.016241 y197.499626
g1 x126.015865 y197.49361
g1 x126.075073 y197.482298
g1 x126.076923 y197.487983
g1 x126.075073 y197.482298
g1 x126.13041 y197.456214
g1 x126.133618 y197.461259
g1 x126.13041 y197.456214
g1 x126.177944 y197.416807
g1 x126.182228 y197.420829
g1 x126.177944 y197.416807
g1 x126.214299 y197.36685
g1 x126.219434 y197.369685
g1 x126.214299 y197.36685
g1 x126.236689 y197.310756
g1 x126.242676 y197.312296
g1 x126.236689 y197.310756
g1 x126.244232 y197.250166
g1 x126.250022 y197.250166
g1 x126.244232 y197.250166
g1 x126.236688 y197.189574
g1 x126.242675 y197.188034
g1 x126.236688 y197.189574
g1 x126.213969 y197.132652
g1 x126.219012 y197.129876
g1 x126.213969 y197.132652
g1 x126.177945 y197.082906
g1 x126.182414 y197.078707
g1 x126.177945 y197.082906
g1 x126.13146 y197.044609
g1 x126.134583 y197.03968
g1 x126.13146 y197.044609
g1 x126.075061 y197.018024
g1 x126.076911 y197.012341
g1 x126.075061 y197.018024
g1 x126.015836 y197.006706
g0 z30
(Block-name: path4)
(Block-expand: 0)
(Block-enable: 0)

(End cutting path id: path4)


(Start cutting path id: path4)
(Change tool to Default tool)

G00 Z30.000000
G00 X98.563025 Y196.252154

G01 Z-1.000000 F100.0(Penetrate)
G01 X98.313025 Y196.268154 Z-1.000000 F400.000000
G01 X98.074027 Y196.345154 Z-1.000000
G01 X97.863027 Y196.479154 Z-1.000000
G01 X97.691027 Y196.662154 Z-1.000000
G01 X97.570025 Y196.882154 Z-1.000000
G01 X97.508025 Y197.125152 Z-1.000000
G01 X97.508025 Y197.375152 Z-1.000000
G01 X97.570025 Y197.618153 Z-1.000000
G01 X97.691027 Y197.838152 Z-1.000000
G01 X97.863027 Y198.020153 Z-1.000000
G01 X98.074027 Y198.155154 Z-1.000000
G01 X98.313025 Y198.232154 Z-1.000000
G01 X98.563025 Y198.248164 Z-1.000000
G01 X98.809026 Y198.201164 Z-1.000000
G01 X99.036026 Y198.094164 Z-1.000000
G01 X99.229026 Y197.934165 Z-1.000000
G01 X99.376026 Y197.732164 Z-1.000000
G01 X99.469026 Y197.499166 Z-1.000000
G01 X99.500026 Y197.250164 Z-1.000000
G01 X99.469026 Y197.001165 Z-1.000000
G01 X99.376026 Y196.768164 Z-1.000000
G01 X99.229026 Y196.565164 Z-1.000000
G01 X99.036026 Y196.406164 Z-1.000000
G01 X98.809026 Y196.299164 Z-1.000000
G01 X98.563025 Y196.252154 Z-1.000000
G00 Z30.000000
(Block-name: path4 [in,cut])
(Block-expand: 0)
(Block-enable: 0)
g0 x98.515839 y197.006708
g1 z0 f300
g1 x98.516215 y197.000692 f650
g1 x98.515839 y197.006708
g1 x98.454126 y197.010658
g1 x98.453045 y197.004968
g1 x98.454126 y197.010658
g1 x98.395218 y197.029637
g1 x98.392629 y197.024119
g1 x98.395218 y197.029637
g1 x98.344837 y197.061632
g1 x98.341061 y197.057067
g1 x98.344837 y197.061632
g1 x98.302481 y197.106698
g1 x98.29765 y197.103186
g1 x98.302481 y197.106698
g1 x98.273159 y197.160009
g1 x98.267539 y197.157789
g1 x98.273159 y197.160009
g1 x98.258025 y197.219323
g1 x98.252182 y197.21859
g1 x98.258025 y197.219323
g1 x98.258025 y197.280982
g1 x98.252182 y197.281715
g1 x98.258025 y197.280982
g1 x98.273159 y197.340298
g1 x98.267539 y197.342519
g1 x98.273159 y197.340298
g1 x98.301978 y197.392695
g1 x98.297046 y197.396291
g1 x98.301978 y197.392695
g1 x98.344841 y197.43805
g1 x98.341246 y197.442393
g1 x98.344841 y197.43805
g1 x98.396442 y197.471065
g1 x98.393773 y197.476728
g1 x98.396442 y197.471065
g1 x98.454141 y197.489655
g1 x98.45306 y197.495343
g1 x98.454141 y197.489655
g1 x98.515869 y197.493608
g1 x98.516245 y197.499624
g1 x98.515869 y197.493608
g1 x98.575077 y197.482296
g1 x98.576928 y197.487981
g1 x98.575077 y197.482296
g1 x98.630414 y197.456212
g1 x98.633622 y197.461257
g1 x98.630414 y197.456212
g1 x98.677949 y197.416805
g1 x98.682232 y197.420826
g1 x98.677949 y197.416805
g1 x98.714303 y197.366849
g1 x98.719438 y197.369683
g1 x98.714303 y197.366849
g1 x98.736693 y197.310755
g1 x98.74268 y197.312295
g1 x98.736693 y197.310755
g1 x98.744236 y197.250165
g1 x98.750026 y197.250165
g1 x98.744236 y197.250165
g1 x98.736693 y197.189575
g1 x98.742679 y197.188035
g1 x98.736693 y197.189575
g1 x98.713971 y197.132648
g1 x98.719013 y197.129873
g1 x98.713971 y197.132648
g1 x98.677949 y197.082903
g1 x98.68242 y197.078702
g1 x98.677949 y197.082903
g1 x98.631474 y197.044616
g1 x98.634596 y197.039689
g1 x98.631474 y197.044616
g1 x98.575064 y197.018026
g1 x98.576914 y197.012343
g1 x98.575064 y197.018026
g1 x98.515839 y197.006708
g1 z-1 f300
g1 x98.516215 y197.000692 f650
g1 x98.515839 y197.006708
g1 x98.454126 y197.010658
g1 x98.453045 y197.004968
g1 x98.454126 y197.010658
g1 x98.395218 y197.029637
g1 x98.392629 y197.024119
g1 x98.395218 y197.029637
g1 x98.344837 y197.061632
g1 x98.341061 y197.057067
g1 x98.344837 y197.061632
g1 x98.302481 y197.106698
g1 x98.29765 y197.103186
g1 x98.302481 y197.106698
g1 x98.273159 y197.160009
g1 x98.267539 y197.157789
g1 x98.273159 y197.160009
g1 x98.258025 y197.219323
g1 x98.252182 y197.21859
g1 x98.258025 y197.219323
g1 x98.258025 y197.280982
g1 x98.252182 y197.281715
g1 x98.258025 y197.280982
g1 x98.273159 y197.340298
g1 x98.267539 y197.342519
g1 x98.273159 y197.340298
g1 x98.301978 y197.392695
g1 x98.297046 y197.396291
g1 x98.301978 y197.392695
g1 x98.344841 y197.43805
g1 x98.341246 y197.442393
g1 x98.344841 y197.43805
g1 x98.396442 y197.471065
g1 x98.393773 y197.476728
g1 x98.396442 y197.471065
g1 x98.454141 y197.489655
g1 x98.45306 y197.495343
g1 x98.454141 y197.489655
g1 x98.515869 y197.493608
g1 x98.516245 y197.499624
g1 x98.515869 y197.493608
g1 x98.575077 y197.482296
g1 x98.576928 y197.487981
g1 x98.575077 y197.482296
g1 x98.630414 y197.456212
g1 x98.633622 y197.461257
g1 x98.630414 y197.456212
g1 x98.677949 y197.416805
g1 x98.682232 y197.420826
g1 x98.677949 y197.416805
g1 x98.714303 y197.366849
g1 x98.719438 y197.369683
g1 x98.714303 y197.366849
g1 x98.736693 y197.310755
g1 x98.74268 y197.312295
g1 x98.736693 y197.310755
g1 x98.744236 y197.250165
g1 x98.750026 y197.250165
g1 x98.744236 y197.250165
g1 x98.736693 y197.189575
g1 x98.742679 y197.188035
g1 x98.736693 y197.189575
g1 x98.713971 y197.132648
g1 x98.719013 y197.129873
g1 x98.713971 y197.132648
g1 x98.677949 y197.082903
g1 x98.68242 y197.078702
g1 x98.677949 y197.082903
g1 x98.631474 y197.044616
g1 x98.634596 y197.039689
g1 x98.631474 y197.044616
g1 x98.575064 y197.018026
g1 x98.576914 y197.012343
g1 x98.575064 y197.018026
g1 x98.515839 y197.006708
g1 z-2 f300
g1 x98.516215 y197.000692 f650
g1 x98.515839 y197.006708
g1 x98.454126 y197.010658
g1 x98.453045 y197.004968
g1 x98.454126 y197.010658
g1 x98.395218 y197.029637
g1 x98.392629 y197.024119
g1 x98.395218 y197.029637
g1 x98.344837 y197.061632
g1 x98.341061 y197.057067
g1 x98.344837 y197.061632
g1 x98.302481 y197.106698
g1 x98.29765 y197.103186
g1 x98.302481 y197.106698
g1 x98.273159 y197.160009
g1 x98.267539 y197.157789
g1 x98.273159 y197.160009
g1 x98.258025 y197.219323
g1 x98.252182 y197.21859
g1 x98.258025 y197.219323
g1 x98.258025 y197.280982
g1 x98.252182 y197.281715
g1 x98.258025 y197.280982
g1 x98.273159 y197.340298
g1 x98.267539 y197.342519
g1 x98.273159 y197.340298
g1 x98.301978 y197.392695
g1 x98.297046 y197.396291
g1 x98.301978 y197.392695
g1 x98.344841 y197.43805
g1 x98.341246 y197.442393
g1 x98.344841 y197.43805
g1 x98.396442 y197.471065
g1 x98.393773 y197.476728
g1 x98.396442 y197.471065
g1 x98.454141 y197.489655
g1 x98.45306 y197.495343
g1 x98.454141 y197.489655
g1 x98.515869 y197.493608
g1 x98.516245 y197.499624
g1 x98.515869 y197.493608
g1 x98.575077 y197.482296
g1 x98.576928 y197.487981
g1 x98.575077 y197.482296
g1 x98.630414 y197.456212
g1 x98.633622 y197.461257
g1 x98.630414 y197.456212
g1 x98.677949 y197.416805
g1 x98.682232 y197.420826
g1 x98.677949 y197.416805
g1 x98.714303 y197.366849
g1 x98.719438 y197.369683
g1 x98.714303 y197.366849
g1 x98.736693 y197.310755
g1 x98.74268 y197.312295
g1 x98.736693 y197.310755
g1 x98.744236 y197.250165
g1 x98.750026 y197.250165
g1 x98.744236 y197.250165
g1 x98.736693 y197.189575
g1 x98.742679 y197.188035
g1 x98.736693 y197.189575
g1 x98.713971 y197.132648
g1 x98.719013 y197.129873
g1 x98.713971 y197.132648
g1 x98.677949 y197.082903
g1 x98.68242 y197.078702
g1 x98.677949 y197.082903
g1 x98.631474 y197.044616
g1 x98.634596 y197.039689
g1 x98.631474 y197.044616
g1 x98.575064 y197.018026
g1 x98.576914 y197.012343
g1 x98.575064 y197.018026
g1 x98.515839 y197.006708
g0 z30
(Block-name: path4)
(Block-expand: 0)
(Block-enable: 0)

(End cutting path id: path4)


(Start cutting path id: path4)
(Change tool to Default tool)

G00 Z30.000000
G00 X58.250025 Y191.250158

G01 Z-1.000000 F100.0(Penetrate)
G01 X58.250026 Y203.750161 Z-1.000000 F400.000000
G01 X81.749927 Y203.750159 Z-1.000000
G01 X81.749925 Y191.250156 Z-1.000000
G01 X58.250025 Y191.250158 Z-1.000000
G00 Z30.000000
(Block-name: path4 [in,cut])
(Block-expand: 0)
(Block-enable: 0)
g0 x59.000025 y192.000158
g1 z0 f300
g1 x58.780355 y191.780488 f650
g1 x59.000025 y192.000158
g1 x59.000026 y203.000161
g1 x58.780356 y203.219831
g1 x59.000026 y203.000161
g1 x80.999927 y203.000159
g1 x81.219597 y203.219829
g1 x80.999927 y203.000159
g1 x80.999925 y192.000156
g1 x81.219595 y191.780486
g1 x80.999925 y192.000156
g1 x59.000025 y192.000158
g1 z-1 f300
g1 x58.780355 y191.780488 f650
g1 x59.000025 y192.000158
g1 x59.000026 y203.000161
g1 x58.780356 y203.219831
g1 x59.000026 y203.000161
g1 x80.999927 y203.000159
g1 x81.219597 y203.219829
g1 x80.999927 y203.000159
g1 x80.999925 y192.000156
g1 x81.219595 y191.780486
g1 x80.999925 y192.000156
g1 x59.000025 y192.000158
g1 z-2 f300
g1 x58.780355 y191.780488 f650
g1 x59.000025 y192.000158
g1 x59.000026 y203.000161
g1 x58.780356 y203.219831
g1 x59.000026 y203.000161
g1 x80.999927 y203.000159
g1 x81.219597 y203.219829
g1 x80.999927 y203.000159
g1 x80.999925 y192.000156
g1 x81.219595 y191.780486
g1 x80.999925 y192.000156
g1 x59.000025 y192.000158
g0 z30
(Block-name: path4)
(Block-expand: 0)
(Block-enable: 0)

(End cutting path id: path4)


(Start cutting path id: path4)
(Change tool to Default tool)

G00 Z30.000000
G00 X56.062826 Y196.252158

G01 Z-1.000000 F100.0(Penetrate)
G01 X55.812525 Y196.268158 Z-1.000000 F400.000000
G01 X55.574225 Y196.345158 Z-1.000000
G01 X55.362524 Y196.479158 Z-1.000000
G01 X55.190926 Y196.662159 Z-1.000000
G01 X55.070225 Y196.882159 Z-1.000000
G01 X55.007825 Y197.125161 Z-1.000000
G01 X55.007825 Y197.375161 Z-1.000000
G01 X55.070226 Y197.618162 Z-1.000000
G01 X55.190927 Y197.838161 Z-1.000000
G01 X55.362525 Y198.020162 Z-1.000000
G01 X55.574226 Y198.155163 Z-1.000000
G01 X55.812526 Y198.232162 Z-1.000000
G01 X56.062827 Y198.248172 Z-1.000000
G01 X56.308926 Y198.201172 Z-1.000000
G01 X56.535825 Y198.094172 Z-1.000000
G01 X56.729026 Y197.934173 Z-1.000000
G01 X56.876225 Y197.732172 Z-1.000000
G01 X56.968525 Y197.499174 Z-1.000000
G01 X57.000025 Y197.250172 Z-1.000000
G01 X56.968524 Y197.001173 Z-1.000000
G01 X56.876224 Y196.768168 Z-1.000000
G01 X56.729025 Y196.565178 Z-1.000000
G01 X56.535824 Y196.406168 Z-1.000000
G01 X56.308925 Y196.299168 Z-1.000000
G01 X56.062826 Y196.252158 Z-1.000000
G00 Z30.000000
(Block-name: path4 [in,cut])
(Block-expand: 0)
(Block-enable: 0)
g0 x56.015639 y197.006705
g1 z0 f300
g1 x56.016015 y197.000696 f650
g1 x56.015639 y197.006705
g1 x55.953923 y197.01065
g1 x55.952832 y197.004917
g1 x55.953923 y197.01065
g1 x55.895147 y197.029642
g1 x55.892607 y197.024225
g1 x55.895147 y197.029642
g1 x55.84432 y197.061814
g1 x55.840463 y197.05715
g1 x55.84432 y197.061814
g1 x55.802868 y197.10602
g1 x55.798038 y197.102517
g1 x55.802868 y197.10602
g1 x55.773175 y197.160141
g1 x55.767671 y197.157964
g1 x55.773175 y197.160141
g1 x55.757825 y197.219919
g1 x55.75191 y197.219172
g1 x55.757825 y197.219919
g1 x55.757825 y197.280401
g1 x55.751909 y197.281148
g1 x55.757825 y197.280401
g1 x55.773175 y197.340178
g1 x55.767671 y197.342354
g1 x55.773175 y197.340178
g1 x55.802368 y197.393386
g1 x55.797436 y197.396973
g1 x55.802368 y197.393386
g1 x55.84432 y197.437882
g1 x55.840647 y197.442322
g1 x55.84432 y197.437882
g1 x55.896368 y197.471073
g1 x55.893751 y197.476632
g1 x55.896368 y197.471073
g1 x55.953937 y197.489674
g1 x55.952846 y197.495405
g1 x55.953937 y197.489674
g1 x56.01567 y197.493623
g1 x56.016045 y197.499632
g1 x56.01567 y197.493623
g1 x56.074938 y197.482304
g1 x56.076792 y197.488
g1 x56.074938 y197.482304
g1 x56.130339 y197.456178
g1 x56.133528 y197.461197
g1 x56.130339 y197.456178
g1 x56.178252 y197.416499
g1 x56.182529 y197.420518
g1 x56.178252 y197.416499
g1 x56.214011 y197.367428
g1 x56.219284 y197.370332
g1 x56.214011 y197.367428
g1 x56.236347 y197.311043
g1 x56.242121 y197.312527
g1 x56.236347 y197.311043
g1 x56.244047 y197.250174
g1 x56.250025 y197.250174
g1 x56.244047 y197.250174
g1 x56.236346 y197.189302
g1 x56.242119 y197.187818
g1 x56.236346 y197.189302
g1 x56.213682 y197.132086
g1 x56.218861 y197.129241
g1 x56.213682 y197.132086
g1 x56.178251 y197.083227
g1 x56.182713 y197.07903
g1 x56.178251 y197.083227
g1 x56.131387 y197.044656
g1 x56.134491 y197.039755
g1 x56.131387 y197.044656
g1 x56.074924 y197.01803
g1 x56.076778 y197.012335
g1 x56.074924 y197.01803
g1 x56.015639 y197.006705
g1 z-1 f300
g1 x56.016015 y197.000696 f650
g1 x56.015639 y197.006705
g1 x55.953923 y197.01065
g1 x55.952832 y197.004917
g1 x55.953923 y197.01065
g1 x55.895147 y197.029642
g1 x55.892607 y197.024225
g1 x55.895147 y197.029642
g1 x55.84432 y197.061814
g1 x55.840463 y197.05715
g1 x55.84432 y197.061814
g1 x55.802868 y197.10602
g1 x55.798038 y197.102517
g1 x55.802868 y197.10602
g1 x55.773175 y197.160141
g1 x55.767671 y197.157964
g1 x55.773175 y197.160141
g1 x55.757825 y197.219919
g1 x55.75191 y197.219172
g1 x55.757825 y197.219919
g1 x55.757825 y197.280401
g1 x55.751909 y197.281148
g1 x55.757825 y197.280401
g1 x55.773175 y197.340178
g1 x55.767671 y197.342354
g1 x55.773175 y197.340178
g1 x55.802368 y197.393386
g1 x55.797436 y197.396973
g1 x55.802368 y197.393386
g1 x55.84432 y197.437882
g1 x55.840647 y197.442322
g1 x55.84432 y197.437882
g1 x55.896368 y197.471073
g1 x55.893751 y197.476632
g1 x55.896368 y197.471073
g1 x55.953937 y197.489674
g1 x55.952846 y197.495405
g1 x55.953937 y197.489674
g1 x56.01567 y197.493623
g1 x56.016045 y197.499632
g1 x56.01567 y197.493623
g1 x56.074938 y197.482304
g1 x56.076792 y197.488
g1 x56.074938 y197.482304
g1 x56.130339 y197.456178
g1 x56.133528 y197.461197
g1 x56.130339 y197.456178
g1 x56.178252 y197.416499
g1 x56.182529 y197.420518
g1 x56.178252 y197.416499
g1 x56.214011 y197.367428
g1 x56.219284 y197.370332
g1 x56.214011 y197.367428
g1 x56.236347 y197.311043
g1 x56.242121 y197.312527
g1 x56.236347 y197.311043
g1 x56.244047 y197.250174
g1 x56.250025 y197.250174
g1 x56.244047 y197.250174
g1 x56.236346 y197.189302
g1 x56.242119 y197.187818
g1 x56.236346 y197.189302
g1 x56.213682 y197.132086
g1 x56.218861 y197.129241
g1 x56.213682 y197.132086
g1 x56.178251 y197.083227
g1 x56.182713 y197.07903
g1 x56.178251 y197.083227
g1 x56.131387 y197.044656
g1 x56.134491 y197.039755
g1 x56.131387 y197.044656
g1 x56.074924 y197.01803
g1 x56.076778 y197.012335
g1 x56.074924 y197.01803
g1 x56.015639 y197.006705
g1 z-2 f300
g1 x56.016015 y197.000696 f650
g1 x56.015639 y197.006705
g1 x55.953923 y197.01065
g1 x55.952832 y197.004917
g1 x55.953923 y197.01065
g1 x55.895147 y197.029642
g1 x55.892607 y197.024225
g1 x55.895147 y197.029642
g1 x55.84432 y197.061814
g1 x55.840463 y197.05715
g1 x55.84432 y197.061814
g1 x55.802868 y197.10602
g1 x55.798038 y197.102517
g1 x55.802868 y197.10602
g1 x55.773175 y197.160141
g1 x55.767671 y197.157964
g1 x55.773175 y197.160141
g1 x55.757825 y197.219919
g1 x55.75191 y197.219172
g1 x55.757825 y197.219919
g1 x55.757825 y197.280401
g1 x55.751909 y197.281148
g1 x55.757825 y197.280401
g1 x55.773175 y197.340178
g1 x55.767671 y197.342354
g1 x55.773175 y197.340178
g1 x55.802368 y197.393386
g1 x55.797436 y197.396973
g1 x55.802368 y197.393386
g1 x55.84432 y197.437882
g1 x55.840647 y197.442322
g1 x55.84432 y197.437882
g1 x55.896368 y197.471073
g1 x55.893751 y197.476632
g1 x55.896368 y197.471073
g1 x55.953937 y197.489674
g1 x55.952846 y197.495405
g1 x55.953937 y197.489674
g1 x56.01567 y197.493623
g1 x56.016045 y197.499632
g1 x56.01567 y197.493623
g1 x56.074938 y197.482304
g1 x56.076792 y197.488
g1 x56.074938 y197.482304
g1 x56.130339 y197.456178
g1 x56.133528 y197.461197
g1 x56.130339 y197.456178
g1 x56.178252 y197.416499
g1 x56.182529 y197.420518
g1 x56.178252 y197.416499
g1 x56.214011 y197.367428
g1 x56.219284 y197.370332
g1 x56.214011 y197.367428
g1 x56.236347 y197.311043
g1 x56.242121 y197.312527
g1 x56.236347 y197.311043
g1 x56.244047 y197.250174
g1 x56.250025 y197.250174
g1 x56.244047 y197.250174
g1 x56.236346 y197.189302
g1 x56.242119 y197.187818
g1 x56.236346 y197.189302
g1 x56.213682 y197.132086
g1 x56.218861 y197.129241
g1 x56.213682 y197.132086
g1 x56.178251 y197.083227
g1 x56.182713 y197.07903
g1 x56.178251 y197.083227
g1 x56.131387 y197.044656
g1 x56.134491 y197.039755
g1 x56.131387 y197.044656
g1 x56.074924 y197.01803
g1 x56.076778 y197.012335
g1 x56.074924 y197.01803
g1 x56.015639 y197.006705
g0 z30
(Block-name: path4)
(Block-expand: 0)
(Block-enable: 0)

(End cutting path id: path4)


(Start cutting path id: path4)
(Change tool to Default tool)

G00 Z30.000000
G00 X83.562825 Y196.252156

G01 Z-1.000000 F100.0(Penetrate)
G01 X83.312526 Y196.268156 Z-1.000000 F400.000000
G01 X83.074226 Y196.345156 Z-1.000000
G01 X82.862525 Y196.479156 Z-1.000000
G01 X82.690925 Y196.662156 Z-1.000000
G01 X82.570227 Y196.882156 Z-1.000000
G01 X82.507827 Y197.125158 Z-1.000000
G01 X82.507827 Y197.375158 Z-1.000000
G01 X82.570227 Y197.618159 Z-1.000000
G01 X82.690925 Y197.838158 Z-1.000000
G01 X82.862525 Y198.020159 Z-1.000000
G01 X83.074226 Y198.155160 Z-1.000000
G01 X83.312526 Y198.232160 Z-1.000000
G01 X83.562825 Y198.248170 Z-1.000000
G01 X83.808927 Y198.201170 Z-1.000000
G01 X84.035825 Y198.094170 Z-1.000000
G01 X84.228826 Y197.934171 Z-1.000000
G01 X84.376225 Y197.732170 Z-1.000000
G01 X84.468525 Y197.499172 Z-1.000000
G01 X84.500025 Y197.250170 Z-1.000000
G01 X84.468525 Y197.001171 Z-1.000000
G01 X84.376225 Y196.768166 Z-1.000000
G01 X84.228826 Y196.565176 Z-1.000000
G01 X84.035825 Y196.406166 Z-1.000000
G01 X83.808927 Y196.299166 Z-1.000000
G01 X83.562825 Y196.252156 Z-1.000000
G00 Z30.000000
(Block-name: path4 [in,cut])
(Block-expand: 0)
(Block-enable: 0)
g0 x83.515639 y197.006703
g1 z0 f300
g1 x83.516015 y197.000694 f650
g1 x83.515639 y197.006703
g1 x83.453925 y197.010648
g1 x83.452833 y197.004915
g1 x83.453925 y197.010648
g1 x83.395148 y197.02964
g1 x83.392608 y197.024223
g1 x83.395148 y197.02964
g1 x83.344318 y197.061814
g1 x83.340461 y197.05715
g1 x83.344318 y197.061814
g1 x83.302868 y197.106017
g1 x83.298038 y197.102513
g1 x83.302868 y197.106017
g1 x83.273178 y197.160134
g1 x83.267675 y197.157958
g1 x83.273178 y197.160134
g1 x83.257827 y197.219916
g1 x83.251912 y197.219169
g1 x83.257827 y197.219916
g1 x83.257827 y197.280399
g1 x83.251912 y197.281147
g1 x83.257827 y197.280399
g1 x83.273178 y197.34018
g1 x83.267674 y197.342356
g1 x83.273178 y197.34018
g1 x83.302367 y197.393384
g1 x83.297435 y197.396972
g1 x83.302367 y197.393384
g1 x83.344319 y197.437878
g1 x83.340645 y197.442317
g1 x83.344319 y197.437878
g1 x83.39637 y197.471071
g1 x83.393752 y197.47663
g1 x83.39637 y197.471071
g1 x83.453939 y197.489673
g1 x83.452848 y197.495404
g1 x83.453939 y197.489673
g1 x83.515669 y197.493621
g1 x83.516045 y197.49963
g1 x83.515669 y197.493621
g1 x83.57494 y197.482302
g1 x83.576794 y197.487998
g1 x83.57494 y197.482302
g1 x83.630163 y197.45626
g1 x83.633367 y197.461298
g1 x83.630163 y197.45626
g1 x83.678128 y197.416496
g1 x83.682364 y197.420479
g1 x83.678128 y197.416496
g1 x83.714102 y197.367197
g1 x83.719401 y197.370118
g1 x83.714102 y197.367197
g1 x83.736347 y197.311041
g1 x83.742121 y197.312525
g1 x83.736347 y197.311041
g1 x83.744047 y197.250171
g1 x83.750025 y197.250171
g1 x83.744047 y197.250171
g1 x83.736347 y197.189298
g1 x83.74212 y197.187815
g1 x83.736347 y197.189298
g1 x83.713773 y197.132313
g1 x83.718979 y197.129452
g1 x83.713773 y197.132313
g1 x83.678128 y197.083224
g1 x83.68255 y197.079065
g1 x83.678128 y197.083224
g1 x83.631212 y197.044571
g1 x83.634331 y197.03965
g1 x83.631212 y197.044571
g1 x83.574926 y197.018028
g1 x83.57678 y197.012333
g1 x83.574926 y197.018028
g1 x83.515639 y197.006703
g1 z-1 f300
g1 x83.516015 y197.000694 f650
g1 x83.515639 y197.006703
g1 x83.453925 y197.010648
g1 x83.452833 y197.004915
g1 x83.453925 y197.010648
g1 x83.395148 y197.02964
g1 x83.392608 y197.024223
g1 x83.395148 y197.02964
g1 x83.344318 y197.061814
g1 x83.340461 y197.05715
g1 x83.344318 y197.061814
g1 x83.302868 y197.106017
g1 x83.298038 y197.102513
g1 x83.302868 y197.106017
g1 x83.273178 y197.160134
g1 x83.267675 y197.157958
g1 x83.273178 y197.160134
g1 x83.257827 y197.219916
g1 x83.251912 y197.219169
g1 x83.257827 y197.219916
g1 x83.257827 y197.280399
g1 x83.251912 y197.281147
g1 x83.257827 y197.280399
g1 x83.273178 y197.34018
g1 x83.267674 y197.342356
g1 x83.273178 y197.34018
g1 x83.302367 y197.393384
g1 x83.297435 y197.396972
g1 x83.302367 y197.393384
g1 x83.344319 y197.437878
g1 x83.340645 y197.442317
g1 x83.344319 y197.437878
g1 x83.39637 y197.471071
g1 x83.393752 y197.47663
g1 x83.39637 y197.471071
g1 x83.453939 y197.489673
g1 x83.452848 y197.495404
g1 x83.453939 y197.489673
g1 x83.515669 y197.493621
g1 x83.516045 y197.49963
g1 x83.515669 y197.493621
g1 x83.57494 y197.482302
g1 x83.576794 y197.487998
g1 x83.57494 y197.482302
g1 x83.630163 y197.45626
g1 x83.633367 y197.461298
g1 x83.630163 y197.45626
g1 x83.678128 y197.416496
g1 x83.682364 y197.420479
g1 x83.678128 y197.416496
g1 x83.714102 y197.367197
g1 x83.719401 y197.370118
g1 x83.714102 y197.367197
g1 x83.736347 y197.311041
g1 x83.742121 y197.312525
g1 x83.736347 y197.311041
g1 x83.744047 y197.250171
g1 x83.750025 y197.250171
g1 x83.744047 y197.250171
g1 x83.736347 y197.189298
g1 x83.74212 y197.187815
g1 x83.736347 y197.189298
g1 x83.713773 y197.132313
g1 x83.718979 y197.129452
g1 x83.713773 y197.132313
g1 x83.678128 y197.083224
g1 x83.68255 y197.079065
g1 x83.678128 y197.083224
g1 x83.631212 y197.044571
g1 x83.634331 y197.03965
g1 x83.631212 y197.044571
g1 x83.574926 y197.018028
g1 x83.57678 y197.012333
g1 x83.574926 y197.018028
g1 x83.515639 y197.006703
g1 z-2 f300
g1 x83.516015 y197.000694 f650
g1 x83.515639 y197.006703
g1 x83.453925 y197.010648
g1 x83.452833 y197.004915
g1 x83.453925 y197.010648
g1 x83.395148 y197.02964
g1 x83.392608 y197.024223
g1 x83.395148 y197.02964
g1 x83.344318 y197.061814
g1 x83.340461 y197.05715
g1 x83.344318 y197.061814
g1 x83.302868 y197.106017
g1 x83.298038 y197.102513
g1 x83.302868 y197.106017
g1 x83.273178 y197.160134
g1 x83.267675 y197.157958
g1 x83.273178 y197.160134
g1 x83.257827 y197.219916
g1 x83.251912 y197.219169
g1 x83.257827 y197.219916
g1 x83.257827 y197.280399
g1 x83.251912 y197.281147
g1 x83.257827 y197.280399
g1 x83.273178 y197.34018
g1 x83.267674 y197.342356
g1 x83.273178 y197.34018
g1 x83.302367 y197.393384
g1 x83.297435 y197.396972
g1 x83.302367 y197.393384
g1 x83.344319 y197.437878
g1 x83.340645 y197.442317
g1 x83.344319 y197.437878
g1 x83.39637 y197.471071
g1 x83.393752 y197.47663
g1 x83.39637 y197.471071
g1 x83.453939 y197.489673
g1 x83.452848 y197.495404
g1 x83.453939 y197.489673
g1 x83.515669 y197.493621
g1 x83.516045 y197.49963
g1 x83.515669 y197.493621
g1 x83.57494 y197.482302
g1 x83.576794 y197.487998
g1 x83.57494 y197.482302
g1 x83.630163 y197.45626
g1 x83.633367 y197.461298
g1 x83.630163 y197.45626
g1 x83.678128 y197.416496
g1 x83.682364 y197.420479
g1 x83.678128 y197.416496
g1 x83.714102 y197.367197
g1 x83.719401 y197.370118
g1 x83.714102 y197.367197
g1 x83.736347 y197.311041
g1 x83.742121 y197.312525
g1 x83.736347 y197.311041
g1 x83.744047 y197.250171
g1 x83.750025 y197.250171
g1 x83.744047 y197.250171
g1 x83.736347 y197.189298
g1 x83.74212 y197.187815
g1 x83.736347 y197.189298
g1 x83.713773 y197.132313
g1 x83.718979 y197.129452
g1 x83.713773 y197.132313
g1 x83.678128 y197.083224
g1 x83.68255 y197.079065
g1 x83.678128 y197.083224
g1 x83.631212 y197.044571
g1 x83.634331 y197.03965
g1 x83.631212 y197.044571
g1 x83.574926 y197.018028
g1 x83.57678 y197.012333
g1 x83.574926 y197.018028
g1 x83.515639 y197.006703
g0 z30
(Block-name: path4)
(Block-expand: 0)
(Block-enable: 0)

(End cutting path id: path4)


(Start cutting path id: path4)
(Change tool to Default tool)

G00 Z30.000000
G00 X143.250022 Y191.250150

G01 Z-1.000000 F100.0(Penetrate)
G01 X143.250023 Y203.750153 Z-1.000000 F400.000000
G01 X166.750023 Y203.750151 Z-1.000000
G01 X166.750022 Y191.250147 Z-1.000000
G01 X143.250022 Y191.250150 Z-1.000000
G00 Z30.000000
(Block-name: path4 [in,cut])
(Block-expand: 0)
(Block-enable: 0)
g0 x144.000022 y192.00015
g1 z0 f300
g1 x143.780352 y191.78048 f650
g1 x144.000022 y192.00015
g1 x144.000023 y203.000153
g1 x143.780353 y203.219823
g1 x144.000023 y203.000153
g1 x166.000023 y203.000151
g1 x166.219693 y203.219821
g1 x166.000023 y203.000151
g1 x166.000022 y192.000147
g1 x166.219692 y191.780477
g1 x166.000022 y192.000147
g1 x144.000022 y192.00015
g1 z-1 f300
g1 x143.780352 y191.78048 f650
g1 x144.000022 y192.00015
g1 x144.000023 y203.000153
g1 x143.780353 y203.219823
g1 x144.000023 y203.000153
g1 x166.000023 y203.000151
g1 x166.219693 y203.219821
g1 x166.000023 y203.000151
g1 x166.000022 y192.000147
g1 x166.219692 y191.780477
g1 x166.000022 y192.000147
g1 x144.000022 y192.00015
g1 z-2 f300
g1 x143.780352 y191.78048 f650
g1 x144.000022 y192.00015
g1 x144.000023 y203.000153
g1 x143.780353 y203.219823
g1 x144.000023 y203.000153
g1 x166.000023 y203.000151
g1 x166.219693 y203.219821
g1 x166.000023 y203.000151
g1 x166.000022 y192.000147
g1 x166.219692 y191.780477
g1 x166.000022 y192.000147
g1 x144.000022 y192.00015
g0 z30
(Block-name: path4)
(Block-expand: 0)
(Block-enable: 0)

(End cutting path id: path4)


(Start cutting path id: path4)
(Change tool to Default tool)

G00 Z30.000000
G00 X141.063022 Y196.252150

G01 Z-1.000000 F100.0(Penetrate)
G01 X140.813022 Y196.268150 Z-1.000000 F400.000000
G01 X140.574022 Y196.345150 Z-1.000000
G01 X140.363022 Y196.479150 Z-1.000000
G01 X140.191022 Y196.662150 Z-1.000000
G01 X140.070022 Y196.882150 Z-1.000000
G01 X140.008022 Y197.125152 Z-1.000000
G01 X140.008022 Y197.375152 Z-1.000000
G01 X140.070022 Y197.618153 Z-1.000000
G01 X140.191022 Y197.838152 Z-1.000000
G01 X140.363022 Y198.020153 Z-1.000000
G01 X140.574022 Y198.155154 Z-1.000000
G01 X140.813022 Y198.232154 Z-1.000000
G01 X141.063022 Y198.248164 Z-1.000000
G01 X141.309022 Y198.201164 Z-1.000000
G01 X141.536022 Y198.094164 Z-1.000000
G01 X141.729022 Y197.934165 Z-1.000000
G01 X141.876022 Y197.732164 Z-1.000000
G01 X141.969022 Y197.499166 Z-1.000000
G01 X142.000022 Y197.250164 Z-1.000000
G01 X141.969022 Y197.001165 Z-1.000000
G01 X141.876022 Y196.768160 Z-1.000000
G01 X141.729022 Y196.565170 Z-1.000000
G01 X141.536022 Y196.406160 Z-1.000000
G01 X141.309022 Y196.299160 Z-1.000000
G01 X141.063022 Y196.252150 Z-1.000000
G00 Z30.000000
(Block-name: path4 [in,cut])
(Block-expand: 0)
(Block-enable: 0)
g0 x141.015836 y197.006704
g1 z0 f300
g1 x141.016212 y197.000688 f650
g1 x141.015836 y197.006704
g1 x140.954122 y197.010654
g1 x140.953041 y197.004964
g1 x140.954122 y197.010654
g1 x140.895212 y197.029633
g1 x140.892623 y197.024115
g1 x140.895212 y197.029633
g1 x140.844832 y197.061628
g1 x140.841056 y197.057063
g1 x140.844832 y197.061628
g1 x140.802477 y197.106692
g1 x140.797646 y197.10318
g1 x140.802477 y197.106692
g1 x140.773157 y197.160001
g1 x140.767537 y197.157781
g1 x140.773157 y197.160001
g1 x140.758022 y197.219322
g1 x140.752179 y197.218588
g1 x140.758022 y197.219322
g1 x140.758022 y197.280982
g1 x140.752179 y197.281715
g1 x140.758022 y197.280982
g1 x140.773157 y197.340301
g1 x140.767537 y197.342521
g1 x140.773157 y197.340301
g1 x140.801975 y197.392697
g1 x140.797043 y197.396294
g1 x140.801975 y197.392697
g1 x140.844836 y197.43805
g1 x140.841241 y197.442393
g1 x140.844836 y197.43805
g1 x140.896436 y197.471065
g1 x140.893767 y197.476727
g1 x140.896436 y197.471065
