(Block-name: Header)
(Block-expand: 0)
(Block-enable: 1)
%
(Header)
(Generated by gcodetools from Inkscape.)
(Using default header. To add your own header create file "header" in the output dir.)
M3
(Header end.)
G21 (All units in mm)

(Start cutting path id: path4)
(Change tool to Default tool)

G00 Z30.000000
(Block-name: path4)
(Block-expand: 0)
(Block-enable: 0)

(End cutting path id: path4)


(Start cutting path id: path4)
(Change tool to Default tool)

G00 Z30.000000
G00 X91.224216 Y129.514664

G01 Z-1.000000 F100.0(Penetrate)
G01 X90.874617 Y129.652654 Z-1.000000 F400.000000
G01 X90.570417 Y129.873664 Z-1.000000
G01 X90.330816 Y130.163654 Z-1.000000
G01 X90.170616 Y130.503664 Z-1.000000
G01 X90.100316 Y130.873664 Z-1.000000
G01 X90.123706 Y131.248664 Z-1.000000
G01 X90.240007 Y131.606664 Z-1.000000
G01 X90.441407 Y131.923664 Z-1.000000
G01 X90.715508 Y132.180664 Z-1.000000
G01 X91.045107 Y132.361654 Z-1.000000
G01 X91.409306 Y132.455654 Z-1.000000
G01 X91.785308 Y132.455654 Z-1.000000
G01 X92.149407 Y132.361654 Z-1.000000
G01 X92.478908 Y132.180664 Z-1.000000
G01 X92.753006 Y131.923664 Z-1.000000
G01 X92.954407 Y131.606663 Z-1.000000
G01 X93.070707 Y131.248663 Z-1.000000
G01 X93.094307 Y130.873663 Z-1.000000
G01 X93.023807 Y130.503663 Z-1.000000
G01 X92.863808 Y130.163653 Z-1.000000
G01 X92.624106 Y129.873663 Z-1.000000
G01 X92.319806 Y129.652654 Z-1.000000
G01 X91.970207 Y129.514664 Z-1.000000
G01 X91.597306 Y129.467664 Z-1.000000
G01 X91.224216 Y129.514664 Z-1.000000
G00 Z30.000000
(Block-name: path4 [in,cut])
(Block-expand: 0)
(Block-enable: 0)
g0 x91.411694 y130.246974
g1 z0 f300
g1 x91.410224 y130.241232 f650
g1 x91.411694 y130.246974
g1 x91.238476 y130.315345
g1 x91.235583 y130.310076
g1 x91.238476 y130.315345
g1 x91.088095 y130.424601
g1 x91.083993 y130.420235
g1 x91.088095 y130.424601
g1 x90.969076 y130.56865
g1 x90.964087 y130.565485
g1 x90.969076 y130.56865
g1 x90.889662 y130.737199
g1 x90.883937 y130.73534
g1 x90.889662 y130.737199
g1 x90.854729 y130.921054
g1 x90.848841 y130.920684
g1 x90.854729 y130.921054
g1 x90.866342 y131.107226
g1 x90.860463 y131.108345
g1 x90.866342 y131.107226
g1 x90.923972 y131.284624
g1 x90.918554 y131.287175
g1 x90.923972 y131.284624
g1 x91.023586 y131.441416
g1 x91.018986 y131.445226
g1 x91.023586 y131.441416
g1 x91.159458 y131.56881
g1 x91.155965 y131.573624
g1 x91.159458 y131.56881
g1 x91.323636 y131.658964
g1 x91.32147 y131.664429
g1 x91.323636 y131.658964
g1 x91.504533 y131.705654
g1 x91.503775 y131.711627
g1 x91.504533 y131.705654
g1 x91.690055 y131.705654
g1 x91.690814 y131.711631
g1 x91.690055 y131.705654
g1 x91.870809 y131.658988
g1 x91.872977 y131.664455
g1 x91.870809 y131.658988
g1 x92.034921 y131.568844
g1 x92.038411 y131.573653
g1 x92.034921 y131.568844
g1 x92.170826 y131.441417
g1 x92.175426 y131.445228
g1 x92.170826 y131.441417
g1 x92.270442 y131.284624
g1 x92.275859 y131.287174
g1 x92.270442 y131.284624
g1 x92.328137 y131.107024
g1 x92.333989 y131.10814
g1 x92.328137 y131.107024
g1 x92.339841 y130.921043
g1 x92.345782 y130.92067
g1 x92.339841 y130.921043
g1 x92.304811 y130.737197
g1 x92.310491 y130.735352
g1 x92.304811 y130.737197
g1 x92.225464 y130.568579
g1 x92.230482 y130.565396
g1 x92.225464 y130.568579
g1 x92.10653 y130.424693
g1 x92.11063 y130.420328
g1 x92.10653 y130.424693
g1 x91.956003 y130.315367
g1 x91.958892 y130.310105
g1 x91.956003 y130.315367
g1 x91.782707 y130.246965
g1 x91.784176 y130.241226
g1 x91.782707 y130.246965
g1 x91.597282 y130.223595
g1 x91.597282 y130.217664
g1 x91.597282 y130.223595
g1 x91.411694 y130.246974
g1 z-1.5 f300
g1 x91.410224 y130.241232 f650
g1 x91.411694 y130.246974
g1 x91.238476 y130.315345
g1 x91.235583 y130.310076
g1 x91.238476 y130.315345
g1 x91.088095 y130.424601
g1 x91.083993 y130.420235
g1 x91.088095 y130.424601
g1 x90.969076 y130.56865
g1 x90.964087 y130.565485
g1 x90.969076 y130.56865
g1 x90.889662 y130.737199
g1 x90.883937 y130.73534
g1 x90.889662 y130.737199
g1 x90.854729 y130.921054
g1 x90.848841 y130.920684
g1 x90.854729 y130.921054
g1 x90.866342 y131.107226
g1 x90.860463 y131.108345
g1 x90.866342 y131.107226
g1 x90.923972 y131.284624
g1 x90.918554 y131.287175
g1 x90.923972 y131.284624
g1 x91.023586 y131.441416
g1 x91.018986 y131.445226
g1 x91.023586 y131.441416
g1 x91.159458 y131.56881
g1 x91.155965 y131.573624
g1 x91.159458 y131.56881
g1 x91.323636 y131.658964
g1 x91.32147 y131.664429
g1 x91.323636 y131.658964
g1 x91.504533 y131.705654
g1 x91.503775 y131.711627
g1 x91.504533 y131.705654
g1 x91.690055 y131.705654
g1 x91.690814 y131.711631
g1 x91.690055 y131.705654
g1 x91.870809 y131.658988
g1 x91.872977 y131.664455
g1 x91.870809 y131.658988
g1 x92.034921 y131.568844
g1 x92.038411 y131.573653
g1 x92.034921 y131.568844
g1 x92.170826 y131.441417
g1 x92.175426 y131.445228
g1 x92.170826 y131.441417
g1 x92.270442 y131.284624
g1 x92.275859 y131.287174
g1 x92.270442 y131.284624
g1 x92.328137 y131.107024
g1 x92.333989 y131.10814
g1 x92.328137 y131.107024
g1 x92.339841 y130.921043
g1 x92.345782 y130.92067
g1 x92.339841 y130.921043
g1 x92.304811 y130.737197
g1 x92.310491 y130.735352
g1 x92.304811 y130.737197
g1 x92.225464 y130.568579
g1 x92.230482 y130.565396
g1 x92.225464 y130.568579
g1 x92.10653 y130.424693
g1 x92.11063 y130.420328
g1 x92.10653 y130.424693
g1 x91.956003 y130.315367
g1 x91.958892 y130.310105
g1 x91.956003 y130.315367
g1 x91.782707 y130.246965
g1 x91.784176 y130.241226
g1 x91.782707 y130.246965
g1 x91.597282 y130.223595
g1 x91.597282 y130.217664
g1 x91.597282 y130.223595
g1 x91.411694 y130.246974
g1 z-3 f300
g1 x91.410224 y130.241232 f650
g1 x91.411694 y130.246974
g1 x91.238476 y130.315345
g1 x91.235583 y130.310076
g1 x91.238476 y130.315345
g1 x91.088095 y130.424601
g1 x91.083993 y130.420235
g1 x91.088095 y130.424601
g1 x90.969076 y130.56865
g1 x90.964087 y130.565485
g1 x90.969076 y130.56865
g1 x90.889662 y130.737199
g1 x90.883937 y130.73534
g1 x90.889662 y130.737199
g1 x90.854729 y130.921054
g1 x90.848841 y130.920684
g1 x90.854729 y130.921054
g1 x90.866342 y131.107226
g1 x90.860463 y131.108345
g1 x90.866342 y131.107226
g1 x90.923972 y131.284624
g1 x90.918554 y131.287175
g1 x90.923972 y131.284624
g1 x91.023586 y131.441416
g1 x91.018986 y131.445226
g1 x91.023586 y131.441416
g1 x91.159458 y131.56881
g1 x91.155965 y131.573624
g1 x91.159458 y131.56881
g1 x91.323636 y131.658964
g1 x91.32147 y131.664429
g1 x91.323636 y131.658964
g1 x91.504533 y131.705654
g1 x91.503775 y131.711627
g1 x91.504533 y131.705654
g1 x91.690055 y131.705654
g1 x91.690814 y131.711631
g1 x91.690055 y131.705654
g1 x91.870809 y131.658988
g1 x91.872977 y131.664455
g1 x91.870809 y131.658988
g1 x92.034921 y131.568844
g1 x92.038411 y131.573653
g1 x92.034921 y131.568844
g1 x92.170826 y131.441417
g1 x92.175426 y131.445228
g1 x92.170826 y131.441417
g1 x92.270442 y131.284624
g1 x92.275859 y131.287174
g1 x92.270442 y131.284624
g1 x92.328137 y131.107024
g1 x92.333989 y131.10814
g1 x92.328137 y131.107024
g1 x92.339841 y130.921043
g1 x92.345782 y130.92067
g1 x92.339841 y130.921043
g1 x92.304811 y130.737197
g1 x92.310491 y130.735352
g1 x92.304811 y130.737197
g1 x92.225464 y130.568579
g1 x92.230482 y130.565396
g1 x92.225464 y130.568579
g1 x92.10653 y130.424693
g1 x92.11063 y130.420328
g1 x92.10653 y130.424693
g1 x91.956003 y130.315367
g1 x91.958892 y130.310105
g1 x91.956003 y130.315367
g1 x91.782707 y130.246965
g1 x91.784176 y130.241226
g1 x91.782707 y130.246965
g1 x91.597282 y130.223595
g1 x91.597282 y130.217664
g1 x91.597282 y130.223595
g1 x91.411694 y130.246974
g0 z30
(Block-name: path4)
(Block-expand: 0)
(Block-enable: 0)

(End cutting path id: path4)


(Start cutting path id: path4)
(Change tool to Default tool)

G00 Z30.000000
G00 X45.311916 Y128.886658

G01 Z-1.000000 F100.0(Penetrate)
G01 X45.127016 Y128.921658 Z-1.000000 F400.000000
G01 X44.947816 Y128.979658 Z-1.000000
G01 X44.777416 Y129.059658 Z-1.000000
G01 X44.618216 Y129.160658 Z-1.000000
G01 X44.473116 Y129.280658 Z-1.000000
G01 X44.344216 Y129.418658 Z-1.000000
G01 X44.233416 Y129.570658 Z-1.000000
G01 X44.142816 Y129.735658 Z-1.000000
G01 X44.073316 Y129.910658 Z-1.000000
G01 X44.026516 Y130.093658 Z-1.000000
G01 X44.002816 Y130.280668 Z-1.000000
G01 X44.002816 Y130.468658 Z-1.000000
G01 X44.026516 Y130.655658 Z-1.000000
G01 X44.073316 Y130.837658 Z-1.000000
G01 X44.142816 Y131.013658 Z-1.000000
G01 X44.233416 Y131.178658 Z-1.000000
G01 X44.344216 Y131.330658 Z-1.000000
G01 X44.473116 Y131.467658 Z-1.000000
G01 X44.618216 Y131.587658 Z-1.000000
G01 X44.777416 Y131.688658 Z-1.000000
G01 X44.947816 Y131.769658 Z-1.000000
G01 X45.127016 Y131.827658 Z-1.000000
G01 X45.311916 Y131.862658 Z-1.000000
G01 X45.499916 Y131.874658 Z-1.000000
G01 X45.687916 Y131.862658 Z-1.000000
G01 X45.873016 Y131.827658 Z-1.000000
G01 X46.052116 Y131.769658 Z-1.000000
G01 X46.222516 Y131.688658 Z-1.000000
G01 X46.381716 Y131.587658 Z-1.000000
G01 X46.526816 Y131.467658 Z-1.000000
G01 X46.655716 Y131.330658 Z-1.000000
G01 X46.766415 Y131.178658 Z-1.000000
G01 X46.857115 Y131.013658 Z-1.000000
G01 X46.926615 Y130.837658 Z-1.000000
G01 X46.973415 Y130.655658 Z-1.000000
G01 X46.996915 Y130.468658 Z-1.000000
G01 X46.996915 Y130.280668 Z-1.000000
G01 X46.973415 Y130.093658 Z-1.000000
G01 X46.926615 Y129.910658 Z-1.000000
G01 X46.857115 Y129.735658 Z-1.000000
G01 X46.766415 Y129.570658 Z-1.000000
G01 X46.655716 Y129.418658 Z-1.000000
G01 X46.526816 Y129.280658 Z-1.000000
G01 X46.381716 Y129.160658 Z-1.000000
G01 X46.222516 Y129.059658 Z-1.000000
G01 X46.052116 Y128.979658 Z-1.000000
G01 X45.873016 Y128.921658 Z-1.000000
G01 X45.687916 Y128.886658 Z-1.000000
G01 X45.499916 Y128.874658 Z-1.000000
G01 X45.311916 Y128.886658 Z-1.000000
G00 Z30.000000
(Block-name: path4 [in,cut])
(Block-expand: 0)
(Block-enable: 0)
g0 x45.405906 y129.632185
g1 z0 f300
g1 x45.405728 y129.630768 f650
g1 x45.405906 y129.632185
g1 x45.312973 y129.649776
g1 x45.312605 y129.648333
g1 x45.312973 y129.649776
g1 x45.22375 y129.678654
g1 x45.223203 y129.677269
g1 x45.22375 y129.678654
g1 x45.139116 y129.718389
g1 x45.138394 y129.717073
g1 x45.139116 y129.718389
g1 x45.059837 y129.768685
g1 x45.058966 y129.767485
g1 x45.059837 y129.768685
g1 x44.988276 y129.827867
g1 x44.987213 y129.826739
g1 x44.988276 y129.827867
g1 x44.923429 y129.897292
g1 x44.922362 y129.89641
g1 x44.923429 y129.897292
g1 x44.867742 y129.973686
g1 x44.866448 y129.972864
g1 x44.867742 y129.973686
g1 x44.822658 y130.055792
g1 x44.82135 y130.055176
g1 x44.822658 y130.055792
g1 x44.788053 y130.142927
g1 x44.786598 y130.142454
g1 x44.788053 y130.142927
g1 x44.764696 y130.234259
g1 x44.763271 y130.233988
g1 x44.764696 y130.234259
g1 x44.752816 y130.328003
g1 x44.751327 y130.327909
g1 x44.752816 y130.328003
g1 x44.752816 y130.421321
g1 x44.751327 y130.421415
g1 x44.752816 y130.421321
g1 x44.764633 y130.514562
g1 x44.763178 y130.51484
g1 x44.764633 y130.514562
g1 x44.788053 y130.605639
g1 x44.786671 y130.606087
g1 x44.788053 y130.605639
g1 x44.823012 y130.694168
g1 x44.821661 y130.694802
g1 x44.823012 y130.694168
g1 x44.867742 y130.77563
g1 x44.866448 y130.776452
g1 x44.867742 y130.77563
g1 x44.922625 y130.85092
g1 x44.921495 y130.851858
g1 x44.922625 y130.85092
g1 x44.987223 y130.919578
g1 x44.986221 y130.920645
g1 x44.987223 y130.919578
g1 x45.059837 y130.979631
g1 x45.058966 y130.980831
g1 x45.059837 y130.979631
g1 x45.140641 y131.030895
g1 x45.13997 y131.032111
g1 x45.140641 y131.030895
g1 x45.225469 y131.071218
g1 x45.224876 y131.072709
g1 x45.225469 y131.071218
g1 x45.312973 y131.09954
g1 x45.312605 y131.100983
g1 x45.312973 y131.09954
g1 x45.405906 y131.117131
g1 x45.405728 y131.118548
g1 x45.405906 y131.117131
g1 x45.499916 y131.123132
g1 x45.499916 y131.124658
g1 x45.499916 y131.123132
g1 x45.594 y131.117126
g1 x45.594178 y131.118539
g1 x45.594 y131.117126
g1 x45.687069 y131.099528
g1 x45.68744 y131.10098
g1 x45.687069 y131.099528
g1 x45.774407 y131.071244
g1 x45.774999 y131.072732
g1 x45.774407 y131.071244
g1 x45.859291 y131.030895
g1 x45.859962 y131.032111
g1 x45.859291 y131.030895
g1 x45.940095 y130.979631
g1 x45.940966 y130.980831
g1 x45.940095 y130.979631
g1 x46.012709 y130.919578
g1 x46.013711 y130.920645
g1 x46.012709 y130.919578
g1 x46.077195 y130.851039
g1 x46.078334 y130.851983
g1 x46.077195 y130.851039
g1 x46.132114 y130.775631
g1 x46.133389 y130.776442
g1 x46.132114 y130.775631
g1 x46.176983 y130.694005
g1 x46.178344 y130.694644
g1 x46.176983 y130.694005
g1 x46.211878 y130.605639
g1 x46.21326 y130.606087
g1 x46.211878 y130.605639
g1 x46.235199 y130.514946
g1 x46.236679 y130.515228
g1 x46.235199 y130.514946
g1 x46.246915 y130.421717
g1 x46.24838 y130.421809
g1 x46.246915 y130.421717
g1 x46.246915 y130.327607
g1 x46.24838 y130.327515
g1 x46.246915 y130.327607
g1 x46.235137 y130.233875
g1 x46.236586 y130.2336
g1 x46.235137 y130.233875
g1 x46.211878 y130.142927
g1 x46.213333 y130.142454
g1 x46.211878 y130.142927
g1 x46.177337 y130.055955
g1 x46.178655 y130.055334
g1 x46.177337 y130.055955
g1 x46.132114 y129.973685
g1 x46.133389 y129.972874
g1 x46.132114 y129.973685
g1 x46.076391 y129.897172
g1 x46.077466 y129.896284
g1 x46.076391 y129.897172
g1 x46.011656 y129.827867
g1 x46.012719 y129.826739
g1 x46.011656 y129.827867
g1 x45.940095 y129.768685
g1 x45.940966 y129.767485
g1 x45.940095 y129.768685
g1 x45.860816 y129.718389
g1 x45.861538 y129.717073
g1 x45.860816 y129.718389
g1 x45.776126 y129.678628
g1 x45.776671 y129.677247
g1 x45.776126 y129.678628
g1 x45.687069 y129.649788
g1 x45.68744 y129.648336
g1 x45.687069 y129.649788
g1 x45.594 y129.63219
g1 x45.594178 y129.630777
g1 x45.594 y129.63219
g1 x45.499916 y129.626184
g1 x45.499916 y129.624658
g1 x45.499916 y129.626184
g1 x45.405906 y129.632185
g1 z-1.5 f300
g1 x45.405728 y129.630768 f650
g1 x45.405906 y129.632185
g1 x45.312973 y129.649776
g1 x45.312605 y129.648333
g1 x45.312973 y129.649776
g1 x45.22375 y129.678654
g1 x45.223203 y129.677269
g1 x45.22375 y129.678654
g1 x45.139116 y129.718389
g1 x45.138394 y129.717073
g1 x45.139116 y129.718389
g1 x45.059837 y129.768685
g1 x45.058966 y129.767485
g1 x45.059837 y129.768685
g1 x44.988276 y129.827867
g1 x44.987213 y129.826739
g1 x44.988276 y129.827867
g1 x44.923429 y129.897292
g1 x44.922362 y129.89641
g1 x44.923429 y129.897292
g1 x44.867742 y129.973686
g1 x44.866448 y129.972864
g1 x44.867742 y129.973686
g1 x44.822658 y130.055792
g1 x44.82135 y130.055176
g1 x44.822658 y130.055792
g1 x44.788053 y130.142927
g1 x44.786598 y130.142454
g1 x44.788053 y130.142927
g1 x44.764696 y130.234259
g1 x44.763271 y130.233988
g1 x44.764696 y130.234259
g1 x44.752816 y130.328003
g1 x44.751327 y130.327909
g1 x44.752816 y130.328003
g1 x44.752816 y130.421321
g1 x44.751327 y130.421415
g1 x44.752816 y130.421321
g1 x44.764633 y130.514562
g1 x44.763178 y130.51484
g1 x44.764633 y130.514562
g1 x44.788053 y130.605639
g1 x44.786671 y130.606087
g1 x44.788053 y130.605639
g1 x44.823012 y130.694168
g1 x44.821661 y130.694802
g1 x44.823012 y130.694168
g1 x44.867742 y130.77563
g1 x44.866448 y130.776452
g1 x44.867742 y130.77563
g1 x44.922625 y130.85092
g1 x44.921495 y130.851858
g1 x44.922625 y130.85092
g1 x44.987223 y130.919578
g1 x44.986221 y130.920645
g1 x44.987223 y130.919578
g1 x45.059837 y130.979631
g1 x45.058966 y130.980831
g1 x45.059837 y130.979631
g1 x45.140641 y131.030895
g1 x45.13997 y131.032111
g1 x45.140641 y131.030895
g1 x45.225469 y131.071218
g1 x45.224876 y131.072709
g1 x45.225469 y131.071218
g1 x45.312973 y131.09954
g1 x45.312605 y131.100983
g1 x45.312973 y131.09954
g1 x45.405906 y131.117131
g1 x45.405728 y131.118548
g1 x45.405906 y131.117131
g1 x45.499916 y131.123132
g1 x45.499916 y131.124658
g1 x45.499916 y131.123132
g1 x45.594 y131.117126
g1 x45.594178 y131.118539
g1 x45.594 y131.117126
g1 x45.687069 y131.099528
g1 x45.68744 y131.10098
g1 x45.687069 y131.099528
g1 x45.774407 y131.071244
g1 x45.774999 y131.072732
g1 x45.774407 y131.071244
g1 x45.859291 y131.030895
g1 x45.859962 y131.032111
g1 x45.859291 y131.030895
g1 x45.940095 y130.979631
g1 x45.940966 y130.980831
g1 x45.940095 y130.979631
g1 x46.012709 y130.919578
g1 x46.013711 y130.920645
g1 x46.012709 y130.919578
g1 x46.077195 y130.851039
g1 x46.078334 y130.851983
g1 x46.077195 y130.851039
g1 x46.132114 y130.775631
g1 x46.133389 y130.776442
g1 x46.132114 y130.775631
g1 x46.176983 y130.694005
g1 x46.178344 y130.694644
g1 x46.176983 y130.694005
g1 x46.211878 y130.605639
g1 x46.21326 y130.606087
g1 x46.211878 y130.605639
g1 x46.235199 y130.514946
g1 x46.236679 y130.515228
g1 x46.235199 y130.514946
g1 x46.246915 y130.421717
g1 x46.24838 y130.421809
g1 x46.246915 y130.421717
g1 x46.246915 y130.327607
g1 x46.24838 y130.327515
g1 x46.246915 y130.327607
g1 x46.235137 y130.233875
g1 x46.236586 y130.2336
g1 x46.235137 y130.233875
g1 x46.211878 y130.142927
g1 x46.213333 y130.142454
g1 x46.211878 y130.142927
g1 x46.177337 y130.055955
g1 x46.178655 y130.055334
g1 x46.177337 y130.055955
g1 x46.132114 y129.973685
g1 x46.133389 y129.972874
g1 x46.132114 y129.973685
g1 x46.076391 y129.897172
g1 x46.077466 y129.896284
g1 x46.076391 y129.897172
g1 x46.011656 y129.827867
g1 x46.012719 y129.826739
g1 x46.011656 y129.827867
g1 x45.940095 y129.768685
g1 x45.940966 y129.767485
g1 x45.940095 y129.768685
g1 x45.860816 y129.718389
g1 x45.861538 y129.717073
g1 x45.860816 y129.718389
g1 x45.776126 y129.678628
g1 x45.776671 y129.677247
g1 x45.776126 y129.678628
g1 x45.687069 y129.649788
g1 x45.68744 y129.648336
g1 x45.687069 y129.649788
g1 x45.594 y129.63219
g1 x45.594178 y129.630777
g1 x45.594 y129.63219
g1 x45.499916 y129.626184
g1 x45.499916 y129.624658
g1 x45.499916 y129.626184
g1 x45.405906 y129.632185
g1 z-3 f300
g1 x45.405728 y129.630768 f650
g1 x45.405906 y129.632185
g1 x45.312973 y129.649776
g1 x45.312605 y129.648333
g1 x45.312973 y129.649776
g1 x45.22375 y129.678654
g1 x45.223203 y129.677269
g1 x45.22375 y129.678654
g1 x45.139116 y129.718389
g1 x45.138394 y129.717073
g1 x45.139116 y129.718389
g1 x45.059837 y129.768685
g1 x45.058966 y129.767485
g1 x45.059837 y129.768685
g1 x44.988276 y129.827867
g1 x44.987213 y129.826739
g1 x44.988276 y129.827867
g1 x44.923429 y129.897292
g1 x44.922362 y129.89641
g1 x44.923429 y129.897292
g1 x44.867742 y129.973686
g1 x44.866448 y129.972864
g1 x44.867742 y129.973686
g1 x44.822658 y130.055792
g1 x44.82135 y130.055176
g1 x44.822658 y130.055792
g1 x44.788053 y130.142927
g1 x44.786598 y130.142454
g1 x44.788053 y130.142927
g1 x44.764696 y130.234259
g1 x44.763271 y130.233988
g1 x44.764696 y130.234259
g1 x44.752816 y130.328003
g1 x44.751327 y130.327909
g1 x44.752816 y130.328003
g1 x44.752816 y130.421321
g1 x44.751327 y130.421415
g1 x44.752816 y130.421321
g1 x44.764633 y130.514562
g1 x44.763178 y130.51484
g1 x44.764633 y130.514562
g1 x44.788053 y130.605639
g1 x44.786671 y130.606087
g1 x44.788053 y130.605639
g1 x44.823012 y130.694168
g1 x44.821661 y130.694802
g1 x44.823012 y130.694168
g1 x44.867742 y130.77563
g1 x44.866448 y130.776452
g1 x44.867742 y130.77563
g1 x44.922625 y130.85092
g1 x44.921495 y130.851858
g1 x44.922625 y130.85092
g1 x44.987223 y130.919578
g1 x44.986221 y130.920645
g1 x44.987223 y130.919578
g1 x45.059837 y130.979631
g1 x45.058966 y130.980831
g1 x45.059837 y130.979631
g1 x45.140641 y131.030895
g1 x45.13997 y131.032111
g1 x45.140641 y131.030895
g1 x45.225469 y131.071218
g1 x45.224876 y131.072709
g1 x45.225469 y131.071218
g1 x45.312973 y131.09954
g1 x45.312605 y131.100983
g1 x45.312973 y131.09954
g1 x45.405906 y131.117131
g1 x45.405728 y131.118548
g1 x45.405906 y131.117131
g1 x45.499916 y131.123132
g1 x45.499916 y131.124658
g1 x45.499916 y131.123132
g1 x45.594 y131.117126
g1 x45.594178 y131.118539
g1 x45.594 y131.117126
g1 x45.687069 y131.099528
g1 x45.68744 y131.10098
g1 x45.687069 y131.099528
g1 x45.774407 y131.071244
g1 x45.774999 y131.072732
g1 x45.774407 y131.071244
g1 x45.859291 y131.030895
g1 x45.859962 y131.032111
g1 x45.859291 y131.030895
g1 x45.940095 y130.979631
g1 x45.940966 y130.980831
g1 x45.940095 y130.979631
g1 x46.012709 y130.919578
g1 x46.013711 y130.920645
g1 x46.012709 y130.919578
g1 x46.077195 y130.851039
g1 x46.078334 y130.851983
g1 x46.077195 y130.851039
g1 x46.132114 y130.775631
g1 x46.133389 y130.776442
g1 x46.132114 y130.775631
g1 x46.176983 y130.694005
g1 x46.178344 y130.694644
g1 x46.176983 y130.694005
g1 x46.211878 y130.605639
g1 x46.21326 y130.606087
g1 x46.211878 y130.605639
g1 x46.235199 y130.514946
g1 x46.236679 y130.515228
g1 x46.235199 y130.514946
g1 x46.246915 y130.421717
g1 x46.24838 y130.421809
g1 x46.246915 y130.421717
g1 x46.246915 y130.327607
g1 x46.24838 y130.327515
g1 x46.246915 y130.327607
g1 x46.235137 y130.233875
g1 x46.236586 y130.2336
g1 x46.235137 y130.233875
g1 x46.211878 y130.142927
g1 x46.213333 y130.142454
g1 x46.211878 y130.142927
g1 x46.177337 y130.055955
g1 x46.178655 y130.055334
g1 x46.177337 y130.055955
g1 x46.132114 y129.973685
g1 x46.133389 y129.972874
g1 x46.132114 y129.973685
g1 x46.076391 y129.897172
g1 x46.077466 y129.896284
g1 x46.076391 y129.897172
g1 x46.011656 y129.827867
g1 x46.012719 y129.826739
g1 x46.011656 y129.827867
g1 x45.940095 y129.768685
g1 x45.940966 y129.767485
g1 x45.940095 y129.768685
g1 x45.860816 y129.718389
g1 x45.861538 y129.717073
g1 x45.860816 y129.718389
g1 x45.776126 y129.678628
g1 x45.776671 y129.677247
g1 x45.776126 y129.678628
g1 x45.687069 y129.649788
g1 x45.68744 y129.648336
g1 x45.687069 y129.649788
g1 x45.594 y129.63219
g1 x45.594178 y129.630777
g1 x45.594 y129.63219
g1 x45.499916 y129.626184
g1 x45.499916 y129.624658
g1 x45.499916 y129.626184
g1 x45.405906 y129.632185
g0 z30
(Block-name: path4)
(Block-expand: 0)
(Block-enable: 0)

(End cutting path id: path4)


(Start cutting path id: path4)
(Change tool to Default tool)

G00 Z30.000000
G00 X80.311915 Y128.886655

G01 Z-1.000000 F100.0(Penetrate)
G01 X80.127016 Y128.921655 Z-1.000000 F400.000000
G01 X79.947816 Y128.979655 Z-1.000000
G01 X79.777417 Y129.059655 Z-1.000000
G01 X79.618217 Y129.160655 Z-1.000000
G01 X79.473117 Y129.280655 Z-1.000000
G01 X79.344217 Y129.418655 Z-1.000000
G01 X79.233415 Y129.570655 Z-1.000000
G01 X79.142815 Y129.735655 Z-1.000000
G01 X79.073315 Y129.910655 Z-1.000000
G01 X79.026515 Y130.093655 Z-1.000000
G01 X79.002805 Y130.280665 Z-1.000000
G01 X79.002805 Y130.468655 Z-1.000000
G01 X79.026515 Y130.655655 Z-1.000000
G01 X79.073315 Y130.837655 Z-1.000000
G01 X79.142815 Y131.013655 Z-1.000000
G01 X79.233415 Y131.178655 Z-1.000000
G01 X79.344217 Y131.330655 Z-1.000000
G01 X79.473118 Y131.467655 Z-1.000000
G01 X79.618218 Y131.587655 Z-1.000000
G01 X79.777418 Y131.688655 Z-1.000000
G01 X79.947817 Y131.769655 Z-1.000000
G01 X80.127017 Y131.827655 Z-1.000000
G01 X80.311916 Y131.862655 Z-1.000000
G01 X80.499918 Y131.874655 Z-1.000000
G01 X80.687918 Y131.862655 Z-1.000000
G01 X80.873017 Y131.827655 Z-1.000000
G01 X81.052117 Y131.769655 Z-1.000000
G01 X81.222516 Y131.688655 Z-1.000000
G01 X81.381716 Y131.587655 Z-1.000000
G01 X81.526816 Y131.467655 Z-1.000000
G01 X81.655716 Y131.330655 Z-1.000000
G01 X81.766417 Y131.178655 Z-1.000000
G01 X81.857117 Y131.013655 Z-1.000000
G01 X81.926616 Y130.837655 Z-1.000000
G01 X81.973416 Y130.655655 Z-1.000000
G01 X81.996916 Y130.468655 Z-1.000000
G01 X81.996916 Y130.280665 Z-1.000000
G01 X81.973416 Y130.093655 Z-1.000000
G01 X81.926616 Y129.910655 Z-1.000000
G01 X81.857116 Y129.735655 Z-1.000000
G01 X81.766416 Y129.570655 Z-1.000000
G01 X81.655715 Y129.418655 Z-1.000000
G01 X81.526815 Y129.280655 Z-1.000000
G01 X81.381715 Y129.160655 Z-1.000000
G01 X81.222515 Y129.059655 Z-1.000000
G01 X81.052116 Y128.979655 Z-1.000000
G01 X80.873016 Y128.921655 Z-1.000000
G01 X80.687917 Y128.886655 Z-1.000000
G01 X80.499917 Y128.874655 Z-1.000000
G01 X80.311915 Y128.886655 Z-1.000000
G00 Z30.000000
(Block-name: path4 [in,cut])
(Block-expand: 0)
(Block-enable: 0)
g0 x80.405905 y129.632182
g1 z0 f300
g1 x80.405727 y129.630765 f650
g1 x80.405905 y129.632182
g1 x80.312974 y129.649773
g1 x80.312605 y129.64833
g1 x80.312974 y129.649773
g1 x80.223751 y129.678651
g1 x80.223204 y129.677266
g1 x80.223751 y129.678651
g1 x80.139118 y129.718385
g1 x80.138396 y129.71707
g1 x80.139118 y129.718385
g1 x80.059838 y129.768682
g1 x80.058967 y129.767482
g1 x80.059838 y129.768682
g1 x79.988277 y129.827864
g1 x79.987214 y129.826736
g1 x79.988277 y129.827864
g1 x79.923428 y129.897291
g1 x79.922361 y129.896409
g1 x79.923428 y129.897291
g1 x79.867739 y129.973686
g1 x79.866446 y129.972864
g1 x79.867739 y129.973686
g1 x79.822657 y130.055789
g1 x79.821349 y130.055173
g1 x79.822657 y130.055789
g1 x79.788052 y130.142924
g1 x79.786597 y130.142451
g1 x79.788052 y130.142924
g1 x79.76469 y130.234275
g1 x79.763266 y130.234004
g1 x79.76469 y130.234275
g1 x79.752805 y130.32802
g1 x79.751314 y130.327926
g1 x79.752805 y130.32802
g1 x79.752805 y130.421298
g1 x79.751314 y130.421392
g1 x79.752805 y130.421298
g1 x79.764627 y130.51454
g1 x79.763173 y130.514818
g1 x79.764627 y130.51454
g1 x79.788052 y130.605636
g1 x79.78667 y130.606084
g1 x79.788052 y130.605636
g1 x79.823011 y130.694165
g1 x79.82166 y130.694799
g1 x79.823011 y130.694165
g1 x79.867739 y130.775624
g1 x79.866446 y130.776446
g1 x79.867739 y130.775624
g1 x79.922623 y130.850914
g1 x79.921493 y130.851851
g1 x79.922623 y130.850914
g1 x79.987224 y130.919574
g1 x79.986222 y130.920641
g1 x79.987224 y130.919574
g1 x80.059839 y130.979628
g1 x80.058968 y130.980828
g1 x80.059839 y130.979628
g1 x80.140644 y131.030892
g1 x80.139973 y131.032108
g1 x80.140644 y131.030892
g1 x80.225471 y131.071215
g1 x80.224878 y131.072706
g1 x80.225471 y131.071215
g1 x80.312975 y131.099537
g1 x80.312606 y131.10098
g1 x80.312975 y131.099537
g1 x80.405906 y131.117128
g1 x80.405728 y131.118545
g1 x80.405906 y131.117128
g1 x80.499918 y131.123129
g1 x80.499918 y131.124655
g1 x80.499918 y131.123129
g1 x80.594001 y131.117123
g1 x80.594179 y131.118536
g1 x80.594001 y131.117123
g1 x80.68707 y131.099525
g1 x80.68744 y131.100977
g1 x80.68707 y131.099525
g1 x80.774408 y131.071242
g1 x80.774999 y131.072729
g1 x80.774408 y131.071242
g1 x80.85929 y131.030892
g1 x80.859961 y131.032108
g1 x80.85929 y131.030892
g1 x80.940095 y130.979628
g1 x80.940966 y130.980828
g1 x80.940095 y130.979628
g1 x81.012709 y130.919575
g1 x81.013711 y130.920642
g1 x81.012709 y130.919575
g1 x81.077197 y130.851034
g1 x81.078336 y130.851978
g1 x81.077197 y130.851034
g1 x81.132117 y130.775625
g1 x81.133393 y130.776436
g1 x81.132117 y130.775625
g1 x81.176985 y130.694003
g1 x81.178345 y130.694643
g1 x81.176985 y130.694003
g1 x81.211879 y130.605637
g1 x81.213261 y130.606086
g1 x81.211879 y130.605637
g1 x81.2352 y130.514943
g1 x81.23668 y130.515225
g1 x81.2352 y130.514943
g1 x81.246916 y130.421714
g1 x81.248381 y130.421806
g1 x81.246916 y130.421714
g1 x81.246916 y130.327604
g1 x81.248381 y130.327512
g1 x81.246916 y130.327604
g1 x81.235138 y130.233872
g1 x81.236587 y130.233597
g1 x81.235138 y130.233872
g1 x81.211879 y130.142924
g1 x81.213334 y130.142451
g1 x81.211879 y130.142924
g1 x81.177338 y130.055952
g1 x81.178656 y130.055331
g1 x81.177338 y130.055952
g1 x81.132116 y129.973685
g1 x81.133392 y129.972874
g1 x81.132116 y129.973685
g1 x81.076392 y129.897172
g1 x81.077467 y129.896284
g1 x81.076392 y129.897172
g1 x81.011655 y129.827864
g1 x81.012718 y129.826736
g1 x81.011655 y129.827864
g1 x80.940094 y129.768682
g1 x80.940965 y129.767482
g1 x80.940094 y129.768682
g1 x80.860814 y129.718385
g1 x80.861536 y129.71707
g1 x80.860814 y129.718385
g1 x80.776125 y129.678625
g1 x80.776671 y129.677244
g1 x80.776125 y129.678625
g1 x80.687069 y129.649785
g1 x80.687439 y129.648333
g1 x80.687069 y129.649785
g1 x80.594 y129.632187
g1 x80.594178 y129.630774
g1 x80.594 y129.632187
g1 x80.499917 y129.626181
g1 x80.499917 y129.624655
g1 x80.499917 y129.626181
g1 x80.405905 y129.632182
g1 z-1.5 f300
g1 x80.405727 y129.630765 f650
g1 x80.405905 y129.632182
g1 x80.312974 y129.649773
g1 x80.312605 y129.64833
g1 x80.312974 y129.649773
g1 x80.223751 y129.678651
g1 x80.223204 y129.677266
g1 x80.223751 y129.678651
g1 x80.139118 y129.718385
g1 x80.138396 y129.71707
g1 x80.139118 y129.718385
g1 x80.059838 y129.768682
g1 x80.058967 y129.767482
g1 x80.059838 y129.768682
g1 x79.988277 y129.827864
g1 x79.987214 y129.826736
g1 x79.988277 y129.827864
g1 x79.923428 y129.897291
g1 x79.922361 y129.896409
g1 x79.923428 y129.897291
g1 x79.867739 y129.973686
g1 x79.866446 y129.972864
g1 x79.867739 y129.973686
g1 x79.822657 y130.055789
g1 x79.821349 y130.055173
g1 x79.822657 y130.055789
g1 x79.788052 y130.142924
g1 x79.786597 y130.142451
g1 x79.788052 y130.142924
g1 x79.76469 y130.234275
g1 x79.763266 y130.234004
g1 x79.76469 y130.234275
g1 x79.752805 y130.32802
g1 x79.751314 y130.327926
g1 x79.752805 y130.32802
g1 x79.752805 y130.421298
g1 x79.751314 y130.421392
g1 x79.752805 y130.421298
g1 x79.764627 y130.51454
g1 x79.763173 y130.514818
g1 x79.764627 y130.51454
g1 x79.788052 y130.605636
g1 x79.78667 y130.606084
g1 x79.788052 y130.605636
g1 x79.823011 y130.694165
g1 x79.82166 y130.694799
g1 x79.823011 y130.694165
g1 x79.867739 y130.775624
g1 x79.866446 y130.776446
g1 x79.867739 y130.775624
g1 x79.922623 y130.850914
g1 x79.921493 y130.851851
g1 x79.922623 y130.850914
g1 x79.987224 y130.919574
g1 x79.986222 y130.920641
g1 x79.987224 y130.919574
g1 x80.059839 y130.979628
g1 x80.058968 y130.980828
g1 x80.059839 y130.979628
g1 x80.140644 y131.030892
g1 x80.139973 y131.032108
g1 x80.140644 y131.030892
g1 x80.225471 y131.071215
g1 x80.224878 y131.072706
g1 x80.225471 y131.071215
g1 x80.312975 y131.099537
g1 x80.312606 y131.10098
g1 x80.312975 y131.099537
g1 x80.405906 y131.117128
g1 x80.405728 y131.118545
g1 x80.405906 y131.117128
g1 x80.499918 y131.123129
g1 x80.499918 y131.124655
g1 x80.499918 y131.123129
g1 x80.594001 y131.117123
g1 x80.594179 y131.118536
g1 x80.594001 y131.117123
g1 x80.68707 y131.099525
g1 x80.68744 y131.100977
g1 x80.68707 y131.099525
g1 x80.774408 y131.071242
g1 x80.774999 y131.072729
g1 x80.774408 y131.071242
g1 x80.85929 y131.030892
g1 x80.859961 y131.032108
g1 x80.85929 y131.030892
g1 x80.940095 y130.979628
g1 x80.940966 y130.980828
g1 x80.940095 y130.979628
g1 x81.012709 y130.919575
g1 x81.013711 y130.920642
g1 x81.012709 y130.919575
g1 x81.077197 y130.851034
g1 x81.078336 y130.851978
g1 x81.077197 y130.851034
g1 x81.132117 y130.775625
g1 x81.133393 y130.776436
g1 x81.132117 y130.775625
g1 x81.176985 y130.694003
g1 x81.178345 y130.694643
g1 x81.176985 y130.694003
g1 x81.211879 y130.605637
g1 x81.213261 y130.606086
g1 x81.211879 y130.605637
g1 x81.2352 y130.514943
g1 x81.23668 y130.515225
g1 x81.2352 y130.514943
g1 x81.246916 y130.421714
g1 x81.248381 y130.421806
g1 x81.246916 y130.421714
g1 x81.246916 y130.327604
g1 x81.248381 y130.327512
g1 x81.246916 y130.327604
g1 x81.235138 y130.233872
g1 x81.236587 y130.233597
g1 x81.235138 y130.233872
g1 x81.211879 y130.142924
g1 x81.213334 y130.142451
g1 x81.211879 y130.142924
g1 x81.177338 y130.055952
g1 x81.178656 y130.055331
g1 x81.177338 y130.055952
g1 x81.132116 y129.973685
g1 x81.133392 y129.972874
g1 x81.132116 y129.973685
g1 x81.076392 y129.897172
g1 x81.077467 y129.896284
g1 x81.076392 y129.897172
g1 x81.011655 y129.827864
g1 x81.012718 y129.826736
g1 x81.011655 y129.827864
g1 x80.940094 y129.768682
g1 x80.940965 y129.767482
g1 x80.940094 y129.768682
g1 x80.860814 y129.718385
g1 x80.861536 y129.71707
g1 x80.860814 y129.718385
g1 x80.776125 y129.678625
g1 x80.776671 y129.677244
g1 x80.776125 y129.678625
g1 x80.687069 y129.649785
g1 x80.687439 y129.648333
g1 x80.687069 y129.649785
g1 x80.594 y129.632187
g1 x80.594178 y129.630774
g1 x80.594 y129.632187
g1 x80.499917 y129.626181
g1 x80.499917 y129.624655
g1 x80.499917 y129.626181
g1 x80.405905 y129.632182
g1 z-3 f300
g1 x80.405727 y129.630765 f650
g1 x80.405905 y129.632182
g1 x80.312974 y129.649773
g1 x80.312605 y129.64833
g1 x80.312974 y129.649773
g1 x80.223751 y129.678651
g1 x80.223204 y129.677266
g1 x80.223751 y129.678651
g1 x80.139118 y129.718385
g1 x80.138396 y129.71707
g1 x80.139118 y129.718385
g1 x80.059838 y129.768682
g1 x80.058967 y129.767482
g1 x80.059838 y129.768682
g1 x79.988277 y129.827864
g1 x79.987214 y129.826736
g1 x79.988277 y129.827864
g1 x79.923428 y129.897291
g1 x79.922361 y129.896409
g1 x79.923428 y129.897291
g1 x79.867739 y129.973686
g1 x79.866446 y129.972864
g1 x79.867739 y129.973686
g1 x79.822657 y130.055789
g1 x79.821349 y130.055173
g1 x79.822657 y130.055789
g1 x79.788052 y130.142924
g1 x79.786597 y130.142451
g1 x79.788052 y130.142924
g1 x79.76469 y130.234275
g1 x79.763266 y130.234004
g1 x79.76469 y130.234275
g1 x79.752805 y130.32802
g1 x79.751314 y130.327926
g1 x79.752805 y130.32802
g1 x79.752805 y130.421298
g1 x79.751314 y130.421392
g1 x79.752805 y130.421298
g1 x79.764627 y130.51454
g1 x79.763173 y130.514818
g1 x79.764627 y130.51454
g1 x79.788052 y130.605636
g1 x79.78667 y130.606084
g1 x79.788052 y130.605636
g1 x79.823011 y130.694165
g1 x79.82166 y130.694799
g1 x79.823011 y130.694165
g1 x79.867739 y130.775624
g1 x79.866446 y130.776446
g1 x79.867739 y130.775624
g1 x79.922623 y130.850914
g1 x79.921493 y130.851851
g1 x79.922623 y130.850914
g1 x79.987224 y130.919574
g1 x79.986222 y130.920641
g1 x79.987224 y130.919574
g1 x80.059839 y130.979628
g1 x80.058968 y130.980828
g1 x80.059839 y130.979628
g1 x80.140644 y131.030892
g1 x80.139973 y131.032108
g1 x80.140644 y131.030892
g1 x80.225471 y131.071215
g1 x80.224878 y131.072706
g1 x80.225471 y131.071215
g1 x80.312975 y131.099537
g1 x80.312606 y131.10098
g1 x80.312975 y131.099537
g1 x80.405906 y131.117128
g1 x80.405728 y131.118545
g1 x80.405906 y131.117128
g1 x80.499918 y131.123129
g1 x80.499918 y131.124655
g1 x80.499918 y131.123129
g1 x80.594001 y131.117123
g1 x80.594179 y131.118536
g1 x80.594001 y131.117123
g1 x80.68707 y131.099525
g1 x80.68744 y131.100977
g1 x80.68707 y131.099525
g1 x80.774408 y131.071242
g1 x80.774999 y131.072729
g1 x80.774408 y131.071242
g1 x80.85929 y131.030892
g1 x80.859961 y131.032108
g1 x80.85929 y131.030892
g1 x80.940095 y130.979628
g1 x80.940966 y130.980828
g1 x80.940095 y130.979628
g1 x81.012709 y130.919575
g1 x81.013711 y130.920642
g1 x81.012709 y130.919575
g1 x81.077197 y130.851034
g1 x81.078336 y130.851978
g1 x81.077197 y130.851034
g1 x81.132117 y130.775625
g1 x81.133393 y130.776436
g1 x81.132117 y130.775625
g1 x81.176985 y130.694003
g1 x81.178345 y130.694643
g1 x81.176985 y130.694003
g1 x81.211879 y130.605637
g1 x81.213261 y130.606086
g1 x81.211879 y130.605637
g1 x81.2352 y130.514943
g1 x81.23668 y130.515225
g1 x81.2352 y130.514943
g1 x81.246916 y130.421714
g1 x81.248381 y130.421806
g1 x81.246916 y130.421714
g1 x81.246916 y130.327604
g1 x81.248381 y130.327512
g1 x81.246916 y130.327604
g1 x81.235138 y130.233872
g1 x81.236587 y130.233597
g1 x81.235138 y130.233872
g1 x81.211879 y130.142924
g1 x81.213334 y130.142451
g1 x81.211879 y130.142924
g1 x81.177338 y130.055952
g1 x81.178656 y130.055331
g1 x81.177338 y130.055952
g1 x81.132116 y129.973685
g1 x81.133392 y129.972874
g1 x81.132116 y129.973685
g1 x81.076392 y129.897172
g1 x81.077467 y129.896284
g1 x81.076392 y129.897172
g1 x81.011655 y129.827864
g1 x81.012718 y129.826736
g1 x81.011655 y129.827864
g1 x80.940094 y129.768682
g1 x80.940965 y129.767482
g1 x80.940094 y129.768682
g1 x80.860814 y129.718385
g1 x80.861536 y129.71707
g1 x80.860814 y129.718385
g1 x80.776125 y129.678625
g1 x80.776671 y129.677244
g1 x80.776125 y129.678625
g1 x80.687069 y129.649785
g1 x80.687439 y129.648333
g1 x80.687069 y129.649785
g1 x80.594 y129.632187
g1 x80.594178 y129.630774
g1 x80.594 y129.632187
g1 x80.499917 y129.626181
g1 x80.499917 y129.624655
g1 x80.499917 y129.626181
g1 x80.405905 y129.632182
g0 z30
(Block-name: path4)
(Block-expand: 0)
(Block-enable: 0)

(End cutting path id: path4)


(Start cutting path id: path4)
(Change tool to Default tool)

G00 Z30.000000
G00 X139.627015 Y128.421649

G01 Z-1.000000 F100.0(Penetrate)
G01 X139.277015 Y128.559659 Z-1.000000 F400.000000
G01 X138.973015 Y128.780649 Z-1.000000
G01 X138.733015 Y129.070659 Z-1.000000
G01 X138.573005 Y129.410659 Z-1.000000
G01 X138.503006 Y129.780649 Z-1.000000
G01 X138.526006 Y130.155649 Z-1.000000
G01 X138.643006 Y130.513659 Z-1.000000
G01 X138.844006 Y130.830659 Z-1.000000
G01 X139.118006 Y131.087649 Z-1.000000
G01 X139.448006 Y131.269659 Z-1.000000
G01 X139.812006 Y131.362659 Z-1.000000
G01 X140.188006 Y131.362659 Z-1.000000
G01 X140.552006 Y131.269659 Z-1.000000
G01 X140.882006 Y131.087649 Z-1.000000
G01 X141.156006 Y130.830659 Z-1.000000
G01 X141.357006 Y130.513659 Z-1.000000
G01 X141.473006 Y130.155649 Z-1.000000
G01 X141.497006 Y129.780649 Z-1.000000
G01 X141.427006 Y129.410659 Z-1.000000
G01 X141.265996 Y129.070659 Z-1.000000
G01 X141.026995 Y128.780649 Z-1.000000
G01 X140.723005 Y128.559659 Z-1.000000
G01 X140.372995 Y128.421649 Z-1.000000
G01 X140.000005 Y128.374649 Z-1.000000
G01 X139.627015 Y128.421649 Z-1.000000
G00 Z30.000000
(Block-name: path4 [in,cut])
(Block-expand: 0)
(Block-enable: 0)
g0 x139.814375 y129.153971
g1 z0 f300
g1 x139.812911 y129.148246 f650
g1 x139.814375 y129.153971
g1 x139.640864 y129.222389
g1 x139.637957 y129.217094
g1 x139.640864 y129.222389
g1 x139.490517 y129.331682
g1 x139.48645 y129.327352
g1 x139.490517 y129.331682
g1 x139.371256 y129.475794
g1 x139.366218 y129.472597
g1 x139.371256 y129.475794
g1 x139.292209 y129.643758
g1 x139.286468 y129.641897
g1 x139.292209 y129.643758
g1 x139.257328 y129.82813
g1 x139.251525 y129.827765
g1 x139.257328 y129.82813
g1 x139.268723 y130.013918
g1 x139.262712 y130.015065
g1 x139.268723 y130.013918
g1 x139.326718 y130.19138
g1 x139.321416 y130.193879
g1 x139.326718 y130.19138
g1 x139.426469 y130.348698
g1 x139.421839 y130.352529
g1 x139.426469 y130.348698
g1 x139.562528 y130.47631
g1 x139.559077 y130.481055
g1 x139.562528 y130.47631
g1 x139.726406 y130.566697
g1 x139.724166 y130.572353
g1 x139.726406 y130.566697
g1 x139.906302 y130.612659
g1 x139.905565 y130.618517
g1 x139.906302 y130.612659
g1 x140.09371 y130.612659
g1 x140.094447 y130.618517
g1 x140.09371 y130.612659
g1 x140.273606 y130.566697
g1 x140.275846 y130.572353
g1 x140.273606 y130.566697
g1 x140.437484 y130.47631
g1 x140.440935 y130.481055
g1 x140.437484 y130.47631
g1 x140.573543 y130.348698
g1 x140.578173 y130.352529
g1 x140.573543 y130.348698
g1 x140.672779 y130.192192
g1 x140.678192 y130.194736
g1 x140.672779 y130.192192
g1 x140.730542 y130.013916
g1 x140.736309 y130.015017
g1 x140.730542 y130.013916
g1 x140.742496 y129.827137
g1 x140.748426 y129.826772
g1 x140.742496 y129.827137
g1 x140.707973 y129.64466
g1 x140.713822 y129.642756
g1 x140.707973 y129.64466
g1 x140.628005 y129.475795
g1 x140.632865 y129.47271
g1 x140.628005 y129.475795
g1 x140.508858 y129.331219
g1 x140.512996 y129.326822
g1 x140.508858 y129.331219
g1 x140.359153 y129.222389
g1 x140.362061 y129.217093
g1 x140.359153 y129.222389
g1 x140.185638 y129.153971
g1 x140.187103 y129.148247
g1 x140.185638 y129.153971
g1 x140.000005 y129.13058
g1 x140.000005 y129.124649
g1 x140.000005 y129.13058
g1 x139.814375 y129.153971
g1 z-1.5 f300
g1 x139.812911 y129.148246 f650
g1 x139.814375 y129.153971
g1 x139.640864 y129.222389
g1 x139.637957 y129.217094
g1 x139.640864 y129.222389
g1 x139.490517 y129.331682
g1 x139.48645 y129.327352
g1 x139.490517 y129.331682
g1 x139.371256 y129.475794
g1 x139.366218 y129.472597
g1 x139.371256 y129.475794
g1 x139.292209 y129.643758
g1 x139.286468 y129.641897
g1 x139.292209 y129.643758
g1 x139.257328 y129.82813
g1 x139.251525 y129.827765
g1 x139.257328 y129.82813
g1 x139.268723 y130.013918
g1 x139.262712 y130.015065
g1 x139.268723 y130.013918
g1 x139.326718 y130.19138
g1 x139.321416 y130.193879
g1 x139.326718 y130.19138
g1 x139.426469 y130.348698
g1 x139.421839 y130.352529
g1 x139.426469 y130.348698
g1 x139.562528 y130.47631
g1 x139.559077 y130.481055
g1 x139.562528 y130.47631
g1 x139.726406 y130.566697
g1 x139.724166 y130.572353
g1 x139.726406 y130.566697
g1 x139.906302 y130.612659
g1 x139.905565 y130.618517
g1 x139.906302 y130.612659
g1 x140.09371 y130.612659
g1 x140.094447 y130.618517
g1 x140.09371 y130.612659
g1 x140.273606 y130.566697
g1 x140.275846 y130.572353
g1 x140.273606 y130.566697
g1 x140.437484 y130.47631
g1 x140.440935 y130.481055
g1 x140.437484 y130.47631
g1 x140.573543 y130.348698
g1 x140.578173 y130.352529
g1 x140.573543 y130.348698
g1 x140.672779 y130.192192
g1 x140.678192 y130.194736
g1 x140.672779 y130.192192
g1 x140.730542 y130.013916
g1 x140.736309 y130.015017
g1 x140.730542 y130.013916
g1 x140.742496 y129.827137
g1 x140.748426 y129.826772
g1 x140.742496 y129.827137
g1 x140.707973 y129.64466
g1 x140.713822 y129.642756
g1 x140.707973 y129.64466
g1 x140.628005 y129.475795
g1 x140.632865 y129.47271
g1 x140.628005 y129.475795
g1 x140.508858 y129.331219
g1 x140.512996 y129.326822
g1 x140.508858 y129.331219
g1 x140.359153 y129.222389
g1 x140.362061 y129.217093
g1 x140.359153 y129.222389
g1 x140.185638 y129.153971
g1 x140.187103 y129.148247
g1 x140.185638 y129.153971
g1 x140.000005 y129.13058
g1 x140.000005 y129.124649
g1 x140.000005 y129.13058
g1 x139.814375 y129.153971
g1 z-3 f300
g1 x139.812911 y129.148246 f650
g1 x139.814375 y129.153971
g1 x139.640864 y129.222389
g1 x139.637957 y129.217094
g1 x139.640864 y129.222389
g1 x139.490517 y129.331682
g1 x139.48645 y129.327352
g1 x139.490517 y129.331682
g1 x139.371256 y129.475794
g1 x139.366218 y129.472597
g1 x139.371256 y129.475794
g1 x139.292209 y129.643758
g1 x139.286468 y129.641897
g1 x139.292209 y129.643758
g1 x139.257328 y129.82813
g1 x139.251525 y129.827765
g1 x139.257328 y129.82813
g1 x139.268723 y130.013918
g1 x139.262712 y130.015065
g1 x139.268723 y130.013918
g1 x139.326718 y130.19138
g1 x139.321416 y130.193879
g1 x139.326718 y130.19138
g1 x139.426469 y130.348698
g1 x139.421839 y130.352529
g1 x139.426469 y130.348698
g1 x139.562528 y130.47631
g1 x139.559077 y130.481055
g1 x139.562528 y130.47631
g1 x139.726406 y130.566697
g1 x139.724166 y130.572353
g1 x139.726406 y130.566697
g1 x139.906302 y130.612659
g1 x139.905565 y130.618517
g1 x139.906302 y130.612659
g1 x140.09371 y130.612659
g1 x140.094447 y130.618517
g1 x140.09371 y130.612659
g1 x140.273606 y130.566697
g1 x140.275846 y130.572353
g1 x140.273606 y130.566697
g1 x140.437484 y130.47631
g1 x140.440935 y130.481055
g1 x140.437484 y130.47631
g1 x140.573543 y130.348698
g1 x140.578173 y130.352529
g1 x140.573543 y130.348698
g1 x140.672779 y130.192192
g1 x140.678192 y130.194736
g1 x140.672779 y130.192192
g1 x140.730542 y130.013916
g1 x140.736309 y130.015017
g1 x140.730542 y130.013916
g1 x140.742496 y129.827137
g1 x140.748426 y129.826772
g1 x140.742496 y129.827137
g1 x140.707973 y129.64466
g1 x140.713822 y129.642756
g1 x140.707973 y129.64466
g1 x140.628005 y129.475795
g1 x140.632865 y129.47271
g1 x140.628005 y129.475795
g1 x140.508858 y129.331219
g1 x140.512996 y129.326822
g1 x140.508858 y129.331219
g1 x140.359153 y129.222389
g1 x140.362061 y129.217093
g1 x140.359153 y129.222389
g1 x140.185638 y129.153971
g1 x140.187103 y129.148247
g1 x140.185638 y129.153971
g1 x140.000005 y129.13058
g1 x140.000005 y129.124649
g1 x140.000005 y129.13058
g1 x139.814375 y129.153971
g0 z30
(Block-name: path4)
(Block-expand: 0)
(Block-enable: 0)

(End cutting path id: path4)


(Start cutting path id: path4)
(Change tool to Default tool)

G00 Z30.000000
G00 X37.944214 Y118.377669

G01 Z-1.000000 F100.0(Penetrate)
G01 X37.757315 Y118.400669 Z-1.000000 F400.000000
G01 X37.574914 Y118.447669 Z-1.000000
G01 X37.399714 Y118.517669 Z-1.000000
G01 X37.234614 Y118.607669 Z-1.000000
G01 X37.082215 Y118.718669 Z-1.000000
G01 X36.944914 Y118.847669 Z-1.000000
G01 X36.825014 Y118.992669 Z-1.000000
G01 X36.723914 Y119.151659 Z-1.000000
G01 X36.643714 Y119.322659 Z-1.000000
G01 X36.585514 Y119.501669 Z-1.000000
G01 X36.550314 Y119.686659 Z-1.000000
G01 X36.538415 Y119.874659 Z-1.000000
G01 X36.550315 Y120.062659 Z-1.000000
G01 X36.585515 Y120.247669 Z-1.000000
G01 X36.643715 Y120.426659 Z-1.000000
G01 X36.723915 Y120.597669 Z-1.000000
G01 X36.825015 Y120.756669 Z-1.000000
G01 X36.944915 Y120.901669 Z-1.000000
G01 X37.082216 Y121.030669 Z-1.000000
G01 X37.234615 Y121.140659 Z-1.000000
G01 X37.399715 Y121.231659 Z-1.000000
G01 X37.574915 Y121.301659 Z-1.000000
G01 X37.757316 Y121.347659 Z-1.000000
G01 X37.944215 Y121.371659 Z-1.000000
G01 X38.132615 Y121.371659 Z-1.000000
G01 X38.319515 Y121.347659 Z-1.000000
G01 X38.501915 Y121.301659 Z-1.000000
G01 X38.677115 Y121.231659 Z-1.000000
G01 X38.842215 Y121.140659 Z-1.000000
G01 X38.994615 Y121.030669 Z-1.000000
G01 X39.131915 Y120.901669 Z-1.000000
G01 X39.251915 Y120.756669 Z-1.000000
G01 X39.352915 Y120.597669 Z-1.000000
G01 X39.433115 Y120.426659 Z-1.000000
G01 X39.491315 Y120.247669 Z-1.000000
G01 X39.526515 Y120.062659 Z-1.000000
G01 X39.538415 Y119.874659 Z-1.000000
G01 X39.526515 Y119.686659 Z-1.000000
G01 X39.491315 Y119.501669 Z-1.000000
G01 X39.433115 Y119.322659 Z-1.000000
G01 X39.352914 Y119.151659 Z-1.000000
G01 X39.251914 Y118.992669 Z-1.000000
G01 X39.131914 Y118.847669 Z-1.000000
G01 X38.994614 Y118.718669 Z-1.000000
G01 X38.842214 Y118.607669 Z-1.000000
G01 X38.677114 Y118.517669 Z-1.000000
G01 X38.501914 Y118.447669 Z-1.000000
G01 X38.319514 Y118.400669 Z-1.000000
G01 X38.132614 Y118.377669 Z-1.000000
G01 X37.944214 Y118.377669 Z-1.000000
G00 Z30.000000
(Block-name: path4 [in,cut])
(Block-expand: 0)
(Block-enable: 0)
g0 x37.990189 y119.127669
g1 z0 f300
g1 x37.990102 y119.126264 f650
g1 x37.990189 y119.127669
g1 x37.897277 y119.139103
g1 x37.896982 y119.13755
g1 x37.897277 y119.139103
g1 x37.808574 y119.161959
g1 x37.808097 y119.160499
g1 x37.808574 y119.161959
g1 x37.719464 y119.197562
g1 x37.718899 y119.19636
g1 x37.719464 y119.197562
g1 x37.636584 y119.242742
g1 x37.63573 y119.241393
g1 x37.636584 y119.242742
g1 x37.56163 y119.297335
g1 x37.560698 y119.29621
g1 x37.56163 y119.297335
g1 x37.492844 y119.361963
g1 x37.491763 y119.360949
g1 x37.492844 y119.361963
g1 x37.432804 y119.434571
g1 x37.431626 y119.433715
g1 x37.432804 y119.434571
g1 x37.382556 y119.513591
g1 x37.381211 y119.512852
g1 x37.382556 y119.513591
g1 x37.342544 y119.598903
g1 x37.341197 y119.598371
g1 x37.342544 y119.598903
g1 x37.313429 y119.688457
g1 x37.311978 y119.688085
g1 x37.313429 y119.688457
g1 x37.295856 y119.78081
g1 x37.294404 y119.780627
g1 x37.295856 y119.78081
g1 x37.289916 y119.874657
g1 x37.288415 y119.874657
g1 x37.289916 y119.874657
g1 x37.295857 y119.968513
g1 x37.294406 y119.968697
g1 x37.295857 y119.968513
g1 x37.31343 y120.060876
g1 x37.311977 y120.061249
g1 x37.31343 y120.060876
g1 x37.342543 y120.150411
g1 x37.341197 y120.150944
g1 x37.342543 y120.150411
g1 x37.382566 y120.235754
g1 x37.381221 y120.236493
g1 x37.382566 y120.235754
g1 x37.432812 y120.314775
g1 x37.431634 y120.315632
g1 x37.432812 y120.314775
g1 x37.492845 y120.387375
g1 x37.491764 y120.388389
g1 x37.492845 y120.387375
g1 x37.560439 y120.450883
g1 x37.559444 y120.45209
g1 x37.560439 y120.450883
g1 x37.636571 y120.505829
g1 x37.635831 y120.506998
g1 x37.636571 y120.505829
g1 x37.721093 y120.552416
g1 x37.720479 y120.553713
g1 x37.721093 y120.552416
g1 x37.806775 y120.58665
g1 x37.806262 y120.588232
g1 x37.806775 y120.58665
g1 x37.897276 y120.609473
g1 x37.897027 y120.610787
g1 x37.897276 y120.609473
g1 x37.992172 y120.621659
g1 x37.992075 y120.623188
g1 x37.992172 y120.621659
g1 x38.084658 y120.621659
g1 x38.084756 y120.623188
g1 x38.084658 y120.621659
g1 x38.179554 y120.609473
g1 x38.179803 y120.610787
g1 x38.179554 y120.609473
g1 x38.270054 y120.58665
g1 x38.270568 y120.588232
g1 x38.270054 y120.58665
g1 x38.355737 y120.552416
g1 x38.356351 y120.553713
g1 x38.355737 y120.552416
g1 x38.44026 y120.505828
g1 x38.441 y120.506998
g1 x38.44026 y120.505828
g1 x38.516391 y120.450883
g1 x38.517387 y120.45209
g1 x38.516391 y120.450883
g1 x38.584097 y120.38727
g1 x38.58517 y120.388278
g1 x38.584097 y120.38727
g1 x38.644093 y120.314775
g1 x38.645288 y120.315644
g1 x38.644093 y120.314775
g1 x38.694192 y120.235906
g1 x38.695528 y120.23664
g1 x38.694192 y120.235906
g1 x38.734287 y120.150411
g1 x38.735633 y120.150944
g1 x38.734287 y120.150411
g1 x38.7634 y120.060876
g1 x38.764853 y120.061249
g1 x38.7634 y120.060876
g1 x38.780973 y119.968513
g1 x38.782424 y119.968697
g1 x38.780973 y119.968513
g1 x38.786914 y119.874659
g1 x38.788415 y119.874659
g1 x38.786914 y119.874659
g1 x38.780974 y119.780812
g1 x38.782425 y119.780629
g1 x38.780974 y119.780812
g1 x38.7634 y119.688457
g1 x38.764851 y119.688085
g1 x38.7634 y119.688457
g1 x38.734285 y119.598905
g1 x38.735632 y119.598373
g1 x38.734285 y119.598905
g1 x38.694201 y119.51344
g1 x38.695537 y119.512706
g1 x38.694201 y119.51344
g1 x38.644099 y119.434571
g1 x38.645293 y119.433703
g1 x38.644099 y119.434571
g1 x38.584096 y119.362068
g1 x38.585169 y119.36106
g1 x38.584096 y119.362068
g1 x38.515198 y119.297335
g1 x38.516131 y119.29621
g1 x38.515198 y119.297335
g1 x38.440245 y119.242743
g1 x38.441099 y119.241393
g1 x38.440245 y119.242743
g1 x38.357364 y119.197562
g1 x38.357929 y119.19636
g1 x38.357364 y119.197562
g1 x38.268253 y119.161959
g1 x38.268731 y119.160498
g1 x38.268253 y119.161959
g1 x38.179552 y119.139103
g1 x38.179846 y119.13755
g1 x38.179552 y119.139103
g1 x38.08664 y119.127669
g1 x38.086726 y119.126264
g1 x38.08664 y119.127669
g1 x37.990189 y119.127669
g1 z-1.5 f300
g1 x37.990102 y119.126264 f650
g1 x37.990189 y119.127669
g1 x37.897277 y119.139103
g1 x37.896982 y119.13755
g1 x37.897277 y119.139103
g1 x37.808574 y119.161959
g1 x37.808097 y119.160499
g1 x37.808574 y119.161959
g1 x37.719464 y119.197562
g1 x37.718899 y119.19636
g1 x37.719464 y119.197562
g1 x37.636584 y119.242742
g1 x37.63573 y119.241393
g1 x37.636584 y119.242742
g1 x37.56163 y119.297335
g1 x37.560698 y119.29621
g1 x37.56163 y119.297335
g1 x37.492844 y119.361963
g1 x37.491763 y119.360949
g1 x37.492844 y119.361963
g1 x37.432804 y119.434571
g1 x37.431626 y119.433715
g1 x37.432804 y119.434571
g1 x37.382556 y119.513591
g1 x37.381211 y119.512852
g1 x37.382556 y119.513591
g1 x37.342544 y119.598903
g1 x37.341197 y119.598371
g1 x37.342544 y119.598903
g1 x37.313429 y119.688457
g1 x37.311978 y119.688085
g1 x37.313429 y119.688457
g1 x37.295856 y119.78081
g1 x37.294404 y119.780627
g1 x37.295856 y119.78081
g1 x37.289916 y119.874657
g1 x37.288415 y119.874657
g1 x37.289916 y119.874657
g1 x37.295857 y119.968513
g1 x37.294406 y119.968697
g1 x37.295857 y119.968513
g1 x37.31343 y120.060876
g1 x37.311977 y120.061249
g1 x37.31343 y120.060876
g1 x37.342543 y120.150411
g1 x37.341197 y120.150944
g1 x37.342543 y120.150411
g1 x37.382566 y120.235754
g1 x37.381221 y120.236493
g1 x37.382566 y120.235754
g1 x37.432812 y120.314775
g1 x37.431634 y120.315632
g1 x37.432812 y120.314775
g1 x37.492845 y120.387375
g1 x37.491764 y120.388389
g1 x37.492845 y120.387375
g1 x37.560439 y120.450883
g1 x37.559444 y120.45209
g1 x37.560439 y120.450883
g1 x37.636571 y120.505829
g1 x37.635831 y120.506998
g1 x37.636571 y120.505829
g1 x37.721093 y120.552416
g1 x37.720479 y120.553713
g1 x37.721093 y120.552416
g1 x37.806775 y120.58665
g1 x37.806262 y120.588232
g1 x37.806775 y120.58665
g1 x37.897276 y120.609473
g1 x37.897027 y120.610787
g1 x37.897276 y120.609473
g1 x37.992172 y120.621659
g1 x37.992075 y120.623188
g1 x37.992172 y120.621659
g1 x38.084658 y120.621659
g1 x38.084756 y120.623188
g1 x38.084658 y120.621659
g1 x38.179554 y120.609473
g1 x38.179803 y120.610787
g1 x38.179554 y120.609473
g1 x38.270054 y120.58665
g1 x38.270568 y120.588232
g1 x38.270054 y120.58665
g1 x38.355737 y120.552416
g1 x38.356351 y120.553713
g1 x38.355737 y120.552416
g1 x38.44026 y120.505828
g1 x38.441 y120.506998
g1 x38.44026 y120.505828
g1 x38.516391 y120.450883
g1 x38.517387 y120.45209
g1 x38.516391 y120.450883
g1 x38.584097 y120.38727
g1 x38.58517 y120.388278
g1 x38.584097 y120.38727
g1 x38.644093 y120.314775
g1 x38.645288 y120.315644
g1 x38.644093 y120.314775
g1 x38.694192 y120.235906
g1 x38.695528 y120.23664
g1 x38.694192 y120.235906
g1 x38.734287 y120.150411
g1 x38.735633 y120.150944
g1 x38.734287 y120.150411
g1 x38.7634 y120.060876
g1 x38.764853 y120.061249
g1 x38.7634 y120.060876
g1 x38.780973 y119.968513
g1 x38.782424 y119.968697
g1 x38.780973 y119.968513
g1 x38.786914 y119.874659
g1 x38.788415 y119.874659
g1 x38.786914 y119.874659
g1 x38.780974 y119.780812
g1 x38.782425 y119.780629
g1 x38.780974 y119.780812
g1 x38.7634 y119.688457
g1 x38.764851 y119.688085
g1 x38.7634 y119.688457
g1 x38.734285 y119.598905
g1 x38.735632 y119.598373
g1 x38.734285 y119.598905
g1 x38.694201 y119.51344
g1 x38.695537 y119.512706
g1 x38.694201 y119.51344
g1 x38.644099 y119.434571
g1 x38.645293 y119.433703
g1 x38.644099 y119.434571
g1 x38.584096 y119.362068
g1 x38.585169 y119.36106
g1 x38.584096 y119.362068
g1 x38.515198 y119.297335
g1 x38.516131 y119.29621
g1 x38.515198 y119.297335
g1 x38.440245 y119.242743
g1 x38.441099 y119.241393
g1 x38.440245 y119.242743
g1 x38.357364 y119.197562
g1 x38.357929 y119.19636
g1 x38.357364 y119.197562
g1 x38.268253 y119.161959
g1 x38.268731 y119.160498
g1 x38.268253 y119.161959
g1 x38.179552 y119.139103
g1 x38.179846 y119.13755
g1 x38.179552 y119.139103
g1 x38.08664 y119.127669
g1 x38.086726 y119.126264
g1 x38.08664 y119.127669
g1 x37.990189 y119.127669
g1 z-3 f300
g1 x37.990102 y119.126264 f650
g1 x37.990189 y119.127669
g1 x37.897277 y119.139103
g1 x37.896982 y119.13755
g1 x37.897277 y119.139103
g1 x37.808574 y119.161959
g1 x37.808097 y119.160499
g1 x37.808574 y119.161959
g1 x37.719464 y119.197562
g1 x37.718899 y119.19636
g1 x37.719464 y119.197562
g1 x37.636584 y119.242742
g1 x37.63573 y119.241393
g1 x37.636584 y119.242742
g1 x37.56163 y119.297335
g1 x37.560698 y119.29621
g1 x37.56163 y119.297335
g1 x37.492844 y119.361963
g1 x37.491763 y119.360949
g1 x37.492844 y119.361963
g1 x37.432804 y119.434571
g1 x37.431626 y119.433715
g1 x37.432804 y119.434571
g1 x37.382556 y119.513591
g1 x37.381211 y119.512852
g1 x37.382556 y119.513591
g1 x37.342544 y119.598903
g1 x37.341197 y119.598371
g1 x37.342544 y119.598903
g1 x37.313429 y119.688457
g1 x37.311978 y119.688085
g1 x37.313429 y119.688457
g1 x37.295856 y119.78081
g1 x37.294404 y119.780627
g1 x37.295856 y119.78081
g1 x37.289916 y119.874657
g1 x37.288415 y119.874657
g1 x37.289916 y119.874657
g1 x37.295857 y119.968513
g1 x37.294406 y119.968697
g1 x37.295857 y119.968513
g1 x37.31343 y120.060876
g1 x37.311977 y120.061249
g1 x37.31343 y120.060876
g1 x37.342543 y120.150411
g1 x37.341197 y120.150944
g1 x37.342543 y120.150411
g1 x37.382566 y120.235754
g1 x37.381221 y120.236493
g1 x37.382566 y120.235754
g1 x37.432812 y120.314775
g1 x37.431634 y120.315632
g1 x37.432812 y120.314775
g1 x37.492845 y120.387375
g1 x37.491764 y120.388389
g1 x37.492845 y120.387375
g1 x37.560439 y120.450883
g1 x37.559444 y120.45209
g1 x37.560439 y120.450883
g1 x37.636571 y120.505829
g1 x37.635831 y120.506998
g1 x37.636571 y120.505829
g1 x37.721093 y120.552416
g1 x37.720479 y120.553713
g1 x37.721093 y120.552416
g1 x37.806775 y120.58665
g1 x37.806262 y120.588232
g1 x37.806775 y120.58665
g1 x37.897276 y120.609473
g1 x37.897027 y120.610787
g1 x37.897276 y120.609473
g1 x37.992172 y120.621659
g1 x37.992075 y120.623188
g1 x37.992172 y120.621659
g1 x38.084658 y120.621659
g1 x38.084756 y120.623188
g1 x38.084658 y120.621659
g1 x38.179554 y120.609473
g1 x38.179803 y120.610787
g1 x38.179554 y120.609473
g1 x38.270054 y120.58665
g1 x38.270568 y120.588232
g1 x38.270054 y120.58665
g1 x38.355737 y120.552416
g1 x38.356351 y120.553713
g1 x38.355737 y120.552416
g1 x38.44026 y120.505828
g1 x38.441 y120.506998
g1 x38.44026 y120.505828
g1 x38.516391 y120.450883
g1 x38.517387 y120.45209
g1 x38.516391 y120.450883
g1 x38.584097 y120.38727
g1 x38.58517 y120.388278
g1 x38.584097 y120.38727
g1 x38.644093 y120.314775
g1 x38.645288 y120.315644
g1 x38.644093 y120.314775
g1 x38.694192 y120.235906
g1 x38.695528 y120.23664
g1 x38.694192 y120.235906
g1 x38.734287 y120.150411
g1 x38.735633 y120.150944
g1 x38.734287 y120.150411
g1 x38.7634 y120.060876
g1 x38.764853 y120.061249
g1 x38.7634 y120.060876
g1 x38.780973 y119.968513
g1 x38.782424 y119.968697
g1 x38.780973 y119.968513
g1 x38.786914 y119.874659
g1 x38.788415 y119.874659
g1 x38.786914 y119.874659
g1 x38.780974 y119.780812
g1 x38.782425 y119.780629
g1 x38.780974 y119.780812
g1 x38.7634 y119.688457
g1 x38.764851 y119.688085
g1 x38.7634 y119.688457
g1 x38.734285 y119.598905
g1 x38.735632 y119.598373
g1 x38.734285 y119.598905
g1 x38.694201 y119.51344
g1 x38.695537 y119.512706
g1 x38.694201 y119.51344
g1 x38.644099 y119.434571
g1 x38.645293 y119.433703
g1 x38.644099 y119.434571
g1 x38.584096 y119.362068
g1 x38.585169 y119.36106
g1 x38.584096 y119.362068
g1 x38.515198 y119.297335
g1 x38.516131 y119.29621
g1 x38.515198 y119.297335
g1 x38.440245 y119.242743
g1 x38.441099 y119.241393
g1 x38.440245 y119.242743
g1 x38.357364 y119.197562
g1 x38.357929 y119.19636
g1 x38.357364 y119.197562
g1 x38.268253 y119.161959
g1 x38.268731 y119.160498
g1 x38.268253 y119.161959
g1 x38.179552 y119.139103
g1 x38.179846 y119.13755
g1 x38.179552 y119.139103
g1 x38.08664 y119.127669
g1 x38.086726 y119.126264
g1 x38.08664 y119.127669
g1 x37.990189 y119.127669
g0 z30
(Block-name: path4)
(Block-expand: 0)
(Block-enable: 0)

(End cutting path id: path4)


(Start cutting path id: path4)
(Change tool to Default tool)

G00 Z30.000000
G00 X141.867014 Y118.377658

G01 Z-1.000000 F100.0(Penetrate)
G01 X141.680014 Y118.400658 Z-1.000000 F400.000000
G01 X141.498014 Y118.447658 Z-1.000000
G01 X141.323004 Y118.517658 Z-1.000000
G01 X141.158014 Y118.607658 Z-1.000000
G01 X141.005004 Y118.718659 Z-1.000000
G01 X140.868014 Y118.847659 Z-1.000000
G01 X140.748015 Y118.992659 Z-1.000000
G01 X140.647005 Y119.151649 Z-1.000000
G01 X140.567005 Y119.322649 Z-1.000000
G01 X140.509005 Y119.501659 Z-1.000000
G01 X140.473005 Y119.686649 Z-1.000000
G01 X140.461005 Y119.874649 Z-1.000000
G01 X140.473005 Y120.062649 Z-1.000000
G01 X140.509005 Y120.247659 Z-1.000000
G01 X140.567005 Y120.426649 Z-1.000000
G01 X140.647005 Y120.597659 Z-1.000000
G01 X140.748015 Y120.756659 Z-1.000000
G01 X140.868015 Y120.901659 Z-1.000000
G01 X141.005005 Y121.030659 Z-1.000000
G01 X141.158015 Y121.140649 Z-1.000000
G01 X141.323005 Y121.231649 Z-1.000000
G01 X141.498015 Y121.301649 Z-1.000000
G01 X141.680015 Y121.347649 Z-1.000000
G01 X141.867015 Y121.371648 Z-1.000000
G01 X142.056015 Y121.371648 Z-1.000000
G01 X142.243015 Y121.347648 Z-1.000000
G01 X142.425005 Y121.301648 Z-1.000000
G01 X142.600015 Y121.231648 Z-1.000000
G01 X142.765005 Y121.140648 Z-1.000000
G01 X142.918015 Y121.030658 Z-1.000000
G01 X143.055015 Y120.901658 Z-1.000000
G01 X143.175015 Y120.756658 Z-1.000000
G01 X143.276015 Y120.597658 Z-1.000000
G01 X143.356015 Y120.426648 Z-1.000000
G01 X143.414015 Y120.247658 Z-1.000000
G01 X143.450015 Y120.062648 Z-1.000000
G01 X143.461015 Y119.874648 Z-1.000000
G01 X143.450015 Y119.686648 Z-1.000000
G01 X143.414015 Y119.501658 Z-1.000000
G01 X143.356015 Y119.322648 Z-1.000000
G01 X143.276015 Y119.151648 Z-1.000000
G01 X143.175015 Y118.992658 Z-1.000000
G01 X143.055015 Y118.847658 Z-1.000000
G01 X142.918015 Y118.718658 Z-1.000000
G01 X142.765005 Y118.607658 Z-1.000000
G01 X142.600014 Y118.517658 Z-1.000000
G01 X142.425004 Y118.447658 Z-1.000000
G01 X142.243014 Y118.400658 Z-1.000000
G01 X142.056014 Y118.377658 Z-1.000000
G01 X141.867014 Y118.377658 Z-1.000000
G00 Z30.000000
(Block-name: path4 [in,cut])
(Block-expand: 0)
(Block-enable: 0)
g0 x141.912964 y119.127658
g1 z0 f300
g1 x141.912878 y119.126254 f650
g1 x141.912964 y119.127658
g1 x141.820151 y119.139073
g1 x141.819853 y119.137506
g1 x141.820151 y119.139073
g1 x141.731997 y119.161839
g1 x141.73152 y119.160382
g1 x141.731997 y119.161839
g1 x141.642976 y119.197445
g1 x141.642411 y119.196244
g1 x141.642976 y119.197445
g1 x141.559442 y119.243012
g1 x141.558617 y119.241706
g1 x141.559442 y119.243012
g1 x141.484243 y119.297565
g1 x141.483266 y119.296384
g1 x141.484243 y119.297565
g1 x141.416104 y119.361729
g1 x141.415049 y119.36074
g1 x141.416104 y119.361729
g1 x141.35582 y119.434573
g1 x141.354627 y119.433705
g1 x141.35582 y119.434573
g1 x141.305906 y119.513139
g1 x141.304548 y119.512394
g1 x141.305906 y119.513139
g1 x141.266108 y119.598205
g1 x141.26476 y119.597674
g1 x141.266108 y119.598205
g1 x141.236507 y119.689566
g1 x141.235173 y119.689222
g1 x141.236507 y119.689566
g1 x141.218409 y119.782565
g1 x141.216872 y119.782367
g1 x141.218409 y119.782565
g1 x141.212531 y119.874649
g1 x141.211005 y119.874649
g1 x141.212531 y119.874649
g1 x141.218409 y119.966741
g1 x141.216873 y119.966939
g1 x141.218409 y119.966741
g1 x141.236507 y120.059747
g1 x141.235172 y120.060092
g1 x141.236507 y120.059747
g1 x141.266106 y120.151089
g1 x141.264758 y120.151621
g1 x141.266106 y120.151089
g1 x141.305915 y120.236186
g1 x141.304557 y120.236931
g1 x141.305915 y120.236186
g1 x141.355826 y120.314752
g1 x141.354632 y120.31562
g1 x141.355826 y120.314752
g1 x141.416104 y120.387588
g1 x141.415049 y120.388577
g1 x141.416104 y120.387588
g1 x141.483054 y120.450632
g1 x141.482011 y120.451897
g1 x141.483054 y120.450632
g1 x141.559432 y120.505536
g1 x141.558719 y120.506664
g1 x141.559432 y120.505536
g1 x141.644605 y120.552513
g1 x141.643992 y120.553809
g1 x141.644605 y120.552513
g1 x141.730194 y120.586747
g1 x141.729682 y120.588325
g1 x141.730194 y120.586747
g1 x141.820144 y120.609482
g1 x141.819892 y120.610808
g1 x141.820144 y120.609482
g1 x141.914945 y120.621648
g1 x141.914847 y120.623175
g1 x141.914945 y120.621648
g1 x142.008083 y120.621648
g1 x142.008181 y120.623175
g1 x142.008083 y120.621648
g1 x142.10288 y120.609482
g1 x142.103131 y120.610808
g1 x142.10288 y120.609482
g1 x142.192821 y120.586748
g1 x142.193334 y120.588326
g1 x142.192821 y120.586748
g1 x142.278415 y120.552512
g1 x142.279028 y120.553808
g1 x142.278415 y120.552512
g1 x142.363588 y120.505535
g1 x142.364301 y120.506663
g1 x142.363588 y120.505535
g1 x142.439978 y120.450623
g1 x142.441019 y120.451888
g1 x142.439978 y120.450623
g1 x142.506935 y120.387576
g1 x142.50799 y120.388566
g1 x142.506935 y120.387576
g1 x142.567193 y120.314764
g1 x142.568388 y120.315633
g1 x142.567193 y120.314764
g1 x142.617098 y120.2362
g1 x142.618455 y120.236944
g1 x142.617098 y120.2362
g1 x142.656914 y120.151088
g1 x142.658262 y120.15162
g1 x142.656914 y120.151088
g1 x142.686513 y120.059746
g1 x142.687848 y120.060091
g1 x142.686513 y120.059746
g1 x142.704229 y119.968699
g1 x142.705896 y119.968909
g1 x142.704229 y119.968699
g1 x142.709732 y119.874648
g1 x142.711015 y119.874648
g1 x142.709732 y119.874648
g1 x142.70423 y119.780605
g1 x142.705897 y119.780395
g1 x142.70423 y119.780605
g1 x142.686513 y119.689565
g1 x142.687847 y119.689221
g1 x142.686513 y119.689565
g1 x142.656912 y119.598204
g1 x142.65826 y119.597673
g1 x142.656912 y119.598204
g1 x142.617107 y119.513123
g1 x142.618464 y119.512378
g1 x142.617107 y119.513123
g1 x142.5672 y119.43456
g1 x142.568394 y119.433692
g1 x142.5672 y119.43456
g1 x142.506935 y119.36174
g1 x142.50799 y119.36075
g1 x142.506935 y119.36174
g1 x142.438788 y119.297573
g1 x142.439765 y119.296392
g1 x142.438788 y119.297573
g1 x142.363579 y119.243013
g1 x142.364404 y119.241707
g1 x142.363579 y119.243013
g1 x142.280043 y119.197445
g1 x142.280608 y119.196245
g1 x142.280043 y119.197445
g1 x142.191017 y119.161837
g1 x142.191494 y119.16038
g1 x142.191017 y119.161837
g1 x142.102872 y119.139073
g1 x142.10317 y119.137505
g1 x142.102872 y119.139073
g1 x142.010064 y119.127658
g1 x142.01015 y119.126254
g1 x142.010064 y119.127658
g1 x141.912964 y119.127658
g1 z-1.5 f300
g1 x141.912878 y119.126254 f650
g1 x141.912964 y119.127658
g1 x141.820151 y119.139073
g1 x141.819853 y119.137506
g1 x141.820151 y119.139073
g1 x141.731997 y119.161839
g1 x141.73152 y119.160382
g1 x141.731997 y119.161839
g1 x141.642976 y119.197445
g1 x141.642411 y119.196244
g1 x141.642976 y119.197445
g1 x141.559442 y119.243012
g1 x141.558617 y119.241706
g1 x141.559442 y119.243012
g1 x141.484243 y119.297565
g1 x141.483266 y119.296384
g1 x141.484243 y119.297565
g1 x141.416104 y119.361729
g1 x141.415049 y119.36074
g1 x141.416104 y119.361729
g1 x141.35582 y119.434573
g1 x141.354627 y119.433705
g1 x141.35582 y119.434573
g1 x141.305906 y119.513139
g1 x141.304548 y119.512394
g1 x141.305906 y119.513139
g1 x141.266108 y119.598205
g1 x141.26476 y119.597674
g1 x141.266108 y119.598205
g1 x141.236507 y119.689566
g1 x141.235173 y119.689222
g1 x141.236507 y119.689566
g1 x141.218409 y119.782565
g1 x141.216872 y119.782367
g1 x141.218409 y119.782565
g1 x141.212531 y119.874649
g1 x141.211005 y119.874649
g1 x141.212531 y119.874649
g1 x141.218409 y119.966741
g1 x141.216873 y119.966939
g1 x141.218409 y119.966741
g1 x141.236507 y120.059747
g1 x141.235172 y120.060092
g1 x141.236507 y120.059747
g1 x141.266106 y120.151089
g1 x141.264758 y120.151621
g1 x141.266106 y120.151089
g1 x141.305915 y120.236186
g1 x141.304557 y120.236931
g1 x141.305915 y120.236186
g1 x141.355826 y120.314752
g1 x141.354632 y120.31562
g1 x141.355826 y120.314752
g1 x141.416104 y120.387588
g1 x141.415049 y120.388577
g1 x141.416104 y120.387588
g1 x141.483054 y120.450632
g1 x141.482011 y120.451897
g1 x141.483054 y120.450632
g1 x141.559432 y120.505536
g1 x141.558719 y120.506664
g1 x141.559432 y120.505536
g1 x141.644605 y120.552513
g1 x141.643992 y120.553809
g1 x141.644605 y120.552513
g1 x141.730194 y120.586747
g1 x141.729682 y120.588325
g1 x141.730194 y120.586747
g1 x141.820144 y120.609482
g1 x141.819892 y120.610808
g1 x141.820144 y120.609482
g1 x141.914945 y120.621648
g1 x141.914847 y120.623175
g1 x141.914945 y120.621648
g1 x142.008083 y120.621648
g1 x142.008181 y120.623175
g1 x142.008083 y120.621648
g1 x142.10288 y120.609482
g1 x142.103131 y120.610808
g1 x142.10288 y120.609482
g1 x142.192821 y120.586748
g1 x142.193334 y120.588326
g1 x142.192821 y120.586748
g1 x142.278415 y120.552512
g1 x142.279028 y120.553808
g1 x142.278415 y120.552512
g1 x142.363588 y120.505535
g1 x142.364301 y120.506663
g1 x142.363588 y120.505535
g1 x142.439978 y120.450623
g1 x142.441019 y120.451888
g1 x142.439978 y120.450623
g1 x142.506935 y120.387576
g1 x142.50799 y120.388566
g1 x142.506935 y120.387576
g1 x142.567193 y120.314764
g1 x142.568388 y120.315633
g1 x142.567193 y120.314764
g1 x142.617098 y120.2362
g1 x142.618455 y120.236944
g1 x142.617098 y120.2362
g1 x142.656914 y120.151088
g1 x142.658262 y120.15162
g1 x142.656914 y120.151088
g1 x142.686513 y120.059746
g1 x142.687848 y120.060091
g1 x142.686513 y120.059746
g1 x142.704229 y119.968699
g1 x142.705896 y119.968909
g1 x142.704229 y119.968699
g1 x142.709732 y119.874648
g1 x142.711015 y119.874648
g1 x142.709732 y119.874648
g1 x142.70423 y119.780605
g1 x142.705897 y119.780395
g1 x142.70423 y119.780605
g1 x142.686513 y119.689565
g1 x142.687847 y119.689221
g1 x142.686513 y119.689565
g1 x142.656912 y119.598204
g1 x142.65826 y119.597673
g1 x142.656912 y119.598204
g1 x142.617107 y119.513123
g1 x142.618464 y119.512378
g1 x142.617107 y119.513123
g1 x142.5672 y119.43456
g1 x142.568394 y119.433692
g1 x142.5672 y119.43456
g1 x142.506935 y119.36174
g1 x142.50799 y119.36075
g1 x142.506935 y119.36174
g1 x142.438788 y119.297573
g1 x142.439765 y119.296392
g1 x142.438788 y119.297573
g1 x142.363579 y119.243013
g1 x142.364404 y119.241707
g1 x142.363579 y119.243013
g1 x142.280043 y119.197445
g1 x142.280608 y119.196245
g1 x142.280043 y119.197445
g1 x142.191017 y119.161837
g1 x142.191494 y119.16038
g1 x142.191017 y119.161837
g1 x142.102872 y119.139073
g1 x142.10317 y119.137505
g1 x142.102872 y119.139073
g1 x142.010064 y119.127658
g1 x142.01015 y119.126254
g1 x142.010064 y119.127658
g1 x141.912964 y119.127658
g1 z-3 f300
g1 x141.912878 y119.126254 f650
g1 x141.912964 y119.127658
g1 x141.820151 y119.139073
g1 x141.819853 y119.137506
g1 x141.820151 y119.139073
g1 x141.731997 y119.161839
g1 x141.73152 y119.160382
g1 x141.731997 y119.161839
g1 x141.642976 y119.197445
g1 x141.642411 y119.196244
g1 x141.642976 y119.197445
g1 x141.559442 y119.243012
g1 x141.558617 y119.241706
g1 x141.559442 y119.243012
g1 x141.484243 y119.297565
g1 x141.483266 y119.296384
g1 x141.484243 y119.297565
g1 x141.416104 y119.361729
g1 x141.415049 y119.36074
g1 x141.416104 y119.361729
g1 x141.35582 y119.434573
g1 x141.354627 y119.433705
g1 x141.35582 y119.434573
g1 x141.305906 y119.513139
g1 x141.304548 y119.512394
g1 x141.305906 y119.513139
g1 x141.266108 y119.598205
g1 x141.26476 y119.597674
g1 x141.266108 y119.598205
g1 x141.236507 y119.689566
g1 x141.235173 y119.689222
g1 x141.236507 y119.689566
g1 x141.218409 y119.782565
g1 x141.216872 y119.782367
g1 x141.218409 y119.782565
g1 x141.212531 y119.874649
g1 x141.211005 y119.874649
g1 x141.212531 y119.874649
g1 x141.218409 y119.966741
g1 x141.216873 y119.966939
g1 x141.218409 y119.966741
g1 x141.236507 y120.059747
g1 x141.235172 y120.060092
g1 x141.236507 y120.059747
g1 x141.266106 y120.151089
g1 x141.264758 y120.151621
g1 x141.266106 y120.151089
g1 x141.305915 y120.236186
g1 x141.304557 y120.236931
g1 x141.305915 y120.236186
g1 x141.355826 y120.314752
g1 x141.354632 y120.31562
g1 x141.355826 y120.314752
g1 x141.416104 y120.387588
g1 x141.415049 y120.388577
g1 x141.416104 y120.387588
g1 x141.483054 y120.450632
g1 x141.482011 y120.451897
g1 x141.483054 y120.450632
g1 x141.559432 y120.505536
g1 x141.558719 y120.506664
g1 x141.559432 y120.505536
g1 x141.644605 y120.552513
g1 x141.643992 y120.553809
g1 x141.644605 y120.552513
g1 x141.730194 y120.586747
g1 x141.729682 y120.588325
g1 x141.730194 y120.586747
g1 x141.820144 y120.609482
g1 x141.819892 y120.610808
g1 x141.820144 y120.609482
g1 x141.914945 y120.621648
g1 x141.914847 y120.623175
g1 x141.914945 y120.621648
g1 x142.008083 y120.621648
g1 x142.008181 y120.623175
g1 x142.008083 y120.621648
g1 x142.10288 y120.609482
g1 x142.103131 y120.610808
g1 x142.10288 y120.609482
g1 x142.192821 y120.586748
g1 x142.193334 y120.588326
g1 x142.192821 y120.586748
g1 x142.278415 y120.552512
g1 x142.279028 y120.553808
g1 x142.278415 y120.552512
g1 x142.363588 y120.505535
g1 x142.364301 y120.506663
g1 x142.363588 y120.505535
g1 x142.439978 y120.450623
g1 x142.441019 y120.451888
g1 x142.439978 y120.450623
g1 x142.506935 y120.387576
g1 x142.50799 y120.388566
g1 x142.506935 y120.387576
g1 x142.567193 y120.314764
g1 x142.568388 y120.315633
g1 x142.567193 y120.314764
g1 x142.617098 y120.2362
g1 x142.618455 y120.236944
g1 x142.617098 y120.2362
g1 x142.656914 y120.151088
g1 x142.658262 y120.15162
g1 x142.656914 y120.151088
g1 x142.686513 y120.059746
g1 x142.687848 y120.060091
g1 x142.686513 y120.059746
g1 x142.704229 y119.968699
g1 x142.705896 y119.968909
g1 x142.704229 y119.968699
g1 x142.709732 y119.874648
g1 x142.711015 y119.874648
g1 x142.709732 y119.874648
g1 x142.70423 y119.780605
g1 x142.705897 y119.780395
g1 x142.70423 y119.780605
g1 x142.686513 y119.689565
g1 x142.687847 y119.689221
g1 x142.686513 y119.689565
g1 x142.656912 y119.598204
g1 x142.65826 y119.597673
g1 x142.656912 y119.598204
g1 x142.617107 y119.513123
g1 x142.618464 y119.512378
g1 x142.617107 y119.513123
g1 x142.5672 y119.43456
g1 x142.568394 y119.433692
g1 x142.5672 y119.43456
g1 x142.506935 y119.36174
g1 x142.50799 y119.36075
g1 x142.506935 y119.36174
g1 x142.438788 y119.297573
g1 x142.439765 y119.296392
g1 x142.438788 y119.297573
g1 x142.363579 y119.243013
g1 x142.364404 y119.241707
g1 x142.363579 y119.243013
g1 x142.280043 y119.197445
g1 x142.280608 y119.196245
g1 x142.280043 y119.197445
g1 x142.191017 y119.161837
g1 x142.191494 y119.16038
g1 x142.191017 y119.161837
g1 x142.102872 y119.139073
g1 x142.10317 y119.137505
g1 x142.102872 y119.139073
g1 x142.010064 y119.127658
g1 x142.01015 y119.126254
g1 x142.010064 y119.127658
g1 x141.912964 y119.127658
g0 z30
(Block-name: path4)
(Block-expand: 0)
(Block-enable: 0)

(End cutting path id: path4)


(Start cutting path id: path4)
(Change tool to Default tool)

G00 Z30.000000
G00 X79.142812 Y87.735854

G01 Z-1.000000 F100.0(Penetrate)
G01 X79.073312 Y87.910964 Z-1.000000 F400.000000
G01 X79.026512 Y88.093454 Z-1.000000
G01 X79.002802 Y88.280454 Z-1.000000
G01 X79.002802 Y88.468764 Z-1.000000
G01 X79.026512 Y88.655654 Z-1.000000
G01 X79.073312 Y88.838164 Z-1.000000
G01 X79.142812 Y89.013264 Z-1.000000
G01 X79.233412 Y89.178254 Z-1.000000
G01 X79.344214 Y89.330654 Z-1.000000
G01 X79.473114 Y89.468064 Z-1.000000
G01 X79.618214 Y89.588054 Z-1.000000
G01 X79.777414 Y89.689154 Z-1.000000
G01 X79.947813 Y89.769254 Z-1.000000
G01 X80.127013 Y89.827554 Z-1.000000
G01 X80.311912 Y89.862754 Z-1.000000
G01 X80.499914 Y89.874454 Z-1.000000
G01 X80.687914 Y89.862754 Z-1.000000
G01 X80.873013 Y89.827554 Z-1.000000
G01 X81.052113 Y89.769254 Z-1.000000
G01 X81.222512 Y89.689154 Z-1.000000
G01 X81.381712 Y89.588054 Z-1.000000
G01 X81.526812 Y89.468064 Z-1.000000
G01 X81.655712 Y89.330654 Z-1.000000
G01 X81.766413 Y89.178254 Z-1.000000
G01 X81.857113 Y89.013264 Z-1.000000
G01 X81.926613 Y88.838164 Z-1.000000
G01 X81.973413 Y88.655654 Z-1.000000
G01 X81.996913 Y88.468764 Z-1.000000
G01 X81.996913 Y88.280454 Z-1.000000
G01 X81.973413 Y88.093454 Z-1.000000
G01 X81.926613 Y87.910964 Z-1.000000
G01 X81.857113 Y87.735854 Z-1.000000
G01 X81.766413 Y87.570864 Z-1.000000
G01 X81.655712 Y87.418464 Z-1.000000
G01 X81.526812 Y87.281154 Z-1.000000
G01 X81.381712 Y87.161064 Z-1.000000
G01 X81.222512 Y87.060164 Z-1.000000
G01 X81.052113 Y86.979964 Z-1.000000
G01 X80.873013 Y86.921764 Z-1.000000
G01 X80.687914 Y86.886364 Z-1.000000
G01 X80.499914 Y86.874664 Z-1.000000
G01 X80.311912 Y86.886364 Z-1.000000
G01 X80.127013 Y86.921764 Z-1.000000
G01 X79.947813 Y86.979964 Z-1.000000
G01 X79.777414 Y87.060164 Z-1.000000
G01 X79.618214 Y87.161064 Z-1.000000
G01 X79.473114 Y87.281154 Z-1.000000
G01 X79.344214 Y87.418464 Z-1.000000
G01 X79.233412 Y87.570864 Z-1.000000
G01 X79.142812 Y87.735854 Z-1.000000
G00 Z30.000000
(Block-name: path4 [in,cut])
(Block-expand: 0)
(Block-enable: 0)
g0 x79.82269 y88.055926
g1 z0 f300
g1 x79.821376 y88.055307 f650
g1 x79.82269 y88.055926
g1 x79.787976 y88.143389
g1 x79.786541 y88.142923
g1 x79.787976 y88.143389
g1 x79.764655 y88.234327
g1 x79.763216 y88.234052
g1 x79.764655 y88.234327
g1 x79.752802 y88.327811
g1 x79.751311 y88.327717
g1 x79.752802 y88.327811
g1 x79.752802 y88.421379
g1 x79.75131 y88.421473
g1 x79.752802 y88.421379
g1 x79.764649 y88.514764
g1 x79.763212 y88.515038
g1 x79.764649 y88.514764
g1 x79.787978 y88.605741
g1 x79.786542 y88.606208
g1 x79.787978 y88.605741
g1 x79.822686 y88.693186
g1 x79.821373 y88.693804
g1 x79.822686 y88.693186
g1 x79.867957 y88.775628
g1 x79.866689 y88.776433
g1 x79.867957 y88.775628
g1 x79.923273 y88.851711
g1 x79.922146 y88.852643
g1 x79.923273 y88.851711
g1 x79.987643 y88.92033
g1 x79.986616 y88.921424
g1 x79.987643 y88.92033
g1 x80.059952 y88.980126
g1 x80.059088 y88.981316
g1 x80.059952 y88.980126
g1 x80.13942 y89.030593
g1 x80.138698 y89.031907
g1 x80.13942 y89.030593
g1 x80.224436 y89.070556
g1 x80.223897 y89.071918
g1 x80.224436 y89.070556
g1 x80.313905 y89.099663
g1 x80.313531 y89.101117
g1 x80.313905 y89.099663
g1 x80.405707 y89.11714
g1 x80.405521 y89.118619
g1 x80.405707 y89.11714
g1 x80.499914 y89.123003
g1 x80.499914 y89.124454
g1 x80.499914 y89.123003
g1 x80.594194 y89.117136
g1 x80.594379 y89.118609
g1 x80.594194 y89.117136
g1 x80.686132 y89.099652
g1 x80.686507 y89.101114
g1 x80.686132 y89.099652
g1 x80.775434 y89.070583
g1 x80.775972 y89.071941
g1 x80.775434 y89.070583
g1 x80.860506 y89.030593
g1 x80.861228 y89.031907
g1 x80.860506 y89.030593
g1 x80.939974 y88.980126
g1 x80.940838 y88.981316
g1 x80.939974 y88.980126
g1 x81.012283 y88.92033
g1 x81.01331 y88.921424
g1 x81.012283 y88.92033
g1 x81.076541 y88.85183
g1 x81.077676 y88.852769
g1 x81.076541 y88.85183
g1 x81.131892 y88.775629
g1 x81.133143 y88.776423
g1 x81.131892 y88.775629
g1 x81.177303 y88.693023
g1 x81.178626 y88.693646
g1 x81.177303 y88.693023
g1 x81.211947 y88.605741
g1 x81.213383 y88.606208
g1 x81.211947 y88.605741
g1 x81.235172 y88.515167
g1 x81.236635 y88.515446
g1 x81.235172 y88.515167
g1 x81.246913 y88.421796
g1 x81.248379 y88.421887
g1 x81.246913 y88.421796
g1 x81.246913 y88.327395
g1 x81.248378 y88.327303
g1 x81.246913 y88.327395
g1 x81.235167 y88.233924
g1 x81.236632 y88.233645
g1 x81.235167 y88.233924
g1 x81.211949 y88.143389
g1 x81.213384 y88.142923
g1 x81.211949 y88.143389
g1 x81.1773 y88.056089
g1 x81.178623 y88.055465
g1 x81.1773 y88.056089
g1 x81.131892 y87.973489
g1 x81.133143 y87.972695
g1 x81.131892 y87.973489
g1 x81.076621 y87.897399
g1 x81.077763 y87.896454
g1 x81.076621 y87.897399
g1 x81.012283 y87.828862
g1 x81.013297 y87.827783
g1 x81.012283 y87.828862
g1 x80.940103 y87.769124
g1 x80.940986 y87.767909
g1 x80.940103 y87.769124
g1 x80.860658 y87.718772
g1 x80.861364 y87.717486
g1 x80.860658 y87.718772
g1 x80.775434 y87.67866
g1 x80.77598 y87.677281
g1 x80.775434 y87.67866
g1 x80.685945 y87.64958
g1 x80.686312 y87.648154
g1 x80.685945 y87.64958
g1 x80.593802 y87.631958
g1 x80.593991 y87.63046
g1 x80.593802 y87.631958
g1 x80.499914 y87.626115
g1 x80.499914 y87.624664
g1 x80.499914 y87.626115
g1 x80.406099 y87.631953
g1 x80.405909 y87.63045
g1 x80.406099 y87.631953
g1 x80.314092 y87.649569
g1 x80.313727 y87.648151
g1 x80.314092 y87.649569
g1 x80.224436 y87.678687
g1 x80.223889 y87.677303
g1 x80.224436 y87.678687
g1 x80.139268 y87.718772
g1 x80.138562 y87.717486
g1 x80.139268 y87.718772
g1 x80.059823 y87.769124
g1 x80.05894 y87.767909
g1 x80.059823 y87.769124
g1 x79.987643 y87.828862
g1 x79.986629 y87.827783
g1 x79.987643 y87.828862
g1 x79.923193 y87.897518
g1 x79.922059 y87.89658
g1 x79.923193 y87.897518
g1 x79.867957 y87.97349
g1 x79.866689 y87.972685
g1 x79.867957 y87.97349
g1 x79.82269 y88.055926
g1 z-1.5 f300
g1 x79.821376 y88.055307 f650
g1 x79.82269 y88.055926
g1 x79.787976 y88.143389
g1 x79.786541 y88.142923
g1 x79.787976 y88.143389
g1 x79.764655 y88.234327
g1 x79.763216 y88.234052
g1 x79.764655 y88.234327
g1 x79.752802 y88.327811
g1 x79.751311 y88.327717
g1 x79.752802 y88.327811
g1 x79.752802 y88.421379
g1 x79.75131 y88.421473
g1 x79.752802 y88.421379
g1 x79.764649 y88.514764
g1 x79.763212 y88.515038
g1 x79.764649 y88.514764
g1 x79.787978 y88.605741
g1 x79.786542 y88.606208
g1 x79.787978 y88.605741
g1 x79.822686 y88.693186
g1 x79.821373 y88.693804
g1 x79.822686 y88.693186
g1 x79.867957 y88.775628
g1 x79.866689 y88.776433
g1 x79.867957 y88.775628
g1 x79.923273 y88.851711
g1 x79.922146 y88.852643
g1 x79.923273 y88.851711
g1 x79.987643 y88.92033
g1 x79.986616 y88.921424
g1 x79.987643 y88.92033
g1 x80.059952 y88.980126
g1 x80.059088 y88.981316
g1 x80.059952 y88.980126
g1 x80.13942 y89.030593
g1 x80.138698 y89.031907
g1 x80.13942 y89.030593
g1 x80.224436 y89.070556
g1 x80.223897 y89.071918
g1 x80.224436 y89.070556
g1 x80.313905 y89.099663
g1 x80.313531 y89.101117
g1 x80.313905 y89.099663
g1 x80.405707 y89.11714
g1 x80.405521 y89.118619
g1 x80.405707 y89.11714
g1 x80.499914 y89.123003
g1 x80.499914 y89.124454
g1 x80.499914 y89.123003
g1 x80.594194 y89.117136
g1 x80.594379 y89.118609
g1 x80.594194 y89.117136
g1 x80.686132 y89.099652
g1 x80.686507 y89.101114
g1 x80.686132 y89.099652
g1 x80.775434 y89.070583
g1 x80.775972 y89.071941
g1 x80.775434 y89.070583
g1 x80.860506 y89.030593
g1 x80.861228 y89.031907
g1 x80.860506 y89.030593
g1 x80.939974 y88.980126
g1 x80.940838 y88.981316
g1 x80.939974 y88.980126
g1 x81.012283 y88.92033
g1 x81.01331 y88.921424
g1 x81.012283 y88.92033
g1 x81.076541 y88.85183
g1 x81.077676 y88.852769
g1 x81.076541 y88.85183
g1 x81.131892 y88.775629
g1 x81.133143 y88.776423
g1 x81.131892 y88.775629
g1 x81.177303 y88.693023
g1 x81.178626 y88.693646
g1 x81.177303 y88.693023
g1 x81.211947 y88.605741
g1 x81.213383 y88.606208
g1 x81.211947 y88.605741
g1 x81.235172 y88.515167
g1 x81.236635 y88.515446
g1 x81.235172 y88.515167
g1 x81.246913 y88.421796
g1 x81.248379 y88.421887
g1 x81.246913 y88.421796
g1 x81.246913 y88.327395
g1 x81.248378 y88.327303
g1 x81.246913 y88.327395
g1 x81.235167 y88.233924
g1 x81.236632 y88.233645
g1 x81.235167 y88.233924
g1 x81.211949 y88.143389
g1 x81.213384 y88.142923
g1 x81.211949 y88.143389
g1 x81.1773 y88.056089
g1 x81.178623 y88.055465
g1 x81.1773 y88.056089
g1 x81.131892 y87.973489
g1 x81.133143 y87.972695
g1 x81.131892 y87.973489
g1 x81.076621 y87.897399
g1 x81.077763 y87.896454
g1 x81.076621 y87.897399
g1 x81.012283 y87.828862
g1 x81.013297 y87.827783
g1 x81.012283 y87.828862
g1 x80.940103 y87.769124
g1 x80.940986 y87.767909
g1 x80.940103 y87.769124
g1 x80.860658 y87.718772
g1 x80.861364 y87.717486
g1 x80.860658 y87.718772
g1 x80.775434 y87.67866
g1 x80.77598 y87.677281
g1 x80.775434 y87.67866
g1 x80.685945 y87.64958
g1 x80.686312 y87.648154
g1 x80.685945 y87.64958
g1 x80.593802 y87.631958
g1 x80.593991 y87.63046
g1 x80.593802 y87.631958
g1 x80.499914 y87.626115
g1 x80.499914 y87.624664
g1 x80.499914 y87.626115
g1 x80.406099 y87.631953
g1 x80.405909 y87.63045
g1 x80.406099 y87.631953
g1 x80.314092 y87.649569
g1 x80.313727 y87.648151
g1 x80.314092 y87.649569
g1 x80.224436 y87.678687
g1 x80.223889 y87.677303
g1 x80.224436 y87.678687
g1 x80.139268 y87.718772
g1 x80.138562 y87.717486
g1 x80.139268 y87.718772
g1 x80.059823 y87.769124
g1 x80.05894 y87.767909
g1 x80.059823 y87.769124
g1 x79.987643 y87.828862
g1 x79.986629 y87.827783
g1 x79.987643 y87.828862
g1 x79.923193 y87.897518
g1 x79.922059 y87.89658
g1 x79.923193 y87.897518
g1 x79.867957 y87.97349
g1 x79.866689 y87.972685
g1 x79.867957 y87.97349
g1 x79.82269 y88.055926
g1 z-3 f300
g1 x79.821376 y88.055307 f650
g1 x79.82269 y88.055926
g1 x79.787976 y88.143389
g1 x79.786541 y88.142923
g1 x79.787976 y88.143389
g1 x79.764655 y88.234327
g1 x79.763216 y88.234052
g1 x79.764655 y88.234327
g1 x79.752802 y88.327811
g1 x79.751311 y88.327717
g1 x79.752802 y88.327811
g1 x79.752802 y88.421379
g1 x79.75131 y88.421473
g1 x79.752802 y88.421379
g1 x79.764649 y88.514764
g1 x79.763212 y88.515038
g1 x79.764649 y88.514764
g1 x79.787978 y88.605741
g1 x79.786542 y88.606208
g1 x79.787978 y88.605741
g1 x79.822686 y88.693186
g1 x79.821373 y88.693804
g1 x79.822686 y88.693186
g1 x79.867957 y88.775628
g1 x79.866689 y88.776433
g1 x79.867957 y88.775628
g1 x79.923273 y88.851711
g1 x79.922146 y88.852643
g1 x79.923273 y88.851711
g1 x79.987643 y88.92033
g1 x79.986616 y88.921424
g1 x79.987643 y88.92033
g1 x80.059952 y88.980126
g1 x80.059088 y88.981316
g1 x80.059952 y88.980126
g1 x80.13942 y89.030593
g1 x80.138698 y89.031907
g1 x80.13942 y89.030593
g1 x80.224436 y89.070556
g1 x80.223897 y89.071918
g1 x80.224436 y89.070556
g1 x80.313905 y89.099663
g1 x80.313531 y89.101117
g1 x80.313905 y89.099663
g1 x80.405707 y89.11714
g1 x80.405521 y89.118619
g1 x80.405707 y89.11714
g1 x80.499914 y89.123003
g1 x80.499914 y89.124454
g1 x80.499914 y89.123003
g1 x80.594194 y89.117136
g1 x80.594379 y89.118609
g1 x80.594194 y89.117136
g1 x80.686132 y89.099652
g1 x80.686507 y89.101114
g1 x80.686132 y89.099652
g1 x80.775434 y89.070583
g1 x80.775972 y89.071941
g1 x80.775434 y89.070583
g1 x80.860506 y89.030593
g1 x80.861228 y89.031907
g1 x80.860506 y89.030593
g1 x80.939974 y88.980126
g1 x80.940838 y88.981316
g1 x80.939974 y88.980126
g1 x81.012283 y88.92033
g1 x81.01331 y88.921424
g1 x81.012283 y88.92033
g1 x81.076541 y88.85183
g1 x81.077676 y88.852769
g1 x81.076541 y88.85183
g1 x81.131892 y88.775629
g1 x81.133143 y88.776423
g1 x81.131892 y88.775629
g1 x81.177303 y88.693023
g1 x81.178626 y88.693646
g1 x81.177303 y88.693023
g1 x81.211947 y88.605741
g1 x81.213383 y88.606208
g1 x81.211947 y88.605741
g1 x81.235172 y88.515167
g1 x81.236635 y88.515446
g1 x81.235172 y88.515167
g1 x81.246913 y88.421796
g1 x81.248379 y88.421887
g1 x81.246913 y88.421796
g1 x81.246913 y88.327395
g1 x81.248378 y88.327303
g1 x81.246913 y88.327395
g1 x81.235167 y88.233924
g1 x81.236632 y88.233645
g1 x81.235167 y88.233924
g1 x81.211949 y88.143389
g1 x81.213384 y88.142923
g1 x81.211949 y88.143389
g1 x81.1773 y88.056089
g1 x81.178623 y88.055465
g1 x81.1773 y88.056089
g1 x81.131892 y87.973489
g1 x81.133143 y87.972695
g1 x81.131892 y87.973489
g1 x81.076621 y87.897399
g1 x81.077763 y87.896454
g1 x81.076621 y87.897399
g1 x81.012283 y87.828862
g1 x81.013297 y87.827783
g1 x81.012283 y87.828862
g1 x80.940103 y87.769124
g1 x80.940986 y87.767909
g1 x80.940103 y87.769124
g1 x80.860658 y87.718772
g1 x80.861364 y87.717486
g1 x80.860658 y87.718772
g1 x80.775434 y87.67866
g1 x80.77598 y87.677281
g1 x80.775434 y87.67866
g1 x80.685945 y87.64958
g1 x80.686312 y87.648154
g1 x80.685945 y87.64958
g1 x80.593802 y87.631958
g1 x80.593991 y87.63046
g1 x80.593802 y87.631958
g1 x80.499914 y87.626115
g1 x80.499914 y87.624664
g1 x80.499914 y87.626115
g1 x80.406099 y87.631953
g1 x80.405909 y87.63045
g1 x80.406099 y87.631953
g1 x80.314092 y87.649569
g1 x80.313727 y87.648151
g1 x80.314092 y87.649569
g1 x80.224436 y87.678687
g1 x80.223889 y87.677303
g1 x80.224436 y87.678687
g1 x80.139268 y87.718772
g1 x80.138562 y87.717486
g1 x80.139268 y87.718772
g1 x80.059823 y87.769124
g1 x80.05894 y87.767909
g1 x80.059823 y87.769124
g1 x79.987643 y87.828862
g1 x79.986629 y87.827783
g1 x79.987643 y87.828862
g1 x79.923193 y87.897518
g1 x79.922059 y87.89658
g1 x79.923193 y87.897518
g1 x79.867957 y87.97349
g1 x79.866689 y87.972685
g1 x79.867957 y87.97349
g1 x79.82269 y88.055926
g0 z30
(Block-name: path4)
(Block-expand: 0)
(Block-enable: 0)

(End cutting path id: path4)


(Start cutting path id: path4)
(Change tool to Default tool)

G00 Z30.000000
G00 X124.377010 Y77.421659

G01 Z-1.000000 F100.0(Penetrate)
G01 X124.027010 Y77.560059 Z-1.000000 F400.000000
G01 X123.723010 Y77.781159 Z-1.000000
G01 X123.483000 Y78.070959 Z-1.000000
G01 X123.323010 Y78.411059 Z-1.000000
G01 X123.253010 Y78.780459 Z-1.000000
G01 X123.277010 Y79.155659 Z-1.000000
G01 X123.393010 Y79.513159 Z-1.000000
G01 X123.594010 Y79.830759 Z-1.000000
G01 X123.868010 Y80.088159 Z-1.000000
G01 X124.198010 Y80.269259 Z-1.000000
G01 X124.562010 Y80.362759 Z-1.000000
G01 X124.938010 Y80.362759 Z-1.000000
G01 X125.302010 Y80.269259 Z-1.000000
G01 X125.632010 Y80.088159 Z-1.000000
G01 X125.906010 Y79.830759 Z-1.000000
G01 X126.107010 Y79.513159 Z-1.000000
G01 X126.223010 Y79.155659 Z-1.000000
G01 X126.247010 Y78.780459 Z-1.000000
G01 X126.176010 Y78.411059 Z-1.000000
G01 X126.016010 Y78.070959 Z-1.000000
G01 X125.777010 Y77.781159 Z-1.000000
G01 X125.473010 Y77.560059 Z-1.000000
G01 X125.123010 Y77.421659 Z-1.000000
G01 X124.750010 Y77.374659 Z-1.000000
G01 X124.377010 Y77.421659 Z-1.000000
G00 Z30.000000
(Block-name: path4 [in,cut])
(Block-expand: 0)
(Block-enable: 0)
g0 x124.564734 y78.153935
g1 z0 f300
g1 x124.563255 y78.148166 f650
g1 x124.564734 y78.153935
g1 x124.39124 y78.22254
g1 x124.388347 y78.217277
g1 x124.39124 y78.22254
g1 x124.240453 y78.332207
g1 x124.236407 y78.327898
g1 x124.240453 y78.332207
g1 x124.121219 y78.476177
g1 x124.11616 y78.472965
g1 x124.121219 y78.476177
g1 x124.042178 y78.644199
g1 x124.036457 y78.642345
g1 x124.042178 y78.644199
g1 x124.007524 y78.827071
g1 x124.001583 y78.826704
g1 x124.007524 y78.827071
g1 x124.019467 y79.013779
g1 x124.01368 y79.014885
g1 x124.019467 y79.013779
g1 x124.077253 y79.191868
g1 x124.071893 y79.194384
g1 x124.077253 y79.191868
g1 x124.176873 y79.349277
g1 x124.172238 y79.353106
g1 x124.176873 y79.349277
g1 x124.312209 y79.476414
g1 x124.308681 y79.481274
g1 x124.312209 y79.476414
g1 x124.476059 y79.566333
g1 x124.473881 y79.571839
g1 x124.476059 y79.566333
g1 x124.656797 y79.612759
g1 x124.656049 y79.618678
g1 x124.656797 y79.612759
g1 x124.843223 y79.612759
g1 x124.843971 y79.618678
g1 x124.843223 y79.612759
g1 x125.023961 y79.566333
g1 x125.026139 y79.571839
g1 x125.023961 y79.566333
g1 x125.187811 y79.476414
g1 x125.191339 y79.481274
g1 x125.187811 y79.476414
g1 x125.323147 y79.349277
g1 x125.327782 y79.353106
g1 x125.323147 y79.349277
g1 x125.422767 y79.191868
g1 x125.428127 y79.194384
g1 x125.422767 y79.191868
g1 x125.480553 y79.013779
g1 x125.48634 y79.014885
g1 x125.480553 y79.013779
g1 x125.492432 y78.828064
g1 x125.498498 y78.827681
g1 x125.492432 y78.828064
g1 x125.457267 y78.645109
g1 x125.462868 y78.643285
g1 x125.457267 y78.645109
g1 x125.377461 y78.47547
g1 x125.382439 y78.472316
g1 x125.377461 y78.47547
g1 x125.258928 y78.331743
g1 x125.263047 y78.327366
g1 x125.258928 y78.331743
g1 x125.10878 y78.22254
g1 x125.111673 y78.217277
g1 x125.10878 y78.22254
g1 x124.935286 y78.153935
g1 x124.936765 y78.148166
g1 x124.935286 y78.153935
g1 x124.75001 y78.13059
g1 x124.75001 y78.124659
g1 x124.75001 y78.13059
g1 x124.564734 y78.153935
g1 z-1.5 f300
g1 x124.563255 y78.148166 f650
g1 x124.564734 y78.153935
g1 x124.39124 y78.22254
g1 x124.388347 y78.217277
g1 x124.39124 y78.22254
g1 x124.240453 y78.332207
g1 x124.236407 y78.327898
g1 x124.240453 y78.332207
g1 x124.121219 y78.476177
g1 x124.11616 y78.472965
g1 x124.121219 y78.476177
g1 x124.042178 y78.644199
g1 x124.036457 y78.642345
g1 x124.042178 y78.644199
g1 x124.007524 y78.827071
g1 x124.001583 y78.826704
g1 x124.007524 y78.827071
g1 x124.019467 y79.013779
g1 x124.01368 y79.014885
g1 x124.019467 y79.013779
g1 x124.077253 y79.191868
g1 x124.071893 y79.194384
g1 x124.077253 y79.191868
g1 x124.176873 y79.349277
g1 x124.172238 y79.353106
g1 x124.176873 y79.349277
g1 x124.312209 y79.476414
g1 x124.308681 y79.481274
g1 x124.312209 y79.476414
g1 x124.476059 y79.566333
g1 x124.473881 y79.571839
g1 x124.476059 y79.566333
g1 x124.656797 y79.612759
g1 x124.656049 y79.618678
g1 x124.656797 y79.612759
g1 x124.843223 y79.612759
g1 x124.843971 y79.618678
g1 x124.843223 y79.612759
g1 x125.023961 y79.566333
g1 x125.026139 y79.571839
g1 x125.023961 y79.566333
g1 x125.187811 y79.476414
g1 x125.191339 y79.481274
g1 x125.187811 y79.476414
g1 x125.323147 y79.349277
g1 x125.327782 y79.353106
g1 x125.323147 y79.349277
g1 x125.422767 y79.191868
g1 x125.428127 y79.194384
g1 x125.422767 y79.191868
g1 x125.480553 y79.013779
g1 x125.48634 y79.014885
g1 x125.480553 y79.013779
g1 x125.492432 y78.828064
g1 x125.498498 y78.827681
g1 x125.492432 y78.828064
g1 x125.457267 y78.645109
g1 x125.462868 y78.643285
g1 x125.457267 y78.645109
g1 x125.377461 y78.47547
g1 x125.382439 y78.472316
g1 x125.377461 y78.47547
g1 x125.258928 y78.331743
g1 x125.263047 y78.327366
g1 x125.258928 y78.331743
g1 x125.10878 y78.22254
g1 x125.111673 y78.217277
g1 x125.10878 y78.22254
g1 x124.935286 y78.153935
g1 x124.936765 y78.148166
g1 x124.935286 y78.153935
g1 x124.75001 y78.13059
g1 x124.75001 y78.124659
g1 x124.75001 y78.13059
g1 x124.564734 y78.153935
g1 z-3 f300
g1 x124.563255 y78.148166 f650
g1 x124.564734 y78.153935
g1 x124.39124 y78.22254
g1 x124.388347 y78.217277
g1 x124.39124 y78.22254
g1 x124.240453 y78.332207
g1 x124.236407 y78.327898
g1 x124.240453 y78.332207
g1 x124.121219 y78.476177
g1 x124.11616 y78.472965
g1 x124.121219 y78.476177
g1 x124.042178 y78.644199
g1 x124.036457 y78.642345
g1 x124.042178 y78.644199
g1 x124.007524 y78.827071
g1 x124.001583 y78.826704
g1 x124.007524 y78.827071
g1 x124.019467 y79.013779
g1 x124.01368 y79.014885
g1 x124.019467 y79.013779
g1 x124.077253 y79.191868
g1 x124.071893 y79.194384
g1 x124.077253 y79.191868
g1 x124.176873 y79.349277
g1 x124.172238 y79.353106
g1 x124.176873 y79.349277
g1 x124.312209 y79.476414
g1 x124.308681 y79.481274
g1 x124.312209 y79.476414
g1 x124.476059 y79.566333
g1 x124.473881 y79.571839
g1 x124.476059 y79.566333
g1 x124.656797 y79.612759
g1 x124.656049 y79.618678
g1 x124.656797 y79.612759
g1 x124.843223 y79.612759
g1 x124.843971 y79.618678
g1 x124.843223 y79.612759
g1 x125.023961 y79.566333
g1 x125.026139 y79.571839
g1 x125.023961 y79.566333
g1 x125.187811 y79.476414
g1 x125.191339 y79.481274
g1 x125.187811 y79.476414
g1 x125.323147 y79.349277
g1 x125.327782 y79.353106
g1 x125.323147 y79.349277
g1 x125.422767 y79.191868
g1 x125.428127 y79.194384
g1 x125.422767 y79.191868
g1 x125.480553 y79.013779
g1 x125.48634 y79.014885
g1 x125.480553 y79.013779
g1 x125.492432 y78.828064
g1 x125.498498 y78.827681
g1 x125.492432 y78.828064
g1 x125.457267 y78.645109
g1 x125.462868 y78.643285
g1 x125.457267 y78.645109
g1 x125.377461 y78.47547
g1 x125.382439 y78.472316
g1 x125.377461 y78.47547
g1 x125.258928 y78.331743
g1 x125.263047 y78.327366
g1 x125.258928 y78.331743
g1 x125.10878 y78.22254
g1 x125.111673 y78.217277
g1 x125.10878 y78.22254
g1 x124.935286 y78.153935
g1 x124.936765 y78.148166
g1 x124.935286 y78.153935
g1 x124.75001 y78.13059
g1 x124.75001 y78.124659
g1 x124.75001 y78.13059
g1 x124.564734 y78.153935
g0 z30
(Block-name: path4)
(Block-expand: 0)
(Block-enable: 0)

(End cutting path id: path4)


(Start cutting path id: path4)
(Change tool to Default tool)

G00 Z30.000000
G00 X96.377011 Y77.421662

G01 Z-1.000000 F100.0(Penetrate)
G01 X96.027211 Y77.560062 Z-1.000000 F400.000000
G01 X95.723112 Y77.781162 Z-1.000000
G01 X95.483413 Y78.070962 Z-1.000000
G01 X95.323311 Y78.411062 Z-1.000000
G01 X95.252811 Y78.780462 Z-1.000000
G01 X95.276521 Y79.155662 Z-1.000000
G01 X95.392821 Y79.513162 Z-1.000000
G01 X95.594222 Y79.830762 Z-1.000000
G01 X95.868222 Y80.088162 Z-1.000000
G01 X96.197821 Y80.269262 Z-1.000000
G01 X96.561922 Y80.362762 Z-1.000000
G01 X96.937922 Y80.362762 Z-1.000000
G01 X97.302121 Y80.269262 Z-1.000000
G01 X97.631522 Y80.088162 Z-1.000000
G01 X97.905723 Y79.830762 Z-1.000000
G01 X98.107121 Y79.513162 Z-1.000000
G01 X98.223421 Y79.155662 Z-1.000000
G01 X98.246911 Y78.780462 Z-1.000000
G01 X98.176611 Y78.411062 Z-1.000000
G01 X98.016411 Y78.070962 Z-1.000000
G01 X97.776810 Y77.781162 Z-1.000000
G01 X97.472510 Y77.560062 Z-1.000000
G01 X97.123011 Y77.421662 Z-1.000000
G01 X96.749912 Y77.374662 Z-1.000000
G01 X96.377011 Y77.421662 Z-1.000000
G00 Z30.000000
(Block-name: path4 [in,cut])
(Block-expand: 0)
(Block-enable: 0)
g0 x96.56482 y78.153924
g1 z0 f300
g1 x96.563339 y78.148148 f650
g1 x96.56482 y78.153924
g1 x96.391446 y78.222521
g1 x96.388561 y78.217273
g1 x96.391446 y78.222521
g1 x96.240714 y78.332113
g1 x96.236641 y78.327777
g1 x96.240714 y78.332113
g1 x96.12167 y78.476039
g1 x96.116647 y78.472851
g1 x96.12167 y78.476039
g1 x96.042248 y78.644753
g1 x96.036576 y78.64291
g1 x96.042248 y78.644753
g1 x96.007302 y78.827858
g1 x96.001336 y78.827484
g1 x96.007302 y78.827858
g1 x96.019051 y79.013773
g1 x96.013192 y79.014892
g1 x96.019051 y79.013773
g1 x96.076803 y79.1913
g1 x96.071439 y79.193824
g1 x96.076803 y79.1913
g1 x96.176834 y79.349045
g1 x96.172235 y79.352848
g1 x96.176834 y79.349045
g1 x96.312564 y79.476551
g1 x96.309048 y79.48139
g1 x96.312564 y79.476551
g1 x96.476037 y79.566372
g1 x96.473848 y79.571903
g1 x96.476037 y79.566372
g1 x96.656684 y79.612762
g1 x96.655936 y79.618678
g1 x96.656684 y79.612762
g1 x96.843185 y79.612762
g1 x96.843932 y79.618675
g1 x96.843185 y79.612762
g1 x97.023833 y79.566385
g1 x97.026029 y79.571929
g1 x97.023833 y79.566385
g1 x97.187232 y79.47655
g1 x97.19073 y79.481365
g1 x97.187232 y79.47655
g1 x97.323183 y79.348929
g1 x97.327796 y79.352744
g1 x97.323183 y79.348929
g1 x97.423138 y79.191302
g1 x97.428501 y79.193826
g1 x97.423138 y79.191302
g1 x97.480823 y79.013984
g1 x97.486709 y79.015107
g1 x97.480823 y79.013984
g1 x97.492474 y78.827878
g1 x97.498388 y78.827507
g1 x97.492474 y78.827878
g1 x97.457606 y78.644662
g1 x97.463313 y78.642808
g1 x97.457606 y78.644662
g1 x97.378179 y78.476039
g1 x97.383184 y78.472862
g1 x97.378179 y78.476039
g1 x97.259222 y78.33216
g1 x97.263312 y78.327806
g1 x97.259222 y78.33216
g1 x97.108295 y78.222499
g1 x97.111166 y78.217276
g1 x97.108295 y78.222499
g1 x96.935114 y78.15392
g1 x96.9366 y78.148127
g1 x96.935114 y78.15392
g1 x96.749937 y78.130593
g1 x96.749937 y78.124662
g1 x96.749937 y78.130593
g1 x96.56482 y78.153924
g1 z-1.5 f300
g1 x96.563339 y78.148148 f650
g1 x96.56482 y78.153924
g1 x96.391446 y78.222521
g1 x96.388561 y78.217273
g1 x96.391446 y78.222521
g1 x96.240714 y78.332113
g1 x96.236641 y78.327777
g1 x96.240714 y78.332113
g1 x96.12167 y78.476039
g1 x96.116647 y78.472851
g1 x96.12167 y78.476039
g1 x96.042248 y78.644753
g1 x96.036576 y78.64291
g1 x96.042248 y78.644753
g1 x96.007302 y78.827858
g1 x96.001336 y78.827484
g1 x96.007302 y78.827858
g1 x96.019051 y79.013773
g1 x96.013192 y79.014892
g1 x96.019051 y79.013773
g1 x96.076803 y79.1913
g1 x96.071439 y79.193824
g1 x96.076803 y79.1913
g1 x96.176834 y79.349045
g1 x96.172235 y79.352848
g1 x96.176834 y79.349045
g1 x96.312564 y79.476551
g1 x96.309048 y79.48139
g1 x96.312564 y79.476551
g1 x96.476037 y79.566372
g1 x96.473848 y79.571903
g1 x96.476037 y79.566372
g1 x96.656684 y79.612762
g1 x96.655936 y79.618678
g1 x96.656684 y79.612762
g1 x96.843185 y79.612762
g1 x96.843932 y79.618675
g1 x96.843185 y79.612762
g1 x97.023833 y79.566385
g1 x97.026029 y79.571929
g1 x97.023833 y79.566385
g1 x97.187232 y79.47655
g1 x97.19073 y79.481365
g1 x97.187232 y79.47655
g1 x97.323183 y79.348929
g1 x97.327796 y79.352744
g1 x97.323183 y79.348929
g1 x97.423138 y79.191302
g1 x97.428501 y79.193826
g1 x97.423138 y79.191302
g1 x97.480823 y79.013984
g1 x97.486709 y79.015107
g1 x97.480823 y79.013984
g1 x97.492474 y78.827878
g1 x97.498388 y78.827507
g1 x97.492474 y78.827878
g1 x97.457606 y78.644662
g1 x97.463313 y78.642808
g1 x97.457606 y78.644662
g1 x97.378179 y78.476039
g1 x97.383184 y78.472862
g1 x97.378179 y78.476039
g1 x97.259222 y78.33216
g1 x97.263312 y78.327806
g1 x97.259222 y78.33216
g1 x97.108295 y78.222499
g1 x97.111166 y78.217276
g1 x97.108295 y78.222499
g1 x96.935114 y78.15392
g1 x96.9366 y78.148127
g1 x96.935114 y78.15392
g1 x96.749937 y78.130593
g1 x96.749937 y78.124662
g1 x96.749937 y78.130593
g1 x96.56482 y78.153924
g1 z-3 f300
g1 x96.563339 y78.148148 f650
g1 x96.56482 y78.153924
g1 x96.391446 y78.222521
g1 x96.388561 y78.217273
g1 x96.391446 y78.222521
g1 x96.240714 y78.332113
g1 x96.236641 y78.327777
g1 x96.240714 y78.332113
g1 x96.12167 y78.476039
g1 x96.116647 y78.472851
g1 x96.12167 y78.476039
g1 x96.042248 y78.644753
g1 x96.036576 y78.64291
g1 x96.042248 y78.644753
g1 x96.007302 y78.827858
g1 x96.001336 y78.827484
g1 x96.007302 y78.827858
g1 x96.019051 y79.013773
g1 x96.013192 y79.014892
g1 x96.019051 y79.013773
g1 x96.076803 y79.1913
g1 x96.071439 y79.193824
g1 x96.076803 y79.1913
g1 x96.176834 y79.349045
g1 x96.172235 y79.352848
g1 x96.176834 y79.349045
g1 x96.312564 y79.476551
g1 x96.309048 y79.48139
g1 x96.312564 y79.476551
g1 x96.476037 y79.566372
g1 x96.473848 y79.571903
g1 x96.476037 y79.566372
g1 x96.656684 y79.612762
g1 x96.655936 y79.618678
g1 x96.656684 y79.612762
g1 x96.843185 y79.612762
g1 x96.843932 y79.618675
g1 x96.843185 y79.612762
g1 x97.023833 y79.566385
g1 x97.026029 y79.571929
g1 x97.023833 y79.566385
g1 x97.187232 y79.47655
g1 x97.19073 y79.481365
g1 x97.187232 y79.47655
g1 x97.323183 y79.348929
g1 x97.327796 y79.352744
g1 x97.323183 y79.348929
g1 x97.423138 y79.191302
g1 x97.428501 y79.193826
g1 x97.423138 y79.191302
g1 x97.480823 y79.013984
g1 x97.486709 y79.015107
g1 x97.480823 y79.013984
g1 x97.492474 y78.827878
g1 x97.498388 y78.827507
g1 x97.492474 y78.827878
g1 x97.457606 y78.644662
g1 x97.463313 y78.642808
g1 x97.457606 y78.644662
g1 x97.378179 y78.476039
g1 x97.383184 y78.472862
g1 x97.378179 y78.476039
g1 x97.259222 y78.33216
g1 x97.263312 y78.327806
g1 x97.259222 y78.33216
g1 x97.108295 y78.222499
g1 x97.111166 y78.217276
g1 x97.108295 y78.222499
g1 x96.935114 y78.15392
g1 x96.9366 y78.148127
g1 x96.935114 y78.15392
g1 x96.749937 y78.130593
g1 x96.749937 y78.124662
g1 x96.749937 y78.130593
g1 x96.56482 y78.153924
g0 z30
(Block-name: path4)
(Block-expand: 0)
(Block-enable: 0)

(End cutting path id: path4)


(Start cutting path id: path4)
(Change tool to Default tool)

G00 Z30.000000
G00 X90.000007 Y53.124662

G01 Z-1.000000 F100.0(Penetrate)
G01 X89.751310 Y53.156062 Z-1.000000 F400.000000
G01 X89.518108 Y53.248262 Z-1.000000
G01 X89.315308 Y53.395662 Z-1.000000
G01 X89.155608 Y53.588762 Z-1.000000
G01 X89.048910 Y53.815562 Z-1.000000
G01 X89.001910 Y54.061862 Z-1.000000
G01 X89.017600 Y54.311962 Z-1.000000
G01 X89.095200 Y54.550462 Z-1.000000
G01 X89.229400 Y54.762062 Z-1.000000
G01 X89.412100 Y54.933562 Z-1.000000
G01 X89.631799 Y55.054362 Z-1.000000
G01 X89.874599 Y55.116662 Z-1.000000
G01 X90.125300 Y55.116662 Z-1.000000
G01 X90.368000 Y55.054362 Z-1.000000
G01 X90.587800 Y54.933562 Z-1.000000
G01 X90.770399 Y54.762062 Z-1.000000
G01 X90.904699 Y54.550462 Z-1.000000
G01 X90.982199 Y54.311962 Z-1.000000
G01 X90.997889 Y54.061862 Z-1.000000
G01 X90.950889 Y53.815562 Z-1.000000
G01 X90.844288 Y53.588762 Z-1.000000
G01 X90.684488 Y53.395662 Z-1.000000
G01 X90.481688 Y53.248262 Z-1.000000
G01 X90.248590 Y53.156062 Z-1.000000
G01 X90.000007 Y53.124662 Z-1.000000
G00 Z30.000000
(Block-name: path4 [in,cut])
(Block-expand: 0)
(Block-enable: 0)
g0 x89.999985 y53.880619
g1 z0 f300
g1 x89.999986 y53.874662 f650
g1 x89.999985 y53.880619
g1 x89.939101 y53.888306
g1 x89.937625 y53.882551
g1 x89.939101 y53.888306
g1 x89.88221 y53.910799
g1 x89.879324 y53.905547
g1 x89.88221 y53.910799
g1 x89.832887 y53.946648
g1 x89.828808 y53.942305
