%
(Header)
(Generated by gcodetools from Inkscape.)
(Using default header. To add your own header create file "header" in the output dir.)
M3
(Header end.)
G21 (All units in mm)

(Start cutting path id: path6190-3-6-7-3)
(Change tool to Default tool)

G00 Z30.000000
G00 X153.657605 Y240.027697

G01 Z-1.000000 F100.0(Penetrate)
G02 X152.443280 Y237.096055 Z-1.000000 I-4.145964 J-0.000002 F400.000000
G02 X149.511635 Y235.881727 Z-1.000000 I-2.931648 J2.931648
G02 X147.925036 Y236.197319 Z-1.000000 I-0.000007 J4.145978
G02 X146.579984 Y237.096052 Z-1.000000 I1.586589 J3.830381
G02 X145.681248 Y238.441102 Z-1.000000 I2.931639 J2.931645
G02 X145.365655 Y240.027698 Z-1.000000 I3.830369 J1.586592
G02 X145.681245 Y241.614296 Z-1.000000 I4.145962 J0.000012
G02 X146.579981 Y242.959350 Z-1.000000 I3.830377 J-1.586588
G02 X147.925035 Y243.858085 Z-1.000000 I2.931645 J-2.931646
G02 X149.511635 Y244.173678 Z-1.000000 I1.586593 J-3.830386
G02 X151.098233 Y243.858082 Z-1.000000 I-0.000003 J-4.145978
G02 X152.443283 Y242.959346 Z-1.000000 I-1.586598 J-3.830378
G02 X153.342016 Y241.614293 Z-1.000000 I-2.931646 J-2.931638
G02 X153.657605 Y240.027697 Z-1.000000 I-3.830373 J-1.586583
G01 X153.657605 Y240.027697 Z-1.000000
G00 Z30.000000

(End cutting path id: path6190-3-6-7-3)


(Start cutting path id: path6190-3-6-5)
(Change tool to Default tool)

G00 Z30.000000
G00 X173.684265 Y240.027695

G01 Z-1.000000 F100.0(Penetrate)
G02 X172.469939 Y237.096053 Z-1.000000 I-4.145969 J0.000001 F400.000000
G02 X169.538295 Y235.881725 Z-1.000000 I-2.931646 J2.931647
G02 X166.606651 Y237.096053 Z-1.000000 I0.000003 J4.145974
G02 X165.392325 Y240.027696 Z-1.000000 I2.931643 J2.931643
G02 X165.707916 Y241.614292 Z-1.000000 I4.145969 J0.000009
G02 X166.606649 Y242.959345 Z-1.000000 I3.830380 J-1.586588
G02 X167.951699 Y243.858081 Z-1.000000 I2.931649 J-2.931642
G02 X169.538296 Y244.173676 Z-1.000000 I1.586599 J-3.830380
G02 X171.124892 Y243.858080 Z-1.000000 I-0.000003 J-4.145975
G02 X172.469943 Y242.959344 Z-1.000000 I-1.586599 J-3.830378
G02 X173.368675 Y241.614292 Z-1.000000 I-2.931648 J-2.931640
G02 X173.684265 Y240.027695 Z-1.000000 I-3.830378 J-1.586587
G01 X173.684265 Y240.027695 Z-1.000000
G00 Z30.000000

(End cutting path id: path6190-3-6-5)


(Start cutting path id: path6190-3-7)
(Change tool to Default tool)

G00 Z30.000000
G00 X173.684267 Y260.000006

G01 Z-1.000000 F100.0(Penetrate)
G02 X173.368678 Y258.413410 Z-1.000000 I-4.145964 J-0.000012 F400.000000
G02 X172.469945 Y257.068357 Z-1.000000 I-3.830379 J1.586586
G02 X171.124894 Y256.169621 Z-1.000000 I-2.931649 J2.931642
G02 X169.538297 Y255.854026 Z-1.000000 I-1.586600 J3.830383
G02 X167.951699 Y256.169621 Z-1.000000 I0.000004 J4.145978
G02 X166.606649 Y257.068358 Z-1.000000 I1.586599 J3.830378
G02 X165.707917 Y258.413411 Z-1.000000 I2.931647 J2.931638
G02 X165.392327 Y260.000007 Z-1.000000 I3.830375 J1.586583
G02 X166.606653 Y262.931647 Z-1.000000 I4.145965 J-0.000001
G02 X169.538298 Y264.145975 Z-1.000000 I2.931647 J-2.931649
G02 X172.469942 Y262.931647 Z-1.000000 I-0.000004 J-4.145977
G02 X173.684267 Y260.000006 Z-1.000000 I-2.931640 J-2.931640
G01 X173.684267 Y260.000006 Z-1.000000
G00 Z30.000000

(End cutting path id: path6190-3-7)


(Start cutting path id: path6190-36)
(Change tool to Default tool)

G00 Z30.000000
G00 X153.657607 Y260.000004

G01 Z-1.000000 F100.0(Penetrate)
G02 X153.342015 Y258.413409 Z-1.000000 I-4.145971 J-0.000005 F400.000000
G02 X152.443282 Y257.068357 Z-1.000000 I-3.830380 J1.586591
G02 X151.098232 Y256.169622 Z-1.000000 I-2.931647 J2.931643
G02 X149.511637 Y255.854028 Z-1.000000 I-1.586597 J3.830379
G02 X147.925038 Y256.169620 Z-1.000000 I-0.000007 J4.145973
G02 X146.579985 Y257.068354 Z-1.000000 I1.586591 J3.830381
G02 X145.681249 Y258.413407 Z-1.000000 I2.931644 J2.931646
G02 X145.365657 Y260.000005 Z-1.000000 I3.830379 J1.586593
G02 X145.681251 Y261.586602 Z-1.000000 I4.145971 J-0.000000
G02 X146.579987 Y262.931653 Z-1.000000 I3.830378 J-1.586597
G02 X147.925040 Y263.830386 Z-1.000000 I2.931642 J-2.931648
G02 X149.511637 Y264.145977 Z-1.000000 I1.586589 J-3.830382
G02 X152.443281 Y262.931649 Z-1.000000 I-0.000003 J-4.145973
G02 X153.657607 Y260.000004 Z-1.000000 I-2.931646 J-2.931644
G01 X153.657607 Y260.000004 Z-1.000000
G00 Z30.000000

(End cutting path id: path6190-36)


(Start cutting path id: path6190-3-6-7)
(Change tool to Default tool)

G00 Z30.000000
G00 X23.695992 Y179.950019

G01 Z-1.000000 F100.0(Penetrate)
G02 X23.380399 Y178.363425 Z-1.000000 I-4.145962 J-0.000002 F400.000000
G02 X22.481665 Y177.018375 Z-1.000000 I-3.830375 J1.586593
G02 X21.136614 Y176.119642 Z-1.000000 I-2.931644 J2.931647
G02 X19.550018 Y175.804049 Z-1.000000 I-1.586595 J3.830385
G02 X17.963422 Y176.119642 Z-1.000000 I0.000000 J4.145978
G02 X16.618372 Y177.018376 Z-1.000000 I1.586594 J3.830379
G02 X15.719638 Y178.363426 Z-1.000000 I2.931641 J2.931643
G02 X15.404045 Y179.950019 Z-1.000000 I3.830370 J1.586591
G02 X15.719635 Y181.536616 Z-1.000000 I4.145962 J0.000012
G02 X16.618369 Y182.881669 Z-1.000000 I3.830377 J-1.586587
G02 X17.963420 Y183.780405 Z-1.000000 I2.931647 J-2.931643
G02 X19.550019 Y184.095999 Z-1.000000 I1.586598 J-3.830384
G02 X21.136617 Y183.780405 Z-1.000000 I-0.000000 J-4.145978
G02 X22.481669 Y182.881669 Z-1.000000 I-1.586596 J-3.830378
G02 X23.380402 Y181.536615 Z-1.000000 I-2.931645 J-2.931639
G02 X23.695992 Y179.950019 Z-1.000000 I-3.830373 J-1.586584
G01 X23.695992 Y179.950019 Z-1.000000
G00 Z30.000000

(End cutting path id: path6190-3-6-7)


(Start cutting path id: path6190-3-6)
(Change tool to Default tool)

G00 Z30.000000
G00 X43.722658 Y179.950017

G01 Z-1.000000 F100.0(Penetrate)
G02 X42.508330 Y177.018373 Z-1.000000 I-4.145969 J0.000001 F400.000000
G02 X39.576684 Y175.804047 Z-1.000000 I-2.931645 J2.931648
G02 X36.645039 Y177.018374 Z-1.000000 I0.000001 J4.145974
G02 X35.430713 Y179.950017 Z-1.000000 I2.931643 J2.931643
G02 X35.746304 Y181.536614 Z-1.000000 I4.145969 J0.000009
G02 X36.645037 Y182.881667 Z-1.000000 I3.830380 J-1.586589
G02 X37.990088 Y183.780403 Z-1.000000 I2.931648 J-2.931643
G02 X39.576685 Y184.095997 Z-1.000000 I1.586597 J-3.830381
G02 X41.163283 Y183.780403 Z-1.000000 I-0.000000 J-4.145975
G02 X42.508334 Y182.881667 Z-1.000000 I-1.586597 J-3.830379
G02 X43.407067 Y181.536614 Z-1.000000 I-2.931647 J-2.931641
G02 X43.722658 Y179.950017 Z-1.000000 I-3.830378 J-1.586587
G01 X43.722658 Y179.950017 Z-1.000000
G00 Z30.000000

(End cutting path id: path6190-3-6)


(Start cutting path id: path6190-3)
(Change tool to Default tool)

G00 Z30.000000
G00 X43.722660 Y199.922328

G01 Z-1.000000 F100.0(Penetrate)
G02 X43.407070 Y198.335731 Z-1.000000 I-4.145964 J-0.000012 F400.000000
G02 X42.508337 Y196.990678 Z-1.000000 I-3.830378 J1.586587
G02 X41.163285 Y196.091942 Z-1.000000 I-2.931648 J2.931643
G02 X39.576686 Y195.776347 Z-1.000000 I-1.586598 J3.830384
G02 X37.990088 Y196.091942 Z-1.000000 I0.000002 J4.145978
G02 X36.645037 Y196.990679 Z-1.000000 I1.586598 J3.830378
G02 X35.746304 Y198.335732 Z-1.000000 I2.931646 J2.931639
G02 X35.430715 Y199.922329 Z-1.000000 I3.830374 J1.586584
G02 X36.645041 Y202.853970 Z-1.000000 I4.145965 J-0.000001
G02 X39.576687 Y204.068297 Z-1.000000 I2.931646 J-2.931650
G02 X42.508333 Y202.853970 Z-1.000000 I-0.000001 J-4.145977
G02 X43.722660 Y199.922328 Z-1.000000 I-2.931638 J-2.931641
G01 X43.722660 Y199.922328 Z-1.000000
G00 Z30.000000

(End cutting path id: path6190-3)


(Start cutting path id: path6190)
(Change tool to Default tool)

G00 Z30.000000
G00 X23.695993 Y199.922326

G01 Z-1.000000 F100.0(Penetrate)
G02 X23.380401 Y198.335730 Z-1.000000 I-4.145971 J-0.000005 F400.000000
G02 X22.481668 Y196.990678 Z-1.000000 I-3.830380 J1.586592
G02 X21.136616 Y196.091943 Z-1.000000 I-2.931646 J2.931644
G02 X19.550020 Y195.776349 Z-1.000000 I-1.586596 J3.830380
G02 X17.963424 Y196.091943 Z-1.000000 I-0.000000 J4.145973
G02 X16.618373 Y196.990678 Z-1.000000 I1.586596 J3.830379
G02 X15.719639 Y198.335730 Z-1.000000 I2.931647 J2.931643
G02 X15.404047 Y199.922327 Z-1.000000 I3.830380 J1.586591
G02 X15.719641 Y201.508922 Z-1.000000 I4.145971 J-0.000000
G02 X16.618375 Y202.853972 Z-1.000000 I3.830378 J-1.586595
G02 X17.963426 Y203.752705 Z-1.000000 I2.931645 J-2.931646
G02 X19.550021 Y204.068298 Z-1.000000 I1.586594 J-3.830380
G02 X21.136616 Y203.752705 Z-1.000000 I0.000000 J-4.145973
G02 X22.481666 Y202.853971 Z-1.000000 I-1.586595 J-3.830379
G02 X23.380400 Y201.508921 Z-1.000000 I-2.931645 J-2.931645
G02 X23.695993 Y199.922326 Z-1.000000 I-3.830378 J-1.586594
G01 X23.695993 Y199.922326 Z-1.000000
G00 Z30.000000

(End cutting path id: path6190)


(Start cutting path id: path4)
(Change tool to Default tool)

G00 Z30.000000
G00 X124.968135 Y226.470167

G01 Z-1.000000 F100.0(Penetrate)
G01 X125.272135 Y226.548167 Z-1.000000 F400.000000
G01 X125.564135 Y226.664168 Z-1.000000
G01 X125.839135 Y226.815168 Z-1.000000
G01 X126.093135 Y227.000168 Z-1.000000
G01 X126.322135 Y227.215168 Z-1.000000
G01 X126.522125 Y227.457167 Z-1.000000
G01 X126.691125 Y227.722168 Z-1.000000
G01 X126.824135 Y228.006169 Z-1.000000
G01 X126.921135 Y228.304167 Z-1.000000
G01 X126.980135 Y228.613168 Z-1.000000
G01 X127.000135 Y228.926168 Z-1.000000
G01 X126.980135 Y229.239167 Z-1.000000
G01 X126.921135 Y229.548169 Z-1.000000
G01 X126.824135 Y229.846169 Z-1.000000
G01 X126.691125 Y230.130167 Z-1.000000
G01 X126.522125 Y230.395169 Z-1.000000
G01 X126.322135 Y230.637167 Z-1.000000
G01 X126.093135 Y230.852168 Z-1.000000
G01 X125.839135 Y231.037167 Z-1.000000
G01 X66.628933 Y264.450174 Z-1.000000
G01 X66.045133 Y264.681174 Z-1.000000
G01 X65.437033 Y264.837174 Z-1.000000
G01 X64.814032 Y264.916174 Z-1.000000
G01 X15.128033 Y269.906179 Z-1.000000
G01 X13.872234 Y269.906179 Z-1.000000
G01 X12.626233 Y269.749179 Z-1.000000
G01 X11.409934 Y269.436179 Z-1.000000
G01 X10.242334 Y268.974179 Z-1.000000
G01 X9.141853 Y268.369179 Z-1.000000
G01 X8.125774 Y267.631180 Z-1.000000
G01 X7.210404 Y266.771180 Z-1.000000
G01 X6.409924 Y265.804180 Z-1.000000
G01 X5.737014 Y264.744180 Z-1.000000
G01 X5.202343 Y263.607180 Z-1.000000
G01 X4.814163 Y262.413180 Z-1.000000
G01 X4.578873 Y261.179180 Z-1.000000
G01 X4.500133 Y259.926180 Z-1.000000
G01 X4.578873 Y258.673180 Z-1.000000
G01 X4.814163 Y257.439180 Z-1.000000
G01 X5.202343 Y256.245180 Z-1.000000
G01 X5.737013 Y255.108180 Z-1.000000
G01 X6.409922 Y254.048179 Z-1.000000
G01 X7.210402 Y253.080179 Z-1.000000
G01 X8.125772 Y252.221179 Z-1.000000
G01 X9.141851 Y251.483179 Z-1.000000
G01 X10.242332 Y250.878179 Z-1.000000
G01 X11.409932 Y250.415179 Z-1.000000
G01 X12.626231 Y250.103179 Z-1.000000
G01 X13.872232 Y249.946179 Z-1.000000
G01 X15.128031 Y249.946179 Z-1.000000
G01 X63.616831 Y254.816174 Z-1.000000
G01 X123.436135 Y226.664168 Z-1.000000
G01 X123.727135 Y226.548167 Z-1.000000
G01 X124.031135 Y226.470167 Z-1.000000
G01 X124.343125 Y226.431167 Z-1.000000
G01 X124.657135 Y226.431167 Z-1.000000
G01 X124.968135 Y226.470167 Z-1.000000
G00 Z30.000000

(End cutting path id: path4)


(Start cutting path id: path4)
(Change tool to Default tool)

G00 Z30.000000
G00 X13.500031 Y253.926179

G01 Z-1.000000 F100.0(Penetrate)
G01 X13.500032 Y265.926179 Z-1.000000 F400.000000
G01 X36.500133 Y265.926177 Z-1.000000
G01 X36.500132 Y253.926176 Z-1.000000
G01 X13.500031 Y253.926179 Z-1.000000
G00 Z30.000000

(End cutting path id: path4)


(Start cutting path id: path4)
(Change tool to Default tool)

G00 Z30.000000
G00 X38.812831 Y258.928176

G01 Z-1.000000 F100.0(Penetrate)
G01 X38.562633 Y258.944176 Z-1.000000 F400.000000
G01 X38.324331 Y259.021176 Z-1.000000
G01 X38.112633 Y259.155176 Z-1.000000
G01 X37.941032 Y259.338176 Z-1.000000
G01 X37.820332 Y259.558176 Z-1.000000
G01 X37.757932 Y259.801176 Z-1.000000
G01 X37.757932 Y260.051176 Z-1.000000
G01 X37.820332 Y260.294176 Z-1.000000
G01 X37.941032 Y260.514176 Z-1.000000
G01 X38.112633 Y260.696176 Z-1.000000
G01 X38.324331 Y260.831176 Z-1.000000
G01 X38.562633 Y260.908176 Z-1.000000
G01 X38.812831 Y260.924176 Z-1.000000
G01 X39.059031 Y260.877176 Z-1.000000
G01 X39.285933 Y260.770176 Z-1.000000
G01 X39.479031 Y260.611176 Z-1.000000
G01 X39.626332 Y260.408176 Z-1.000000
G01 X39.718632 Y260.175176 Z-1.000000
G01 X39.750032 Y259.926176 Z-1.000000
G01 X39.718632 Y259.677176 Z-1.000000
G01 X39.626332 Y259.444176 Z-1.000000
G01 X39.479031 Y259.241176 Z-1.000000
G01 X39.285933 Y259.082176 Z-1.000000
G01 X39.059031 Y258.975176 Z-1.000000
G01 X38.812831 Y258.928176 Z-1.000000
G00 Z30.000000

(End cutting path id: path4)


(Start cutting path id: path4)
(Change tool to Default tool)

G00 Z30.000000
G00 X11.312833 Y258.928179

G01 Z-1.000000 F100.0(Penetrate)
G01 X11.062632 Y258.944179 Z-1.000000 F400.000000
G01 X10.824333 Y259.021179 Z-1.000000
G01 X10.612633 Y259.155179 Z-1.000000
G01 X10.441033 Y259.338179 Z-1.000000
G01 X10.320333 Y259.558179 Z-1.000000
G01 X10.257933 Y259.801179 Z-1.000000
G01 X10.257933 Y260.051179 Z-1.000000
G01 X10.320333 Y260.294179 Z-1.000000
G01 X10.441033 Y260.514179 Z-1.000000
G01 X10.612633 Y260.696179 Z-1.000000
G01 X10.824333 Y260.831179 Z-1.000000
G01 X11.062632 Y260.908179 Z-1.000000
G01 X11.312833 Y260.924179 Z-1.000000
G01 X11.559132 Y260.877179 Z-1.000000
G01 X11.785932 Y260.770179 Z-1.000000
G01 X11.979032 Y260.611179 Z-1.000000
G01 X12.126332 Y260.408179 Z-1.000000
G01 X12.218632 Y260.175179 Z-1.000000
G01 X12.250032 Y259.926179 Z-1.000000
G01 X12.218632 Y259.677179 Z-1.000000
G01 X12.126332 Y259.444179 Z-1.000000
G01 X11.979032 Y259.241179 Z-1.000000
G01 X11.785932 Y259.082179 Z-1.000000
G01 X11.559132 Y258.975179 Z-1.000000
G01 X11.312833 Y258.928179 Z-1.000000
G00 Z30.000000

(End cutting path id: path4)


(Start cutting path id: path4)
(Change tool to Default tool)

G00 Z30.000000
G00 X175.500130 Y265.926163

G01 Z-1.000000 F100.0(Penetrate)
G01 X163.500129 Y265.926164 Z-1.000000 F400.000000
G01 X163.500128 Y253.926164 Z-1.000000
G01 X175.500128 Y253.926163 Z-1.000000
G01 X175.500130 Y265.926163 Z-1.000000
G00 Z30.000000

(End cutting path id: path4)


(Start cutting path id: path4)
(Change tool to Default tool)

G00 Z30.000000
G00 X169.406129 Y258.429164

G01 Z-1.000000 F100.0(Penetrate)
G01 X169.219139 Y258.452164 Z-1.000000 F400.000000
G01 X169.036139 Y258.499164 Z-1.000000
G01 X168.861139 Y258.569164 Z-1.000000
G01 X168.696139 Y258.660164 Z-1.000000
G01 X168.544139 Y258.770164 Z-1.000000
G01 X168.407129 Y258.899164 Z-1.000000
G01 X168.286129 Y259.044165 Z-1.000000
G01 X168.185139 Y259.203164 Z-1.000000
G01 X168.105139 Y259.374165 Z-1.000000
G01 X168.047139 Y259.553164 Z-1.000000
G01 X168.012139 Y259.738165 Z-1.000000
G01 X168.000139 Y259.926164 Z-1.000000
G01 X168.012139 Y260.114164 Z-1.000000
G01 X168.047139 Y260.299165 Z-1.000000
G01 X168.105139 Y260.478164 Z-1.000000
G01 X168.185139 Y260.649164 Z-1.000000
G01 X168.286129 Y260.808164 Z-1.000000
G01 X168.407129 Y260.953165 Z-1.000000
G01 X168.544139 Y261.082165 Z-1.000000
G01 X168.696139 Y261.192165 Z-1.000000
G01 X168.861139 Y261.283165 Z-1.000000
G01 X169.036139 Y261.353165 Z-1.000000
G01 X169.219139 Y261.399165 Z-1.000000
G01 X169.406129 Y261.423165 Z-1.000000
G01 X169.594129 Y261.423165 Z-1.000000
G01 X169.781129 Y261.399165 Z-1.000000
G01 X169.963139 Y261.353165 Z-1.000000
G01 X170.139139 Y261.283165 Z-1.000000
G01 X170.304139 Y261.192164 Z-1.000000
G01 X170.456139 Y261.082164 Z-1.000000
G01 X170.593129 Y260.953164 Z-1.000000
G01 X170.714129 Y260.808163 Z-1.000000
G01 X170.814139 Y260.649163 Z-1.000000
G01 X170.895139 Y260.478163 Z-1.000000
G01 X170.953139 Y260.299164 Z-1.000000
G01 X170.988139 Y260.114163 Z-1.000000
G01 X171.000139 Y259.926163 Z-1.000000
G01 X170.988139 Y259.738164 Z-1.000000
G01 X170.953139 Y259.553163 Z-1.000000
G01 X170.895139 Y259.374164 Z-1.000000
G01 X170.814139 Y259.203163 Z-1.000000
G01 X170.714129 Y259.044164 Z-1.000000
G01 X170.593129 Y258.899163 Z-1.000000
G01 X170.456139 Y258.770163 Z-1.000000
G01 X170.304139 Y258.660163 Z-1.000000
G01 X170.139139 Y258.569163 Z-1.000000
G01 X169.963139 Y258.499163 Z-1.000000
G01 X169.781129 Y258.452163 Z-1.000000
G01 X169.594129 Y258.429164 Z-1.000000
G01 X169.406129 Y258.429164 Z-1.000000
G00 Z30.000000

(End cutting path id: path4)


(Start cutting path id: path4)
(Change tool to Default tool)

G00 Z30.000000
G00 X155.500129 Y265.926165

G01 Z-1.000000 F100.0(Penetrate)
G01 X143.500129 Y265.926166 Z-1.000000 F400.000000
G01 X143.500128 Y253.926166 Z-1.000000
G01 X155.500128 Y253.926165 Z-1.000000
G01 X155.500129 Y265.926165 Z-1.000000
G00 Z30.000000

(End cutting path id: path4)


(Start cutting path id: path4)
(Change tool to Default tool)

G00 Z30.000000
G00 X149.406128 Y258.429165

G01 Z-1.000000 F100.0(Penetrate)
G01 X149.219138 Y258.452166 Z-1.000000 F400.000000
G01 X149.036138 Y258.499166 Z-1.000000
G01 X148.861138 Y258.569166 Z-1.000000
G01 X148.696138 Y258.660166 Z-1.000000
G01 X148.544138 Y258.770166 Z-1.000000
G01 X148.407128 Y258.899166 Z-1.000000
G01 X148.286138 Y259.044167 Z-1.000000
G01 X148.185138 Y259.203166 Z-1.000000
G01 X148.105138 Y259.374167 Z-1.000000
G01 X148.047138 Y259.553166 Z-1.000000
G01 X148.012138 Y259.738167 Z-1.000000
G01 X148.000139 Y259.926166 Z-1.000000
G01 X148.012139 Y260.114166 Z-1.000000
G01 X148.047139 Y260.299167 Z-1.000000
G01 X148.105139 Y260.478166 Z-1.000000
G01 X148.185139 Y260.649166 Z-1.000000
G01 X148.286139 Y260.808166 Z-1.000000
G01 X148.407129 Y260.953167 Z-1.000000
G01 X148.544139 Y261.082167 Z-1.000000
G01 X148.696139 Y261.192167 Z-1.000000
G01 X148.861139 Y261.283167 Z-1.000000
G01 X149.036139 Y261.353167 Z-1.000000
G01 X149.219139 Y261.399167 Z-1.000000
G01 X149.406129 Y261.423167 Z-1.000000
G01 X149.594129 Y261.423167 Z-1.000000
G01 X149.781129 Y261.399167 Z-1.000000
G01 X149.963139 Y261.353166 Z-1.000000
G01 X150.139139 Y261.283166 Z-1.000000
G01 X150.304139 Y261.192166 Z-1.000000
G01 X150.456139 Y261.082166 Z-1.000000
G01 X150.593139 Y260.953166 Z-1.000000
G01 X150.713129 Y260.808165 Z-1.000000
G01 X150.814139 Y260.649165 Z-1.000000
G01 X150.895139 Y260.478165 Z-1.000000
G01 X150.953139 Y260.299166 Z-1.000000
G01 X150.988139 Y260.114165 Z-1.000000
G01 X151.000139 Y259.926165 Z-1.000000
G01 X150.988139 Y259.738166 Z-1.000000
G01 X150.953139 Y259.553165 Z-1.000000
G01 X150.895139 Y259.374166 Z-1.000000
G01 X150.814138 Y259.203165 Z-1.000000
G01 X150.713128 Y259.044166 Z-1.000000
G01 X150.593138 Y258.899165 Z-1.000000
G01 X150.456138 Y258.770165 Z-1.000000
G01 X150.304138 Y258.660165 Z-1.000000
G01 X150.139138 Y258.569165 Z-1.000000
G01 X149.963138 Y258.499165 Z-1.000000
G01 X149.781128 Y258.452165 Z-1.000000
G01 X149.594128 Y258.429165 Z-1.000000
G01 X149.406128 Y258.429165 Z-1.000000
G00 Z30.000000

(End cutting path id: path4)


(Start cutting path id: path4)
(Change tool to Default tool)

G00 Z30.000000
G00 X166.374123 Y205.103164

G01 Z-1.000000 F100.0(Penetrate)
G01 X167.590134 Y205.415164 Z-1.000000 F400.000000
G01 X168.758134 Y205.878164 Z-1.000000
G01 X169.858134 Y206.483163 Z-1.000000
G01 X170.874134 Y207.221164 Z-1.000000
G01 X171.790134 Y208.080163 Z-1.000000
G01 X172.590134 Y209.048162 Z-1.000000
G01 X173.263134 Y210.108162 Z-1.000000
G01 X173.798134 Y211.245162 Z-1.000000
G01 X174.186124 Y212.439163 Z-1.000000
G01 X174.421124 Y213.673164 Z-1.000000
G01 X174.500125 Y214.926164 Z-1.000000
G01 X174.421125 Y216.179162 Z-1.000000
G01 X174.186125 Y217.413163 Z-1.000000
G01 X173.798135 Y218.607164 Z-1.000000
G01 X173.263135 Y219.744163 Z-1.000000
G01 X172.590135 Y220.804163 Z-1.000000
G01 X171.790135 Y221.771163 Z-1.000000
G01 X170.874135 Y222.631163 Z-1.000000
G01 X169.858135 Y223.369165 Z-1.000000
G01 X168.758135 Y223.974164 Z-1.000000
G01 X167.590135 Y224.436163 Z-1.000000
G01 X166.374125 Y224.749163 Z-1.000000
G01 X165.128125 Y224.906164 Z-1.000000
G01 X163.872135 Y224.906164 Z-1.000000
G01 X115.383134 Y220.036169 Z-1.000000
G01 X55.564631 Y248.188175 Z-1.000000
G01 X55.272531 Y248.304175 Z-1.000000
G01 X54.968533 Y248.382175 Z-1.000000
G01 X54.657031 Y248.421175 Z-1.000000
G01 X54.343132 Y248.421175 Z-1.000000
G01 X54.031730 Y248.382175 Z-1.000000
G01 X53.727530 Y248.304175 Z-1.000000
G01 X53.435631 Y248.188175 Z-1.000000
G01 X53.160531 Y248.037175 Z-1.000000
G01 X52.906531 Y247.852175 Z-1.000000
G01 X52.677632 Y247.637175 Z-1.000000
G01 X52.477530 Y247.395175 Z-1.000000
G01 X52.309231 Y247.130175 Z-1.000000
G01 X52.175630 Y246.846175 Z-1.000000
G01 X52.078530 Y246.548175 Z-1.000000
G01 X52.019830 Y246.239175 Z-1.000000
G01 X52.000150 Y245.926175 Z-1.000000
G01 X52.019830 Y245.613175 Z-1.000000
G01 X52.078530 Y245.304175 Z-1.000000
G01 X52.175630 Y245.006176 Z-1.000000
G01 X52.309231 Y244.722175 Z-1.000000
G01 X52.477530 Y244.456175 Z-1.000000
G01 X52.677632 Y244.215175 Z-1.000000
G01 X52.906531 Y244.000175 Z-1.000000
G01 X53.160531 Y243.815175 Z-1.000000
G01 X112.371133 Y210.402168 Z-1.000000
G01 X112.955123 Y210.171168 Z-1.000000
G01 X113.563133 Y210.015170 Z-1.000000
G01 X114.186133 Y209.936170 Z-1.000000
G01 X163.872133 Y204.946164 Z-1.000000
G01 X165.128123 Y204.946164 Z-1.000000
G01 X166.374123 Y205.103164 Z-1.000000
G00 Z30.000000

(End cutting path id: path4)


(Start cutting path id: path4)
(Change tool to Default tool)

G00 Z30.000000
G00 X142.500123 Y208.926166

G01 Z-1.000000 F100.0(Penetrate)
G01 X142.500125 Y220.926166 Z-1.000000 F400.000000
G01 X165.500135 Y220.926164 Z-1.000000
G01 X165.500134 Y208.926164 Z-1.000000
G01 X142.500123 Y208.926166 Z-1.000000
G00 Z30.000000

(End cutting path id: path4)


(Start cutting path id: path4)
(Change tool to Default tool)

G00 Z30.000000
G00 X167.813124 Y213.928165

G01 Z-1.000000 F100.0(Penetrate)
G01 X167.563124 Y213.944175 Z-1.000000 F400.000000
G01 X167.324134 Y214.021175 Z-1.000000
G01 X167.112134 Y214.155176 Z-1.000000
G01 X166.941134 Y214.338175 Z-1.000000
G01 X166.820124 Y214.558176 Z-1.000000
G01 X166.758124 Y214.801175 Z-1.000000
G01 X166.758124 Y215.051173 Z-1.000000
G01 X166.820124 Y215.294171 Z-1.000000
G01 X166.941135 Y215.514172 Z-1.000000
G01 X167.112135 Y215.696171 Z-1.000000
G01 X167.324135 Y215.831172 Z-1.000000
G01 X167.563125 Y215.908172 Z-1.000000
G01 X167.813125 Y215.924182 Z-1.000000
G01 X168.059135 Y215.877182 Z-1.000000
G01 X168.286125 Y215.770182 Z-1.000000
G01 X168.479135 Y215.611180 Z-1.000000
G01 X168.626135 Y215.408181 Z-1.000000
G01 X168.718135 Y215.175181 Z-1.000000
G01 X168.750134 Y214.926182 Z-1.000000
G01 X168.718134 Y214.677180 Z-1.000000
G01 X168.626134 Y214.444180 Z-1.000000
G01 X168.479134 Y214.241181 Z-1.000000
G01 X168.286124 Y214.082180 Z-1.000000
G01 X168.059134 Y213.975180 Z-1.000000
G01 X167.813124 Y213.928165 Z-1.000000
G00 Z30.000000

(End cutting path id: path4)


(Start cutting path id: path4)
(Change tool to Default tool)

G00 Z30.000000
G00 X140.313134 Y213.928167

G01 Z-1.000000 F100.0(Penetrate)
G01 X140.063134 Y213.944178 Z-1.000000 F400.000000
G01 X139.824134 Y214.021178 Z-1.000000
G01 X139.612134 Y214.155179 Z-1.000000
G01 X139.441134 Y214.338178 Z-1.000000
G01 X139.320134 Y214.558179 Z-1.000000
G01 X139.258134 Y214.801178 Z-1.000000
G01 X139.258134 Y215.051176 Z-1.000000
G01 X139.320134 Y215.294174 Z-1.000000
G01 X139.441134 Y215.514175 Z-1.000000
G01 X139.612134 Y215.696174 Z-1.000000
G01 X139.824134 Y215.831175 Z-1.000000
G01 X140.063134 Y215.908175 Z-1.000000
G01 X140.313134 Y215.924185 Z-1.000000
G01 X140.559134 Y215.877185 Z-1.000000
G01 X140.786124 Y215.770184 Z-1.000000
G01 X140.979124 Y215.611182 Z-1.000000
G01 X141.126124 Y215.408183 Z-1.000000
G01 X141.218124 Y215.175183 Z-1.000000
G01 X141.250124 Y214.926184 Z-1.000000
G01 X141.218124 Y214.677182 Z-1.000000
G01 X141.126124 Y214.444182 Z-1.000000
G01 X140.979124 Y214.241183 Z-1.000000
G01 X140.786124 Y214.082182 Z-1.000000
G01 X140.559134 Y213.975182 Z-1.000000
G01 X140.313134 Y213.928167 Z-1.000000
G00 Z30.000000

(End cutting path id: path4)


(Start cutting path id: path4)
(Change tool to Default tool)

G00 Z30.000000
G00 X155.500127 Y245.926165

G01 Z-1.000000 F100.0(Penetrate)
G01 X143.500127 Y245.926166 Z-1.000000 F400.000000
G01 X143.500126 Y233.926167 Z-1.000000
G01 X155.500126 Y233.926165 Z-1.000000
G01 X155.500127 Y245.926165 Z-1.000000
G00 Z30.000000

(End cutting path id: path4)


(Start cutting path id: path4)
(Change tool to Default tool)

G00 Z30.000000
G00 X149.406126 Y238.429165

G01 Z-1.000000 F100.0(Penetrate)
G01 X149.219136 Y238.452155 Z-1.000000 F400.000000
G01 X149.036136 Y238.499155 Z-1.000000
G01 X148.861136 Y238.569155 Z-1.000000
G01 X148.696136 Y238.660155 Z-1.000000
G01 X148.544136 Y238.770156 Z-1.000000
G01 X148.407126 Y238.899156 Z-1.000000
G01 X148.286136 Y239.044156 Z-1.000000
G01 X148.185136 Y239.203154 Z-1.000000
G01 X148.105136 Y239.374155 Z-1.000000
G01 X148.047137 Y239.553156 Z-1.000000
G01 X148.012137 Y239.738155 Z-1.000000
G01 X148.000137 Y239.926155 Z-1.000000
G01 X148.012137 Y240.114154 Z-1.000000
G01 X148.047137 Y240.299156 Z-1.000000
G01 X148.105137 Y240.478155 Z-1.000000
G01 X148.185137 Y240.649155 Z-1.000000
G01 X148.286137 Y240.808157 Z-1.000000
G01 X148.407127 Y240.953156 Z-1.000000
G01 X148.544137 Y241.082156 Z-1.000000
G01 X148.696137 Y241.192154 Z-1.000000
G01 X148.861137 Y241.283154 Z-1.000000
G01 X149.036137 Y241.353154 Z-1.000000
G01 X149.219137 Y241.399154 Z-1.000000
G01 X149.406127 Y241.423154 Z-1.000000
G01 X149.594127 Y241.423154 Z-1.000000
G01 X149.781127 Y241.399154 Z-1.000000
G01 X149.963137 Y241.353154 Z-1.000000
G01 X150.139137 Y241.283154 Z-1.000000
G01 X150.304137 Y241.192154 Z-1.000000
G01 X150.456137 Y241.082156 Z-1.000000
G01 X150.593137 Y240.953156 Z-1.000000
G01 X150.713127 Y240.808157 Z-1.000000
G01 X150.814137 Y240.649155 Z-1.000000
G01 X150.895137 Y240.478155 Z-1.000000
G01 X150.953137 Y240.299156 Z-1.000000
G01 X150.988137 Y240.114154 Z-1.000000
G01 X151.000137 Y239.926155 Z-1.000000
G01 X150.988137 Y239.738155 Z-1.000000
G01 X150.953137 Y239.553156 Z-1.000000
G01 X150.895137 Y239.374155 Z-1.000000
G01 X150.814137 Y239.203154 Z-1.000000
G01 X150.713127 Y239.044156 Z-1.000000
G01 X150.593136 Y238.899156 Z-1.000000
G01 X150.456136 Y238.770156 Z-1.000000
G01 X150.304136 Y238.660155 Z-1.000000
G01 X150.139136 Y238.569155 Z-1.000000
G01 X149.963136 Y238.499155 Z-1.000000
G01 X149.781126 Y238.452155 Z-1.000000
G01 X149.594126 Y238.429165 Z-1.000000
G01 X149.406126 Y238.429165 Z-1.000000
G00 Z30.000000

(End cutting path id: path4)


(Start cutting path id: path4)
(Change tool to Default tool)

G00 Z30.000000
G00 X175.500128 Y245.926163

G01 Z-1.000000 F100.0(Penetrate)
G01 X163.500127 Y245.926164 Z-1.000000 F400.000000
G01 X163.500126 Y233.926165 Z-1.000000
G01 X175.500126 Y233.926163 Z-1.000000
G01 X175.500128 Y245.926163 Z-1.000000
G00 Z30.000000

(End cutting path id: path4)


(Start cutting path id: path4)
(Change tool to Default tool)

G00 Z30.000000
G00 X169.406127 Y238.429163

G01 Z-1.000000 F100.0(Penetrate)
G01 X169.219137 Y238.452153 Z-1.000000 F400.000000
G01 X169.036137 Y238.499153 Z-1.000000
G01 X168.861137 Y238.569153 Z-1.000000
G01 X168.696137 Y238.660153 Z-1.000000
G01 X168.544137 Y238.770154 Z-1.000000
G01 X168.407127 Y238.899154 Z-1.000000
G01 X168.286127 Y239.044154 Z-1.000000
G01 X168.185137 Y239.203152 Z-1.000000
G01 X168.105137 Y239.374153 Z-1.000000
G01 X168.047137 Y239.553154 Z-1.000000
G01 X168.012137 Y239.738153 Z-1.000000
G01 X168.000137 Y239.926153 Z-1.000000
G01 X168.012137 Y240.114152 Z-1.000000
G01 X168.047137 Y240.299154 Z-1.000000
G01 X168.105137 Y240.478153 Z-1.000000
G01 X168.185137 Y240.649153 Z-1.000000
G01 X168.286127 Y240.808155 Z-1.000000
G01 X168.407127 Y240.953154 Z-1.000000
G01 X168.544137 Y241.082154 Z-1.000000
G01 X168.696137 Y241.192152 Z-1.000000
G01 X168.861137 Y241.283152 Z-1.000000
G01 X169.036137 Y241.353152 Z-1.000000
G01 X169.219137 Y241.399152 Z-1.000000
G01 X169.406127 Y241.423152 Z-1.000000
G01 X169.594127 Y241.423152 Z-1.000000
G01 X169.781127 Y241.399152 Z-1.000000
G01 X169.963137 Y241.353152 Z-1.000000
G01 X170.139137 Y241.283152 Z-1.000000
G01 X170.304137 Y241.192152 Z-1.000000
G01 X170.456137 Y241.082154 Z-1.000000
G01 X170.593127 Y240.953154 Z-1.000000
G01 X170.714127 Y240.808155 Z-1.000000
G01 X170.814137 Y240.649153 Z-1.000000
G01 X170.895137 Y240.478153 Z-1.000000
G01 X170.953137 Y240.299154 Z-1.000000
G01 X170.988137 Y240.114152 Z-1.000000
G01 X171.000137 Y239.926153 Z-1.000000
G01 X170.988137 Y239.738153 Z-1.000000
G01 X170.953137 Y239.553154 Z-1.000000
G01 X170.895137 Y239.374153 Z-1.000000
G01 X170.814137 Y239.203152 Z-1.000000
G01 X170.714127 Y239.044154 Z-1.000000
G01 X170.593127 Y238.899154 Z-1.000000
G01 X170.456137 Y238.770154 Z-1.000000
G01 X170.304137 Y238.660153 Z-1.000000
G01 X170.139137 Y238.569153 Z-1.000000
G01 X169.963137 Y238.499153 Z-1.000000
G01 X169.781127 Y238.452153 Z-1.000000
G01 X169.594127 Y238.429163 Z-1.000000
G01 X169.406127 Y238.429163 Z-1.000000
G00 Z30.000000

(End cutting path id: path4)


(Start cutting path id: path4)
(Change tool to Default tool)

G00 Z30.000000
G00 X124.968131 Y191.470172

G01 Z-1.000000 F100.0(Penetrate)
G01 X125.272131 Y191.548172 Z-1.000000 F400.000000
G01 X125.564131 Y191.664171 Z-1.000000
G01 X125.839131 Y191.815171 Z-1.000000
G01 X126.093131 Y192.000171 Z-1.000000
G01 X126.322131 Y192.215171 Z-1.000000
G01 X126.522121 Y192.457171 Z-1.000000
G01 X126.691121 Y192.722171 Z-1.000000
G01 X126.824132 Y193.006171 Z-1.000000
G01 X126.921132 Y193.304171 Z-1.000000
G01 X126.980132 Y193.613171 Z-1.000000
G01 X127.000132 Y193.926171 Z-1.000000
G01 X126.980132 Y194.239171 Z-1.000000
G01 X126.921132 Y194.548171 Z-1.000000
G01 X126.824132 Y194.846171 Z-1.000000
G01 X126.691122 Y195.130171 Z-1.000000
G01 X126.522122 Y195.395171 Z-1.000000
G01 X126.322132 Y195.637171 Z-1.000000
G01 X126.093132 Y195.852172 Z-1.000000
G01 X125.839132 Y196.037172 Z-1.000000
G01 X66.628930 Y229.450173 Z-1.000000
G01 X66.045130 Y229.681173 Z-1.000000
G01 X65.437030 Y229.837174 Z-1.000000
G01 X64.814029 Y229.916174 Z-1.000000
G01 X15.128029 Y234.906178 Z-1.000000
G01 X13.872230 Y234.906178 Z-1.000000
G01 X12.626229 Y234.749179 Z-1.000000
G01 X11.409930 Y234.436180 Z-1.000000
G01 X10.242330 Y233.974181 Z-1.000000
G01 X9.141850 Y233.369179 Z-1.000000
G01 X8.125770 Y232.631180 Z-1.000000
G01 X7.210400 Y231.771181 Z-1.000000
G01 X6.409920 Y230.804179 Z-1.000000
G01 X5.737010 Y229.744179 Z-1.000000
G01 X5.202340 Y228.607179 Z-1.000000
G01 X4.814160 Y227.413181 Z-1.000000
G01 X4.578870 Y226.179180 Z-1.000000
G01 X4.500130 Y224.926180 Z-1.000000
G01 X4.578869 Y223.673179 Z-1.000000
G01 X4.814159 Y222.439181 Z-1.000000
G01 X5.202339 Y221.245180 Z-1.000000
G01 X5.737009 Y220.108181 Z-1.000000
G01 X6.409919 Y219.048180 Z-1.000000
G01 X7.210399 Y218.080181 Z-1.000000
G01 X8.125769 Y217.221180 Z-1.000000
G01 X9.141848 Y216.483179 Z-1.000000
G01 X10.242328 Y215.878180 Z-1.000000
G01 X11.409928 Y215.415178 Z-1.000000
G01 X12.626227 Y215.103178 Z-1.000000
G01 X13.872228 Y214.946180 Z-1.000000
G01 X15.128027 Y214.946180 Z-1.000000
G01 X63.616828 Y219.816173 Z-1.000000
G01 X123.436131 Y191.664172 Z-1.000000
G01 X123.727131 Y191.548172 Z-1.000000
G01 X124.031131 Y191.470172 Z-1.000000
G01 X124.343121 Y191.431172 Z-1.000000
G01 X124.657131 Y191.431172 Z-1.000000
G01 X124.968131 Y191.470172 Z-1.000000
G00 Z30.000000

(End cutting path id: path4)


(Start cutting path id: path4)
(Change tool to Default tool)

G00 Z30.000000
G00 X13.500028 Y218.926180

G01 Z-1.000000 F100.0(Penetrate)
G01 X13.500029 Y230.926180 Z-1.000000 F400.000000
G01 X36.500129 Y230.926178 Z-1.000000
G01 X36.500128 Y218.926178 Z-1.000000
G01 X13.500028 Y218.926180 Z-1.000000
G00 Z30.000000

(End cutting path id: path4)


(Start cutting path id: path4)
(Change tool to Default tool)

G00 Z30.000000
G00 X38.812828 Y223.928176

G01 Z-1.000000 F100.0(Penetrate)
G01 X38.562630 Y223.944186 Z-1.000000 F400.000000
G01 X38.324328 Y224.021186 Z-1.000000
G01 X38.112630 Y224.155184 Z-1.000000
G01 X37.941029 Y224.338186 Z-1.000000
G01 X37.820329 Y224.558185 Z-1.000000
G01 X37.757929 Y224.801186 Z-1.000000
G01 X37.757929 Y225.051185 Z-1.000000
G01 X37.820329 Y225.294187 Z-1.000000
G01 X37.941029 Y225.514185 Z-1.000000
G01 X38.112630 Y225.696187 Z-1.000000
G01 X38.324328 Y225.831185 Z-1.000000
G01 X38.562630 Y225.908185 Z-1.000000
G01 X38.812828 Y225.924195 Z-1.000000
G01 X39.059028 Y225.877195 Z-1.000000
G01 X39.285930 Y225.770195 Z-1.000000
G01 X39.479028 Y225.611196 Z-1.000000
G01 X39.626329 Y225.408195 Z-1.000000
G01 X39.718629 Y225.175195 Z-1.000000
G01 X39.750029 Y224.926196 Z-1.000000
G01 X39.718629 Y224.677196 Z-1.000000
G01 X39.626329 Y224.444196 Z-1.000000
G01 X39.479028 Y224.241195 Z-1.000000
G01 X39.285930 Y224.082196 Z-1.000000
G01 X39.059028 Y223.975196 Z-1.000000
G01 X38.812828 Y223.928176 Z-1.000000
G00 Z30.000000

(End cutting path id: path4)


(Start cutting path id: path4)
(Change tool to Default tool)

G00 Z30.000000
G00 X11.312829 Y223.928178

G01 Z-1.000000 F100.0(Penetrate)
G01 X11.062628 Y223.944188 Z-1.000000 F400.000000
G01 X10.824329 Y224.021188 Z-1.000000
G01 X10.612629 Y224.155186 Z-1.000000
G01 X10.441029 Y224.338188 Z-1.000000
G01 X10.320329 Y224.558187 Z-1.000000
G01 X10.257929 Y224.801188 Z-1.000000
G01 X10.257929 Y225.051187 Z-1.000000
G01 X10.320329 Y225.294189 Z-1.000000
G01 X10.441029 Y225.514187 Z-1.000000
G01 X10.612629 Y225.696189 Z-1.000000
G01 X10.824329 Y225.831187 Z-1.000000
G01 X11.062628 Y225.908187 Z-1.000000
G01 X11.312829 Y225.924197 Z-1.000000
G01 X11.559128 Y225.877197 Z-1.000000
G01 X11.785928 Y225.770197 Z-1.000000
G01 X11.979028 Y225.611198 Z-1.000000
G01 X12.126328 Y225.408197 Z-1.000000
G01 X12.218628 Y225.175197 Z-1.000000
G01 X12.250028 Y224.926198 Z-1.000000
G01 X12.218628 Y224.677198 Z-1.000000
G01 X12.126328 Y224.444198 Z-1.000000
G01 X11.979028 Y224.241197 Z-1.000000
G01 X11.785928 Y224.082198 Z-1.000000
G01 X11.559128 Y223.975198 Z-1.000000
G01 X11.312829 Y223.928178 Z-1.000000
G00 Z30.000000

(End cutting path id: path4)


(Start cutting path id: path4)
(Change tool to Default tool)

G00 Z30.000000
G00 X166.374120 Y170.103167

G01 Z-1.000000 F100.0(Penetrate)
G01 X167.590130 Y170.415167 Z-1.000000 F400.000000
G01 X168.758130 Y170.878167 Z-1.000000
G01 X169.858130 Y171.483167 Z-1.000000
G01 X170.874130 Y172.221167 Z-1.000000
G01 X171.790130 Y173.080167 Z-1.000000
G01 X172.590131 Y174.048167 Z-1.000000
G01 X173.263131 Y175.108166 Z-1.000000
G01 X173.798131 Y176.245166 Z-1.000000
G01 X174.186121 Y177.439166 Z-1.000000
G01 X174.421121 Y178.673166 Z-1.000000
G01 X174.500121 Y179.926166 Z-1.000000
G01 X174.421121 Y181.179166 Z-1.000000
G01 X174.186121 Y182.413167 Z-1.000000
G01 X173.798132 Y183.607167 Z-1.000000
G01 X173.263132 Y184.744167 Z-1.000000
G01 X172.590132 Y185.804167 Z-1.000000
G01 X171.790132 Y186.771167 Z-1.000000
G01 X170.874132 Y187.631167 Z-1.000000
G01 X169.858132 Y188.369167 Z-1.000000
G01 X168.758132 Y188.974167 Z-1.000000
G01 X167.590132 Y189.436167 Z-1.000000
G01 X166.374122 Y189.749167 Z-1.000000
G01 X165.128122 Y189.906168 Z-1.000000
G01 X163.872132 Y189.906168 Z-1.000000
G01 X115.383130 Y185.036172 Z-1.000000
G01 X55.564627 Y213.188176 Z-1.000000
G01 X55.272527 Y213.304174 Z-1.000000
G01 X54.968529 Y213.382174 Z-1.000000
G01 X54.657027 Y213.421174 Z-1.000000
G01 X54.343128 Y213.421174 Z-1.000000
G01 X54.031727 Y213.382174 Z-1.000000
G01 X53.727527 Y213.304174 Z-1.000000
G01 X53.435628 Y213.188176 Z-1.000000
G01 X53.160528 Y213.037175 Z-1.000000
G01 X52.906528 Y212.852176 Z-1.000000
G01 X52.677629 Y212.637176 Z-1.000000
G01 X52.477527 Y212.395175 Z-1.000000
G01 X52.309228 Y212.130176 Z-1.000000
G01 X52.175627 Y211.846175 Z-1.000000
G01 X52.078527 Y211.548175 Z-1.000000
G01 X52.019827 Y211.239176 Z-1.000000
G01 X52.000147 Y210.926176 Z-1.000000
G01 X52.019827 Y210.613174 Z-1.000000
G01 X52.078527 Y210.304175 Z-1.000000
G01 X52.175627 Y210.006175 Z-1.000000
G01 X52.309228 Y209.722174 Z-1.000000
G01 X52.477527 Y209.456175 Z-1.000000
G01 X52.677629 Y209.215174 Z-1.000000
G01 X52.906528 Y209.000176 Z-1.000000
G01 X53.160528 Y208.815174 Z-1.000000
G01 X112.371129 Y175.402172 Z-1.000000
G01 X112.955119 Y175.171172 Z-1.000000
G01 X113.563129 Y175.015172 Z-1.000000
G01 X114.186129 Y174.936172 Z-1.000000
G01 X163.872130 Y169.946167 Z-1.000000
G01 X165.128120 Y169.946167 Z-1.000000
G01 X166.374120 Y170.103167 Z-1.000000
G00 Z30.000000

(End cutting path id: path4)


(Start cutting path id: path4)
(Change tool to Default tool)

G00 Z30.000000
G00 X142.500120 Y173.926169

G01 Z-1.000000 F100.0(Penetrate)
G01 X142.500121 Y185.926170 Z-1.000000 F400.000000
G01 X165.500132 Y185.926167 Z-1.000000
G01 X165.500130 Y173.926167 Z-1.000000
G01 X142.500120 Y173.926169 Z-1.000000
G00 Z30.000000

(End cutting path id: path4)


(Start cutting path id: path4)
(Change tool to Default tool)

G00 Z30.000000
G00 X167.813121 Y178.928167

G01 Z-1.000000 F100.0(Penetrate)
G01 X167.563121 Y178.944167 Z-1.000000 F400.000000
G01 X167.324131 Y179.021167 Z-1.000000
G01 X167.112131 Y179.155167 Z-1.000000
G01 X166.941131 Y179.338167 Z-1.000000
G01 X166.820121 Y179.558167 Z-1.000000
G01 X166.758121 Y179.801167 Z-1.000000
G01 X166.758121 Y180.051167 Z-1.000000
G01 X166.820121 Y180.294167 Z-1.000000
G01 X166.941131 Y180.514167 Z-1.000000
G01 X167.112131 Y180.696167 Z-1.000000
G01 X167.324131 Y180.831167 Z-1.000000
G01 X167.563121 Y180.908167 Z-1.000000
G01 X167.813121 Y180.924167 Z-1.000000
G01 X168.059131 Y180.877167 Z-1.000000
G01 X168.286121 Y180.770167 Z-1.000000
G01 X168.479131 Y180.611167 Z-1.000000
G01 X168.626131 Y180.408177 Z-1.000000
G01 X168.718131 Y180.175177 Z-1.000000
G01 X168.750131 Y179.926167 Z-1.000000
G01 X168.718131 Y179.677167 Z-1.000000
G01 X168.626131 Y179.444167 Z-1.000000
G01 X168.479131 Y179.241177 Z-1.000000
G01 X168.286121 Y179.082167 Z-1.000000
G01 X168.059131 Y178.975167 Z-1.000000
G01 X167.813121 Y178.928167 Z-1.000000
G00 Z30.000000

(End cutting path id: path4)


(Start cutting path id: path4)
(Change tool to Default tool)

G00 Z30.000000
G00 X140.313130 Y178.928170

G01 Z-1.000000 F100.0(Penetrate)
G01 X140.063130 Y178.944170 Z-1.000000 F400.000000
G01 X139.824130 Y179.021170 Z-1.000000
G01 X139.612130 Y179.155170 Z-1.000000
G01 X139.441130 Y179.338170 Z-1.000000
G01 X139.320130 Y179.558170 Z-1.000000
G01 X139.258130 Y179.801170 Z-1.000000
G01 X139.258130 Y180.051170 Z-1.000000
G01 X139.320131 Y180.294170 Z-1.000000
G01 X139.441131 Y180.514170 Z-1.000000
G01 X139.612131 Y180.696170 Z-1.000000
G01 X139.824131 Y180.831170 Z-1.000000
G01 X140.063131 Y180.908170 Z-1.000000
G01 X140.313131 Y180.924170 Z-1.000000
G01 X140.559131 Y180.877170 Z-1.000000
G01 X140.786121 Y180.770170 Z-1.000000
G01 X140.979121 Y180.611170 Z-1.000000
G01 X141.126121 Y180.408180 Z-1.000000
G01 X141.218121 Y180.175180 Z-1.000000
G01 X141.250121 Y179.926170 Z-1.000000
G01 X141.218120 Y179.677170 Z-1.000000
G01 X141.126120 Y179.444170 Z-1.000000
G01 X140.979120 Y179.241180 Z-1.000000
G01 X140.786120 Y179.082170 Z-1.000000
G01 X140.559130 Y178.975170 Z-1.000000
G01 X140.313130 Y178.928170 Z-1.000000
G00 Z30.000000

(End cutting path id: path4)


(Start cutting path id: path4)
(Change tool to Default tool)

G00 Z30.000000
G00 X25.500027 Y205.926178

G01 Z-1.000000 F100.0(Penetrate)
G01 X13.500027 Y205.926179 Z-1.000000 F400.000000
G01 X13.500025 Y193.926183 Z-1.000000
G01 X25.500026 Y193.926181 Z-1.000000
G01 X25.500027 Y205.926178 Z-1.000000
G00 Z30.000000

(End cutting path id: path4)


(Start cutting path id: path4)
(Change tool to Default tool)

G00 Z30.000000
G00 X19.405826 Y198.429178

G01 Z-1.000000 F100.0(Penetrate)
G01 X19.219026 Y198.452178 Z-1.000000 F400.000000
G01 X19.036526 Y198.499178 Z-1.000000
G01 X18.861426 Y198.569178 Z-1.000000
G01 X18.696326 Y198.660178 Z-1.000000
G01 X18.543826 Y198.770178 Z-1.000000
G01 X18.406726 Y198.899178 Z-1.000000
G01 X18.286627 Y199.044178 Z-1.000000
G01 X18.185626 Y199.203178 Z-1.000000
G01 X18.105326 Y199.374178 Z-1.000000
G01 X18.047226 Y199.553178 Z-1.000000
G01 X18.011926 Y199.738178 Z-1.000000
G01 X18.000026 Y199.926178 Z-1.000000
G01 X18.011926 Y200.114178 Z-1.000000
G01 X18.047226 Y200.299178 Z-1.000000
G01 X18.105326 Y200.478178 Z-1.000000
G01 X18.185626 Y200.649178 Z-1.000000
G01 X18.286627 Y200.808178 Z-1.000000
G01 X18.406726 Y200.953178 Z-1.000000
G01 X18.543826 Y201.082178 Z-1.000000
G01 X18.696326 Y201.192178 Z-1.000000
G01 X18.861426 Y201.283178 Z-1.000000
G01 X19.036526 Y201.353178 Z-1.000000
G01 X19.219026 Y201.399178 Z-1.000000
G01 X19.405826 Y201.423178 Z-1.000000
G01 X19.594226 Y201.423178 Z-1.000000
G01 X19.781227 Y201.399178 Z-1.000000
G01 X19.963526 Y201.353178 Z-1.000000
G01 X20.138727 Y201.283178 Z-1.000000
G01 X20.303827 Y201.192178 Z-1.000000
G01 X20.456227 Y201.082178 Z-1.000000
G01 X20.593526 Y200.953178 Z-1.000000
G01 X20.713526 Y200.808178 Z-1.000000
G01 X20.814526 Y200.649178 Z-1.000000
G01 X20.894826 Y200.478178 Z-1.000000
G01 X20.952926 Y200.299178 Z-1.000000
G01 X20.988126 Y200.114178 Z-1.000000
G01 X21.000026 Y199.926178 Z-1.000000
G01 X20.988126 Y199.738178 Z-1.000000
G01 X20.952926 Y199.553178 Z-1.000000
G01 X20.894826 Y199.374178 Z-1.000000
G01 X20.814526 Y199.203178 Z-1.000000
G01 X20.713526 Y199.044178 Z-1.000000
G01 X20.593526 Y198.899178 Z-1.000000
G01 X20.456227 Y198.770178 Z-1.000000
G01 X20.303827 Y198.660178 Z-1.000000
G01 X20.138727 Y198.569178 Z-1.000000
G01 X19.963526 Y198.499178 Z-1.000000
G01 X19.781227 Y198.452178 Z-1.000000
G01 X19.594226 Y198.429178 Z-1.000000
G01 X19.405826 Y198.429178 Z-1.000000
G00 Z30.000000

(End cutting path id: path4)


(Start cutting path id: path4)
(Change tool to Default tool)

G00 Z30.000000
G00 X45.500027 Y205.926176

G01 Z-1.000000 F100.0(Penetrate)
G01 X33.500027 Y205.926177 Z-1.000000 F400.000000
G01 X33.500026 Y193.926181 Z-1.000000
G01 X45.500026 Y193.926179 Z-1.000000
G01 X45.500027 Y205.926176 Z-1.000000
G00 Z30.000000

(End cutting path id: path4)


(Start cutting path id: path4)
(Change tool to Default tool)

G00 Z30.000000
G00 X39.405825 Y198.429176

G01 Z-1.000000 F100.0(Penetrate)
G01 X39.219027 Y198.452176 Z-1.000000 F400.000000
G01 X39.036525 Y198.499176 Z-1.000000
G01 X38.861427 Y198.569176 Z-1.000000
G01 X38.696327 Y198.660176 Z-1.000000
G01 X38.543826 Y198.770176 Z-1.000000
G01 X38.406727 Y198.899176 Z-1.000000
G01 X38.286627 Y199.044176 Z-1.000000
G01 X38.185625 Y199.203176 Z-1.000000
G01 X38.105325 Y199.374176 Z-1.000000
G01 X38.047225 Y199.553176 Z-1.000000
G01 X38.011925 Y199.738176 Z-1.000000
G01 X38.000015 Y199.926176 Z-1.000000
G01 X38.011925 Y200.114176 Z-1.000000
G01 X38.047225 Y200.299176 Z-1.000000
G01 X38.105325 Y200.478176 Z-1.000000
G01 X38.185625 Y200.649176 Z-1.000000
G01 X38.286628 Y200.808176 Z-1.000000
G01 X38.406728 Y200.953176 Z-1.000000
G01 X38.543827 Y201.082176 Z-1.000000
G01 X38.696328 Y201.192176 Z-1.000000
G01 X38.861428 Y201.283176 Z-1.000000
G01 X39.036526 Y201.353176 Z-1.000000
G01 X39.219028 Y201.399176 Z-1.000000
G01 X39.405826 Y201.423176 Z-1.000000
G01 X39.594228 Y201.423176 Z-1.000000
G01 X39.781228 Y201.399176 Z-1.000000
G01 X39.963528 Y201.353176 Z-1.000000
G01 X40.138727 Y201.283176 Z-1.000000
G01 X40.303827 Y201.192176 Z-1.000000
G01 X40.456227 Y201.082176 Z-1.000000
G01 X40.593528 Y200.953176 Z-1.000000
G01 X40.713527 Y200.808176 Z-1.000000
G01 X40.814526 Y200.649176 Z-1.000000
G01 X40.894826 Y200.478176 Z-1.000000
G01 X40.952926 Y200.299176 Z-1.000000
G01 X40.988125 Y200.114176 Z-1.000000
G01 X41.000035 Y199.926176 Z-1.000000
G01 X40.988125 Y199.738176 Z-1.000000
G01 X40.952925 Y199.553176 Z-1.000000
G01 X40.894825 Y199.374176 Z-1.000000
G01 X40.814525 Y199.203176 Z-1.000000
G01 X40.713526 Y199.044176 Z-1.000000
G01 X40.593527 Y198.899176 Z-1.000000
G01 X40.456226 Y198.770176 Z-1.000000
G01 X40.303826 Y198.660176 Z-1.000000
G01 X40.138726 Y198.569176 Z-1.000000
G01 X39.963527 Y198.499176 Z-1.000000
G01 X39.781227 Y198.452176 Z-1.000000
G01 X39.594227 Y198.429176 Z-1.000000
G01 X39.405825 Y198.429176 Z-1.000000
G00 Z30.000000

(End cutting path id: path4)


(Start cutting path id: path4)
(Change tool to Default tool)

G00 Z30.000000
G00 X25.500025 Y185.926181

G01 Z-1.000000 F100.0(Penetrate)
G01 X13.500025 Y185.926182 Z-1.000000 F400.000000
G01 X13.500023 Y173.926182 Z-1.000000
G01 X25.500024 Y173.926181 Z-1.000000
G01 X25.500025 Y185.926181 Z-1.000000
G00 Z30.000000

(End cutting path id: path4)


(Start cutting path id: path4)
(Change tool to Default tool)

G00 Z30.000000
G00 X19.405824 Y178.429182

G01 Z-1.000000 F100.0(Penetrate)
G01 X19.219024 Y178.452182 Z-1.000000 F400.000000
G01 X19.036524 Y178.499182 Z-1.000000
G01 X18.861424 Y178.569182 Z-1.000000
G01 X18.696324 Y178.660182 Z-1.000000
G01 X18.543824 Y178.770182 Z-1.000000
G01 X18.406724 Y178.899182 Z-1.000000
G01 X18.286625 Y179.044182 Z-1.000000
G01 X18.185624 Y179.203182 Z-1.000000
G01 X18.105324 Y179.374182 Z-1.000000
G01 X18.047224 Y179.553182 Z-1.000000
G01 X18.011924 Y179.738182 Z-1.000000
G01 X18.000024 Y179.926182 Z-1.000000
G01 X18.011924 Y180.114182 Z-1.000000
G01 X18.047224 Y180.299182 Z-1.000000
G01 X18.105324 Y180.478182 Z-1.000000
G01 X18.185624 Y180.649182 Z-1.000000
G01 X18.286625 Y180.808182 Z-1.000000
G01 X18.406724 Y180.953182 Z-1.000000
G01 X18.543824 Y181.082182 Z-1.000000
G01 X18.696324 Y181.192182 Z-1.000000
G01 X18.861424 Y181.283182 Z-1.000000
G01 X19.036524 Y181.353182 Z-1.000000
G01 X19.219024 Y181.399182 Z-1.000000
G01 X19.405824 Y181.423182 Z-1.000000
G01 X19.594224 Y181.423182 Z-1.000000
G01 X19.781225 Y181.399182 Z-1.000000
G01 X19.963524 Y181.353182 Z-1.000000
G01 X20.138725 Y181.283182 Z-1.000000
G01 X20.303825 Y181.192182 Z-1.000000
G01 X20.456225 Y181.082182 Z-1.000000
G01 X20.593524 Y180.953182 Z-1.000000
G01 X20.713524 Y180.808182 Z-1.000000
G01 X20.814524 Y180.649182 Z-1.000000
G01 X20.894824 Y180.478182 Z-1.000000
G01 X20.952924 Y180.299182 Z-1.000000
G01 X20.988124 Y180.114182 Z-1.000000
G01 X21.000024 Y179.926182 Z-1.000000
G01 X20.988124 Y179.738182 Z-1.000000
G01 X20.952924 Y179.553182 Z-1.000000
G01 X20.894824 Y179.374182 Z-1.000000
G01 X20.814524 Y179.203182 Z-1.000000
G01 X20.713524 Y179.044182 Z-1.000000
G01 X20.593524 Y178.899182 Z-1.000000
G01 X20.456225 Y178.770182 Z-1.000000
G01 X20.303825 Y178.660182 Z-1.000000
G01 X20.138725 Y178.569182 Z-1.000000
G01 X19.963524 Y178.499182 Z-1.000000
G01 X19.781225 Y178.452182 Z-1.000000
G01 X19.594224 Y178.429182 Z-1.000000
G01 X19.405824 Y178.429182 Z-1.000000
G00 Z30.000000

(End cutting path id: path4)


(Start cutting path id: path4)
(Change tool to Default tool)

G00 Z30.000000
G00 X45.500025 Y185.926179

G01 Z-1.000000 F100.0(Penetrate)
G01 X33.500025 Y185.926180 Z-1.000000 F400.000000
G01 X33.500024 Y173.926180 Z-1.000000
G01 X45.500024 Y173.926179 Z-1.000000
G01 X45.500025 Y185.926179 Z-1.000000
G00 Z30.000000

(End cutting path id: path4)


(Start cutting path id: path4)
(Change tool to Default tool)

G00 Z30.000000
G00 X39.405823 Y178.429180

G01 Z-1.000000 F100.0(Penetrate)
G01 X39.219025 Y178.452180 Z-1.000000 F400.000000
G01 X39.036523 Y178.499180 Z-1.000000
G01 X38.861425 Y178.569180 Z-1.000000
G01 X38.696325 Y178.660180 Z-1.000000
G01 X38.543824 Y178.770180 Z-1.000000
G01 X38.406725 Y178.899180 Z-1.000000
G01 X38.286625 Y179.044180 Z-1.000000
G01 X38.185623 Y179.203180 Z-1.000000
G01 X38.105323 Y179.374180 Z-1.000000
G01 X38.047223 Y179.553180 Z-1.000000
G01 X38.011923 Y179.738180 Z-1.000000
G01 X38.000013 Y179.926180 Z-1.000000
G01 X38.011923 Y180.114180 Z-1.000000
G01 X38.047223 Y180.299180 Z-1.000000
G01 X38.105323 Y180.478180 Z-1.000000
G01 X38.185624 Y180.649180 Z-1.000000
G01 X38.286626 Y180.808180 Z-1.000000
G01 X38.406726 Y180.953180 Z-1.000000
G01 X38.543825 Y181.082180 Z-1.000000
G01 X38.696326 Y181.192180 Z-1.000000
G01 X38.861426 Y181.283180 Z-1.000000
G01 X39.036524 Y181.353180 Z-1.000000
G01 X39.219026 Y181.399180 Z-1.000000
G01 X39.405824 Y181.423180 Z-1.000000
G01 X39.594226 Y181.423180 Z-1.000000
G01 X39.781226 Y181.399180 Z-1.000000
G01 X39.963526 Y181.353180 Z-1.000000
G01 X40.138725 Y181.283180 Z-1.000000
G01 X40.303825 Y181.192180 Z-1.000000
G01 X40.456225 Y181.082180 Z-1.000000
G01 X40.593526 Y180.953180 Z-1.000000
G01 X40.713525 Y180.808180 Z-1.000000
G01 X40.814524 Y180.649180 Z-1.000000
G01 X40.894824 Y180.478180 Z-1.000000
G01 X40.952924 Y180.299180 Z-1.000000
G01 X40.988124 Y180.114180 Z-1.000000
G01 X41.000034 Y179.926180 Z-1.000000
G01 X40.988123 Y179.738180 Z-1.000000
G01 X40.952923 Y179.553180 Z-1.000000
G01 X40.894823 Y179.374180 Z-1.000000
G01 X40.814523 Y179.203180 Z-1.000000
G01 X40.713524 Y179.044180 Z-1.000000
G01 X40.593525 Y178.899180 Z-1.000000
G01 X40.456224 Y178.770180 Z-1.000000
G01 X40.303824 Y178.660180 Z-1.000000
G01 X40.138724 Y178.569180 Z-1.000000
G01 X39.963525 Y178.499180 Z-1.000000
G01 X39.781225 Y178.452180 Z-1.000000
G01 X39.594225 Y178.429180 Z-1.000000
G01 X39.405823 Y178.429180 Z-1.000000
G00 Z30.000000

(End cutting path id: path4)


(Start cutting path id: path4)
(Change tool to Default tool)

G00 Z30.000000
G00 X105.427113 Y6.431750

G01 Z-1.000000 F100.0(Penetrate)
G01 X115.766113 Y9.086329 Z-1.000000 F400.000000
G01 X125.691114 Y13.015778 Z-1.000000
G01 X135.045114 Y18.158267 Z-1.000000
G01 X143.681115 Y24.432576 Z-1.000000
G01 X151.462116 Y31.739566 Z-1.000000
G01 X158.266117 Y39.964265 Z-1.000000
G01 X163.986108 Y48.977065 Z-1.000000
G01 X168.531119 Y58.635565 Z-1.000000
G01 X171.830120 Y68.787364 Z-1.000000
G01 X173.830111 Y79.272765 Z-1.000000
G01 X174.500112 Y89.926165 Z-1.000000
G01 X173.830113 Y100.579165 Z-1.000000
G01 X171.830124 Y111.065165 Z-1.000000
G01 X168.531125 Y121.216166 Z-1.000000
G01 X163.986116 Y130.875167 Z-1.000000
G01 X158.266127 Y139.888167 Z-1.000000
G01 X151.462128 Y148.112168 Z-1.000000
G01 X143.681128 Y155.420169 Z-1.000000
G01 X135.045129 Y161.694170 Z-1.000000
G01 X125.691129 Y166.836171 Z-1.000000
G01 X115.766129 Y170.766172 Z-1.000000
G01 X105.427129 Y173.420173 Z-1.000000
G01 X94.837226 Y174.758174 Z-1.000000
G01 X84.162924 Y174.758175 Z-1.000000
G01 X73.572724 Y173.420176 Z-1.000000
G01 X63.233624 Y170.766177 Z-1.000000
G01 X53.308822 Y166.836178 Z-1.000000
G01 X43.954822 Y161.694179 Z-1.000000
G01 X35.319022 Y155.420180 Z-1.000000
G01 X27.537721 Y148.112180 Z-1.000000
G01 X20.733621 Y139.888181 Z-1.000000
G01 X15.014019 Y130.875181 Z-1.000000
G01 X10.469019 Y121.216181 Z-1.000000
G01 X7.170558 Y111.065182 Z-1.000000
G01 X5.170287 Y100.579182 Z-1.000000
G01 X4.500116 Y89.926181 Z-1.000000
G01 X5.170285 Y79.272781 Z-1.000000
G01 X7.170554 Y68.787381 Z-1.000000
G01 X10.469013 Y58.635580 Z-1.000000
G01 X15.014011 Y48.977080 Z-1.000000
G01 X20.733611 Y39.964279 Z-1.000000
G01 X27.537710 Y31.739578 Z-1.000000
G01 X35.319009 Y24.432587 Z-1.000000
G01 X43.954808 Y18.158276 Z-1.000000
G01 X53.308807 Y13.015785 Z-1.000000
G01 X63.233608 Y9.086334 Z-1.000000
G01 X73.572707 Y6.431753 Z-1.000000
G01 X84.162907 Y5.093852 Z-1.000000
G01 X94.837209 Y5.093851 Z-1.000000
G01 X105.427113 Y6.431750 Z-1.000000
G00 Z30.000000

(End cutting path id: path4)


(Start cutting path id: path4)
(Change tool to Default tool)

G00 Z30.000000
G00 X118.971126 Y134.383171

G01 Z-1.000000 F100.0(Penetrate)
G01 X133.756128 Y152.002170 Z-1.000000 F400.000000
G01 X142.948117 Y144.289169 Z-1.000000
G01 X128.164125 Y126.670170 Z-1.000000
G01 X118.971126 Y134.383171 Z-1.000000
G00 Z30.000000

(End cutting path id: path4)


(Start cutting path id: path4)
(Change tool to Default tool)

G00 Z30.000000
G00 X36.051922 Y144.289179

G01 Z-1.000000 F100.0(Penetrate)
G01 X45.244421 Y152.002179 Z-1.000000 F400.000000
G01 X60.028519 Y134.383177 Z-1.000000
G01 X50.836019 Y126.670178 Z-1.000000
G01 X36.051922 Y144.289179 Z-1.000000
G00 Z30.000000

(End cutting path id: path4)


(Start cutting path id: path4)
(Change tool to Default tool)

G00 Z30.000000
G00 X39.146121 Y148.870179

G01 Z-1.000000 F100.0(Penetrate)
G01 X38.899522 Y148.916179 Z-1.000000 F400.000000
G01 X38.672022 Y149.021179 Z-1.000000
G01 X38.477821 Y149.179179 Z-1.000000
G01 X38.329022 Y149.381179 Z-1.000000
G01 X38.235122 Y149.614179 Z-1.000000
G01 X38.201922 Y149.862179 Z-1.000000
G01 X38.231623 Y150.111179 Z-1.000000
G01 X38.322323 Y150.345179 Z-1.000000
G01 X38.468124 Y150.548179 Z-1.000000
G01 X38.660325 Y150.710179 Z-1.000000
G01 X38.886224 Y150.818179 Z-1.000000
G01 X39.132223 Y150.866179 Z-1.000000
G01 X39.382524 Y150.853179 Z-1.000000
G01 X39.621424 Y150.777179 Z-1.000000
G01 X39.834025 Y150.644179 Z-1.000000
G01 X40.006824 Y150.462179 Z-1.000000
G01 X40.129125 Y150.244179 Z-1.000000
G01 X40.193225 Y150.001179 Z-1.000000
G01 X40.194825 Y149.751179 Z-1.000000
G01 X40.134324 Y149.507179 Z-1.000000
G01 X40.014923 Y149.287179 Z-1.000000
G01 X39.844624 Y149.103179 Z-1.000000
G01 X39.633923 Y148.967179 Z-1.000000
G01 X39.396224 Y148.888179 Z-1.000000
G01 X39.146121 Y148.870179 Z-1.000000
G00 Z30.000000

(End cutting path id: path4)


(Start cutting path id: path4)
(Change tool to Default tool)

G00 Z30.000000
G00 X139.854127 Y148.870169

G01 Z-1.000000 F100.0(Penetrate)
G01 X139.604117 Y148.888169 Z-1.000000 F400.000000
G01 X139.366127 Y148.967169 Z-1.000000
G01 X139.155127 Y149.103169 Z-1.000000
G01 X138.985127 Y149.287169 Z-1.000000
G01 X138.866127 Y149.507179 Z-1.000000
G01 X138.805127 Y149.751169 Z-1.000000
G01 X138.807128 Y150.001169 Z-1.000000
G01 X138.871128 Y150.244169 Z-1.000000
G01 X138.993128 Y150.462169 Z-1.000000
G01 X139.166128 Y150.644169 Z-1.000000
G01 X139.379128 Y150.777179 Z-1.000000
G01 X139.617128 Y150.853179 Z-1.000000
G01 X139.868128 Y150.866179 Z-1.000000
G01 X140.114128 Y150.818179 Z-1.000000
G01 X140.340128 Y150.710179 Z-1.000000
G01 X140.532128 Y150.548169 Z-1.000000
G01 X140.678128 Y150.345179 Z-1.000000
G01 X140.768128 Y150.111179 Z-1.000000
G01 X140.798128 Y149.862179 Z-1.000000
G01 X140.765128 Y149.614179 Z-1.000000
G01 X140.671127 Y149.381179 Z-1.000000
G01 X140.522127 Y149.179179 Z-1.000000
G01 X140.328127 Y149.021179 Z-1.000000
G01 X140.100127 Y148.916179 Z-1.000000
G01 X139.854127 Y148.870169 Z-1.000000
G00 Z30.000000

(End cutting path id: path4)


(Start cutting path id: path4)
(Change tool to Default tool)

G00 Z30.000000
G00 X56.822819 Y127.804177

G01 Z-1.000000 F100.0(Penetrate)
G01 X56.576219 Y127.849177 Z-1.000000 F400.000000
G01 X56.348720 Y127.955177 Z-1.000000
G01 X56.154320 Y128.113177 Z-1.000000
G01 X56.005719 Y128.315177 Z-1.000000
G01 X55.911719 Y128.547177 Z-1.000000
G01 X55.878619 Y128.796177 Z-1.000000
G01 X55.908219 Y129.045177 Z-1.000000
G01 X55.999019 Y129.278177 Z-1.000000
G01 X56.144818 Y129.482177 Z-1.000000
G01 X56.336818 Y129.643177 Z-1.000000
G01 X56.562918 Y129.752177 Z-1.000000
G01 X56.808819 Y129.800177 Z-1.000000
G01 X57.059019 Y129.786177 Z-1.000000
G01 X57.298018 Y129.710177 Z-1.000000
G01 X57.510518 Y129.578177 Z-1.000000
G01 X57.683418 Y129.396177 Z-1.000000
G01 X57.805819 Y129.177177 Z-1.000000
G01 X57.869719 Y128.935177 Z-1.000000
G01 X57.871619 Y128.684177 Z-1.000000
G01 X57.810919 Y128.441177 Z-1.000000
G01 X57.691719 Y128.221177 Z-1.000000
G01 X57.521417 Y128.037177 Z-1.000000
G01 X57.310719 Y127.901177 Z-1.000000
G01 X57.072818 Y127.822177 Z-1.000000
G01 X56.822819 Y127.804177 Z-1.000000
G00 Z30.000000

(End cutting path id: path4)


(Start cutting path id: path4)
(Change tool to Default tool)

G00 Z30.000000
G00 X122.177125 Y127.804171

G01 Z-1.000000 F100.0(Penetrate)
G01 X121.927125 Y127.822171 Z-1.000000 F400.000000
G01 X121.689125 Y127.901171 Z-1.000000
G01 X121.479125 Y128.037171 Z-1.000000
G01 X121.308125 Y128.221171 Z-1.000000
G01 X121.189115 Y128.441171 Z-1.000000
G01 X121.128115 Y128.684171 Z-1.000000
G01 X121.130115 Y128.935181 Z-1.000000
G01 X121.194115 Y129.177171 Z-1.000000
G01 X121.317115 Y129.396171 Z-1.000000
G01 X121.489115 Y129.578171 Z-1.000000
G01 X121.702115 Y129.710171 Z-1.000000
G01 X121.941115 Y129.786171 Z-1.000000
G01 X122.191115 Y129.800171 Z-1.000000
G01 X122.437115 Y129.752171 Z-1.000000
G01 X122.663115 Y129.643171 Z-1.000000
G01 X122.855115 Y129.482171 Z-1.000000
G01 X123.001115 Y129.278170 Z-1.000000
G01 X123.092115 Y129.045170 Z-1.000000
G01 X123.121115 Y128.796170 Z-1.000000
G01 X123.088115 Y128.547170 Z-1.000000
G01 X122.994115 Y128.315170 Z-1.000000
G01 X122.846115 Y128.113170 Z-1.000000
G01 X122.651115 Y127.955171 Z-1.000000
G01 X122.424115 Y127.849171 Z-1.000000
G01 X122.177125 Y127.804171 Z-1.000000
G00 Z30.000000

(End cutting path id: path4)


(Start cutting path id: path4)
(Change tool to Default tool)

G00 Z30.000000
G00 X141.367124 Y118.429168

G01 Z-1.000000 F100.0(Penetrate)
G01 X141.180124 Y118.452168 Z-1.000000 F400.000000
G01 X140.998114 Y118.499169 Z-1.000000
G01 X140.823124 Y118.569169 Z-1.000000
G01 X140.658124 Y118.659169 Z-1.000000
G01 X140.505124 Y118.770169 Z-1.000000
G01 X140.368114 Y118.899169 Z-1.000000
G01 X140.248125 Y119.044169 Z-1.000000
G01 X140.147125 Y119.203169 Z-1.000000
G01 X140.067125 Y119.374169 Z-1.000000
G01 X140.009125 Y119.553169 Z-1.000000
G01 X139.973125 Y119.738169 Z-1.000000
G01 X139.961125 Y119.926169 Z-1.000000
G01 X139.973125 Y120.114169 Z-1.000000
G01 X140.009125 Y120.299179 Z-1.000000
G01 X140.067125 Y120.478169 Z-1.000000
G01 X140.147125 Y120.649169 Z-1.000000
G01 X140.248125 Y120.808179 Z-1.000000
G01 X140.368115 Y120.953179 Z-1.000000
G01 X140.505125 Y121.082179 Z-1.000000
G01 X140.658125 Y121.192169 Z-1.000000
G01 X140.823125 Y121.283169 Z-1.000000
G01 X140.998115 Y121.353169 Z-1.000000
G01 X141.180125 Y121.399169 Z-1.000000
G01 X141.367125 Y121.423169 Z-1.000000
G01 X141.556125 Y121.423169 Z-1.000000
G01 X141.743115 Y121.399168 Z-1.000000
G01 X141.925125 Y121.353168 Z-1.000000
G01 X142.100115 Y121.283168 Z-1.000000
G01 X142.265125 Y121.192168 Z-1.000000
G01 X142.418115 Y121.082178 Z-1.000000
G01 X142.555125 Y120.953178 Z-1.000000
G01 X142.675115 Y120.808178 Z-1.000000
G01 X142.776115 Y120.649168 Z-1.000000
G01 X142.856115 Y120.478168 Z-1.000000
G01 X142.914115 Y120.299178 Z-1.000000
G01 X142.950115 Y120.114168 Z-1.000000
G01 X142.961115 Y119.926168 Z-1.000000
G01 X142.950115 Y119.738168 Z-1.000000
G01 X142.914115 Y119.553168 Z-1.000000
G01 X142.856115 Y119.374168 Z-1.000000
G01 X142.776115 Y119.203168 Z-1.000000
G01 X142.675115 Y119.044168 Z-1.000000
G01 X142.555125 Y118.899168 Z-1.000000
G01 X142.418115 Y118.770168 Z-1.000000
G01 X142.265125 Y118.659168 Z-1.000000
G01 X142.100114 Y118.569168 Z-1.000000
G01 X141.925124 Y118.499168 Z-1.000000
G01 X141.743114 Y118.452168 Z-1.000000
G01 X141.556124 Y118.429168 Z-1.000000
G01 X141.367124 Y118.429168 Z-1.000000
G00 Z30.000000

(End cutting path id: path4)


(Start cutting path id: path4)
(Change tool to Default tool)

G00 Z30.000000
G00 X37.444318 Y118.429179

G01 Z-1.000000 F100.0(Penetrate)
G01 X37.257419 Y118.452179 Z-1.000000 F400.000000
G01 X37.075018 Y118.499179 Z-1.000000
G01 X36.899819 Y118.569179 Z-1.000000
G01 X36.734719 Y118.659179 Z-1.000000
G01 X36.582319 Y118.770179 Z-1.000000
G01 X36.445019 Y118.899179 Z-1.000000
G01 X36.325117 Y119.044179 Z-1.000000
G01 X36.224018 Y119.203179 Z-1.000000
G01 X36.143818 Y119.374179 Z-1.000000
G01 X36.085618 Y119.553179 Z-1.000000
G01 X36.050418 Y119.738179 Z-1.000000
G01 X36.038509 Y119.926179 Z-1.000000
G01 X36.050419 Y120.114179 Z-1.000000
G01 X36.085619 Y120.299189 Z-1.000000
G01 X36.143819 Y120.478179 Z-1.000000
G01 X36.224019 Y120.649179 Z-1.000000
G01 X36.325118 Y120.808189 Z-1.000000
G01 X36.445020 Y120.953189 Z-1.000000
G01 X36.582320 Y121.082189 Z-1.000000
G01 X36.734720 Y121.192179 Z-1.000000
G01 X36.899820 Y121.283179 Z-1.000000
G01 X37.075019 Y121.353179 Z-1.000000
G01 X37.257420 Y121.399179 Z-1.000000
G01 X37.444319 Y121.423179 Z-1.000000
G01 X37.632718 Y121.423179 Z-1.000000
G01 X37.819620 Y121.399179 Z-1.000000
G01 X38.002019 Y121.353179 Z-1.000000
G01 X38.177220 Y121.283179 Z-1.000000
G01 X38.342320 Y121.192179 Z-1.000000
G01 X38.494720 Y121.082189 Z-1.000000
G01 X38.632018 Y120.953189 Z-1.000000
G01 X38.752020 Y120.808189 Z-1.000000
G01 X38.853019 Y120.649179 Z-1.000000
G01 X38.933219 Y120.478179 Z-1.000000
G01 X38.991419 Y120.299189 Z-1.000000
G01 X39.026619 Y120.114179 Z-1.000000
G01 X39.038529 Y119.926179 Z-1.000000
G01 X39.026619 Y119.738179 Z-1.000000
G01 X38.991419 Y119.553179 Z-1.000000
G01 X38.933219 Y119.374179 Z-1.000000
G01 X38.853018 Y119.203179 Z-1.000000
G01 X38.752019 Y119.044179 Z-1.000000
G01 X38.632017 Y118.899179 Z-1.000000
G01 X38.494719 Y118.770179 Z-1.000000
G01 X38.342319 Y118.659179 Z-1.000000
G01 X38.177219 Y118.569179 Z-1.000000
G01 X38.002018 Y118.499179 Z-1.000000
G01 X37.819619 Y118.452179 Z-1.000000
G01 X37.632717 Y118.429179 Z-1.000000
G01 X37.444318 Y118.429179 Z-1.000000
G00 Z30.000000

(End cutting path id: path4)


(Start cutting path id: path4)
(Change tool to Default tool)

G00 Z30.000000
G00 X13.612816 Y97.214581

G01 Z-1.000000 F100.0(Penetrate)
G01 X15.696518 Y109.032181 Z-1.000000 F400.000000
G01 X38.347118 Y105.038178 Z-1.000000
G01 X36.263317 Y93.220578 Z-1.000000
G01 X13.612816 Y97.214581 Z-1.000000
G00 Z30.000000

(End cutting path id: path4)


(Start cutting path id: path4)
(Change tool to Default tool)

G00 Z30.000000
G00 X140.653123 Y105.038168

G01 Z-1.000000 F100.0(Penetrate)
G01 X163.303124 Y109.032166 Z-1.000000 F400.000000
G01 X165.387113 Y97.214566 Z-1.000000
G01 X142.737112 Y93.220568 Z-1.000000
G01 X140.653123 Y105.038168 Z-1.000000
G00 Z30.000000

(End cutting path id: path4)


(Start cutting path id: path4)
(Change tool to Default tool)

G00 Z30.000000
G00 X12.452816 Y102.514181

G01 Z-1.000000 F100.0(Penetrate)
G01 X12.203717 Y102.542181 Z-1.000000 F400.000000
G01 X11.969317 Y102.631181 Z-1.000000
G01 X11.764516 Y102.775181 Z-1.000000
G01 X11.602016 Y102.966181 Z-1.000000
G01 X11.492116 Y103.192181 Z-1.000000
G01 X11.441816 Y103.437181 Z-1.000000
G01 X11.454016 Y103.688181 Z-1.000000
G01 X11.528116 Y103.927181 Z-1.000000
G01 X11.659516 Y104.140181 Z-1.000000
G01 X11.839717 Y104.315181 Z-1.000000
G01 X12.057818 Y104.438181 Z-1.000000
G01 X12.299618 Y104.504181 Z-1.000000
G01 X12.550317 Y104.508181 Z-1.000000
G01 X12.793917 Y104.449181 Z-1.000000
G01 X13.015317 Y104.331181 Z-1.000000
G01 X13.200417 Y104.162181 Z-1.000000
G01 X13.337716 Y103.952181 Z-1.000000
G01 X13.418416 Y103.715181 Z-1.000000
G01 X13.437616 Y103.465181 Z-1.000000
G01 X13.394116 Y103.218181 Z-1.000000
G01 X13.290516 Y102.990181 Z-1.000000
G01 X13.133517 Y102.794181 Z-1.000000
G01 X12.932716 Y102.644181 Z-1.000000
G01 X12.700917 Y102.549181 Z-1.000000
G01 X12.452816 Y102.514181 Z-1.000000
G00 Z30.000000

(End cutting path id: path4)


(Start cutting path id: path4)
(Change tool to Default tool)

G00 Z30.000000
G00 X166.547113 Y102.514166

G01 Z-1.000000 F100.0(Penetrate)
G01 X166.299123 Y102.549166 Z-1.000000 F400.000000
G01 X166.067123 Y102.644166 Z-1.000000
G01 X165.866113 Y102.794166 Z-1.000000
G01 X165.709123 Y102.990166 Z-1.000000
G01 X165.606123 Y103.218166 Z-1.000000
G01 X165.562123 Y103.465166 Z-1.000000
G01 X165.582124 Y103.715166 Z-1.000000
G01 X165.662124 Y103.952166 Z-1.000000
G01 X165.800124 Y104.162166 Z-1.000000
G01 X165.985124 Y104.331166 Z-1.000000
G01 X166.206124 Y104.449166 Z-1.000000
G01 X166.450124 Y104.508166 Z-1.000000
G01 X166.700124 Y104.504166 Z-1.000000
G01 X166.942124 Y104.438166 Z-1.000000
G01 X167.160124 Y104.315166 Z-1.000000
G01 X167.340124 Y104.140166 Z-1.000000
G01 X167.472124 Y103.927166 Z-1.000000
G01 X167.546124 Y103.688166 Z-1.000000
G01 X167.558124 Y103.437166 Z-1.000000
G01 X167.508123 Y103.192166 Z-1.000000
G01 X167.398123 Y102.966166 Z-1.000000
G01 X167.235133 Y102.775166 Z-1.000000
G01 X167.031123 Y102.631166 Z-1.000000
G01 X166.796123 Y102.542166 Z-1.000000
G01 X166.547113 Y102.514166 Z-1.000000
G00 Z30.000000

(End cutting path id: path4)


(Start cutting path id: path4)
(Change tool to Default tool)

G00 Z30.000000
G00 X139.465122 Y97.738868

G01 Z-1.000000 F100.0(Penetrate)
G01 X139.217122 Y97.773768 Z-1.000000 F400.000000
G01 X138.985122 Y97.869268 Z-1.000000
G01 X138.784122 Y98.019468 Z-1.000000
G01 X138.627112 Y98.214768 Z-1.000000
G01 X138.524112 Y98.442968 Z-1.000000
G01 X138.480112 Y98.689868 Z-1.000000
G01 X138.499112 Y98.939868 Z-1.000000
G01 X138.580113 Y99.177068 Z-1.000000
G01 X138.717113 Y99.386968 Z-1.000000
G01 X138.902113 Y99.555868 Z-1.000000
G01 X139.124113 Y99.673668 Z-1.000000
G01 X139.367113 Y99.732568 Z-1.000000
G01 X139.618113 Y99.729568 Z-1.000000
G01 X139.860113 Y99.663768 Z-1.000000
G01 X140.078113 Y99.539968 Z-1.000000
G01 X140.258113 Y99.365868 Z-1.000000
G01 X140.390113 Y99.152268 Z-1.000000
G01 X140.464113 Y98.912868 Z-1.000000
G01 X140.476113 Y98.662468 Z-1.000000
G01 X140.426112 Y98.416968 Z-1.000000
G01 X140.316112 Y98.191768 Z-1.000000
G01 X140.153112 Y98.000868 Z-1.000000
G01 X139.948112 Y97.856368 Z-1.000000
G01 X139.714112 Y97.767268 Z-1.000000
G01 X139.465122 Y97.738868 Z-1.000000
G00 Z30.000000

(End cutting path id: path4)


(Start cutting path id: path4)
(Change tool to Default tool)

G00 Z30.000000
G00 X39.535017 Y97.738878

G01 Z-1.000000 F100.0(Penetrate)
G01 X39.285917 Y97.766778 Z-1.000000 F400.000000
G01 X39.051517 Y97.855878 Z-1.000000
G01 X38.846716 Y98.000378 Z-1.000000
G01 X38.684217 Y98.191278 Z-1.000000
G01 X38.574317 Y98.416478 Z-1.000000
G01 X38.524017 Y98.661978 Z-1.000000
G01 X38.536217 Y98.912378 Z-1.000000
G01 X38.610418 Y99.151778 Z-1.000000
G01 X38.741718 Y99.365378 Z-1.000000
G01 X38.921918 Y99.539478 Z-1.000000
G01 X39.140016 Y99.663278 Z-1.000000
G01 X39.381816 Y99.729078 Z-1.000000
G01 X39.632517 Y99.733078 Z-1.000000
G01 X39.876116 Y99.674178 Z-1.000000
G01 X40.097517 Y99.556378 Z-1.000000
G01 X40.282617 Y99.387478 Z-1.000000
G01 X40.419719 Y99.177588 Z-1.000000
G01 X40.500619 Y98.940378 Z-1.000000
G01 X40.519829 Y98.690378 Z-1.000000
G01 X40.476428 Y98.443488 Z-1.000000
G01 X40.372827 Y98.215278 Z-1.000000
G01 X40.215726 Y98.019988 Z-1.000000
G01 X40.014926 Y97.869778 Z-1.000000
G01 X39.783227 Y97.774278 Z-1.000000
G01 X39.535017 Y97.738878 Z-1.000000
G00 Z30.000000

(End cutting path id: path4)


(Start cutting path id: path4)
(Change tool to Default tool)

G00 Z30.000000
G00 X20.682012 Y57.122179

G01 Z-1.000000 F100.0(Penetrate)
G01 X40.600714 Y68.622277 Z-1.000000 F400.000000
G01 X46.600614 Y58.229977 Z-1.000000
G01 X26.682111 Y46.729878 Z-1.000000
G01 X20.682012 Y57.122179 Z-1.000000
G00 Z30.000000

(End cutting path id: path4)


(Start cutting path id: path4)
(Change tool to Default tool)

G00 Z30.000000
G00 X132.399118 Y58.229968

G01 Z-1.000000 F100.0(Penetrate)
G01 X138.399110 Y68.622268 Z-1.000000 F400.000000
G01 X158.318119 Y57.122166 Z-1.000000
G01 X152.318118 Y46.729866 Z-1.000000
G01 X132.399118 Y58.229968 Z-1.000000
G00 Z30.000000

(End cutting path id: path4)


(Start cutting path id: path4)
(Change tool to Default tool)

G00 Z30.000000
G00 X45.507313 Y63.551977

G01 Z-1.000000 F100.0(Penetrate)
G01 X45.260113 Y63.593777 Z-1.000000 F400.000000
G01 X45.031312 Y63.695677 Z-1.000000
G01 X44.834713 Y63.851477 Z-1.000000
G01 X44.683213 Y64.051077 Z-1.000000
G01 X44.586013 Y64.282077 Z-1.000000
G01 X44.549413 Y64.530177 Z-1.000000
G01 X44.575603 Y64.779377 Z-1.000000
G01 X44.663103 Y65.014377 Z-1.000000
G01 X44.806004 Y65.220177 Z-1.000000
G01 X44.995904 Y65.384077 Z-1.000000
G01 X45.220305 Y65.495477 Z-1.000000
G01 X45.465505 Y65.547477 Z-1.000000
G01 X45.716105 Y65.537177 Z-1.000000
G01 X45.955905 Y65.464677 Z-1.000000
G01 X46.170305 Y65.334777 Z-1.000000
G01 X46.345803 Y65.155677 Z-1.000000
G01 X46.471104 Y64.938677 Z-1.000000
G01 X46.538504 Y64.697177 Z-1.000000
G01 X46.543704 Y64.446577 Z-1.000000
G01 X46.486504 Y64.202477 Z-1.000000
G01 X46.370404 Y63.980477 Z-1.000000
G01 X46.202704 Y63.794177 Z-1.000000
G01 X45.993905 Y63.655377 Z-1.000000
G01 X45.757106 Y63.573077 Z-1.000000
G01 X45.507313 Y63.551977 Z-1.000000
G00 Z30.000000

(End cutting path id: path4)


(Start cutting path id: path4)
(Change tool to Default tool)

G00 Z30.000000
G00 X133.493119 Y63.551968

G01 Z-1.000000 F100.0(Penetrate)
G01 X133.243119 Y63.573068 Z-1.000000 F400.000000
G01 X133.006119 Y63.655368 Z-1.000000
G01 X132.797119 Y63.794168 Z-1.000000
G01 X132.630119 Y63.980468 Z-1.000000
G01 X132.513109 Y64.202568 Z-1.000000
G01 X132.456109 Y64.446568 Z-1.000000
G01 X132.461109 Y64.697168 Z-1.000000
G01 X132.529109 Y64.938668 Z-1.000000
G01 X132.654109 Y65.155668 Z-1.000000
G01 X132.830099 Y65.334768 Z-1.000000
G01 X133.044099 Y65.464668 Z-1.000000
G01 X133.284109 Y65.537168 Z-1.000000
G01 X133.534109 Y65.547668 Z-1.000000
G01 X133.780109 Y65.495468 Z-1.000000
G01 X134.004109 Y65.384068 Z-1.000000
G01 X134.194109 Y65.220168 Z-1.000000
G01 X134.337109 Y65.014368 Z-1.000000
G01 X134.424109 Y64.779368 Z-1.000000
G01 X134.451109 Y64.530168 Z-1.000000
G01 X134.414109 Y64.282268 Z-1.000000
G01 X134.317109 Y64.051068 Z-1.000000
G01 X134.165099 Y63.851468 Z-1.000000
G01 X133.969109 Y63.695668 Z-1.000000
G01 X133.740099 Y63.593768 Z-1.000000
G01 X133.493119 Y63.551968 Z-1.000000
G00 Z30.000000

(End cutting path id: path4)


(Start cutting path id: path4)
(Change tool to Default tool)

G00 Z30.000000
G00 X21.691711 Y49.801979

G01 Z-1.000000 F100.0(Penetrate)
G01 X21.444512 Y49.843779 Z-1.000000 F400.000000
G01 X21.215511 Y49.945679 Z-1.000000
G01 X21.019112 Y50.101479 Z-1.000000
G01 X20.867411 Y50.301079 Z-1.000000
G01 X20.770411 Y50.532279 Z-1.000000
G01 X20.733811 Y50.780179 Z-1.000000
G01 X20.760011 Y51.029379 Z-1.000000
G01 X20.847311 Y51.264379 Z-1.000000
G01 X20.990411 Y51.470179 Z-1.000000
G01 X21.180111 Y51.634079 Z-1.000000
G01 X21.404712 Y51.745479 Z-1.000000
G01 X21.649912 Y51.797679 Z-1.000000
G01 X21.900312 Y51.787179 Z-1.000000
G01 X22.140312 Y51.714679 Z-1.000000
G01 X22.354712 Y51.584779 Z-1.000000
G01 X22.530012 Y51.405679 Z-1.000000
G01 X22.655511 Y51.188679 Z-1.000000
G01 X22.722811 Y50.947179 Z-1.000000
G01 X22.728111 Y50.696579 Z-1.000000
G01 X22.670911 Y50.452579 Z-1.000000
G01 X22.554811 Y50.230479 Z-1.000000
G01 X22.386911 Y50.044179 Z-1.000000
G01 X22.178211 Y49.905379 Z-1.000000
G01 X21.941511 Y49.823079 Z-1.000000
G01 X21.691711 Y49.801979 Z-1.000000
G00 Z30.000000

(End cutting path id: path4)


(Start cutting path id: path4)
(Change tool to Default tool)

G00 Z30.000000
G00 X157.308118 Y49.801966

G01 Z-1.000000 F100.0(Penetrate)
G01 X157.058118 Y49.823066 Z-1.000000 F400.000000
G01 X156.822118 Y49.905366 Z-1.000000
G01 X156.613118 Y50.044166 Z-1.000000
G01 X156.445118 Y50.230466 Z-1.000000
G01 X156.329118 Y50.452566 Z-1.000000
G01 X156.272118 Y50.696566 Z-1.000000
G01 X156.277118 Y50.947166 Z-1.000000
G01 X156.344118 Y51.188666 Z-1.000000
G01 X156.470118 Y51.405666 Z-1.000000
G01 X156.645118 Y51.584766 Z-1.000000
G01 X156.860128 Y51.714666 Z-1.000000
G01 X157.100128 Y51.787166 Z-1.000000
G01 X157.350128 Y51.797666 Z-1.000000
G01 X157.595118 Y51.745466 Z-1.000000
G01 X157.820128 Y51.634066 Z-1.000000
G01 X158.010128 Y51.470176 Z-1.000000
G01 X158.153128 Y51.264375 Z-1.000000
G01 X158.240128 Y51.029365 Z-1.000000
G01 X158.266128 Y50.780165 Z-1.000000
G01 X158.230128 Y50.532275 Z-1.000000
G01 X158.133128 Y50.301065 Z-1.000000
G01 X157.981128 Y50.101475 Z-1.000000
G01 X157.784128 Y49.945675 Z-1.000000
G01 X157.555128 Y49.843766 Z-1.000000
G01 X157.308118 Y49.801966 Z-1.000000
G00 Z30.000000

(End cutting path id: path4)


(Start cutting path id: path4)
(Change tool to Default tool)

G00 Z30.000000
G00 X50.838610 Y42.466476

G01 Z-1.000000 F100.0(Penetrate)
G01 X50.651711 Y42.489976 Z-1.000000 F400.000000
G01 X50.469212 Y42.536776 Z-1.000000
G01 X50.294211 Y42.606276 Z-1.000000
G01 X50.129111 Y42.696976 Z-1.000000
G01 X49.976610 Y42.807676 Z-1.000000
G01 X49.839310 Y42.936576 Z-1.000000
G01 X49.719210 Y43.081676 Z-1.000000
G01 X49.618412 Y43.240876 Z-1.000000
G01 X49.538112 Y43.411276 Z-1.000000
G01 X49.480012 Y43.590376 Z-1.000000
G01 X49.444612 Y43.775476 Z-1.000000
G01 X49.432812 Y43.963476 Z-1.000000
G01 X49.444612 Y44.151476 Z-1.000000
G01 X49.480012 Y44.336376 Z-1.000000
G01 X49.538112 Y44.515576 Z-1.000000
G01 X49.618412 Y44.685976 Z-1.000000
G01 X49.719210 Y44.845176 Z-1.000000
G01 X49.839310 Y44.990276 Z-1.000000
G01 X49.976610 Y45.119176 Z-1.000000
G01 X50.129111 Y45.229976 Z-1.000000
G01 X50.294211 Y45.320576 Z-1.000000
G01 X50.469212 Y45.390076 Z-1.000000
G01 X50.651711 Y45.436876 Z-1.000000
G01 X50.838610 Y45.460576 Z-1.000000
G01 X51.026911 Y45.460576 Z-1.000000
G01 X51.213810 Y45.436876 Z-1.000000
G01 X51.396312 Y45.390076 Z-1.000000
G01 X51.571511 Y45.320576 Z-1.000000
G01 X51.736611 Y45.229976 Z-1.000000
G01 X51.888910 Y45.119176 Z-1.000000
G01 X52.026210 Y44.990276 Z-1.000000
G01 X52.146310 Y44.845176 Z-1.000000
G01 X52.247312 Y44.685976 Z-1.000000
G01 X52.327412 Y44.515576 Z-1.000000
G01 X52.385712 Y44.336376 Z-1.000000
G01 X52.420912 Y44.151476 Z-1.000000
G01 X52.432822 Y43.963476 Z-1.000000
G01 X52.420912 Y43.775476 Z-1.000000
G01 X52.385712 Y43.590376 Z-1.000000
G01 X52.327412 Y43.411276 Z-1.000000
G01 X52.247312 Y43.240876 Z-1.000000
G01 X52.146310 Y43.081676 Z-1.000000
G01 X52.026210 Y42.936576 Z-1.000000
G01 X51.888910 Y42.807676 Z-1.000000
G01 X51.736611 Y42.696976 Z-1.000000
G01 X51.571511 Y42.606276 Z-1.000000
G01 X51.396312 Y42.536776 Z-1.000000
G01 X51.213810 Y42.489976 Z-1.000000
G01 X51.026911 Y42.466476 Z-1.000000
G01 X50.838610 Y42.466476 Z-1.000000
G00 Z30.000000

(End cutting path id: path4)


(Start cutting path id: path4)
(Change tool to Default tool)

G00 Z30.000000
G00 X127.973117 Y42.466468

G01 Z-1.000000 F100.0(Penetrate)
G01 X127.786117 Y42.489968 Z-1.000000 F400.000000
G01 X127.604107 Y42.536768 Z-1.000000
G01 X127.428117 Y42.606268 Z-1.000000
G01 X127.263107 Y42.696968 Z-1.000000
G01 X127.111117 Y42.807668 Z-1.000000
G01 X126.974117 Y42.936568 Z-1.000000
G01 X126.854117 Y43.081668 Z-1.000000
G01 X126.753117 Y43.240868 Z-1.000000
G01 X126.673117 Y43.411268 Z-1.000000
G01 X126.614117 Y43.590368 Z-1.000000
G01 X126.579117 Y43.775468 Z-1.000000
G01 X126.567117 Y43.963468 Z-1.000000
G01 X126.579117 Y44.151468 Z-1.000000
G01 X126.614117 Y44.336368 Z-1.000000
G01 X126.673117 Y44.515568 Z-1.000000
G01 X126.753117 Y44.685968 Z-1.000000
G01 X126.854117 Y44.845168 Z-1.000000
G01 X126.974117 Y44.990268 Z-1.000000
G01 X127.111117 Y45.119168 Z-1.000000
G01 X127.263107 Y45.229968 Z-1.000000
G01 X127.428117 Y45.320568 Z-1.000000
G01 X127.604107 Y45.390068 Z-1.000000
G01 X127.786117 Y45.436868 Z-1.000000
G01 X127.973117 Y45.460568 Z-1.000000
G01 X128.161117 Y45.460568 Z-1.000000
G01 X128.348117 Y45.436868 Z-1.000000
G01 X128.531117 Y45.390068 Z-1.000000
G01 X128.706117 Y45.320568 Z-1.000000
G01 X128.871107 Y45.229968 Z-1.000000
G01 X129.023117 Y45.119168 Z-1.000000
G01 X129.161117 Y44.990268 Z-1.000000
G01 X129.281117 Y44.845168 Z-1.000000
G01 X129.382107 Y44.685968 Z-1.000000
G01 X129.462107 Y44.515568 Z-1.000000
G01 X129.520107 Y44.336368 Z-1.000000
G01 X129.555107 Y44.151468 Z-1.000000
G01 X129.567107 Y43.963468 Z-1.000000
G01 X129.555107 Y43.775468 Z-1.000000
G01 X129.520107 Y43.590368 Z-1.000000
G01 X129.462107 Y43.411268 Z-1.000000
G01 X129.382107 Y43.240868 Z-1.000000
G01 X129.281117 Y43.081668 Z-1.000000
G01 X129.161117 Y42.936568 Z-1.000000
G01 X129.023117 Y42.807668 Z-1.000000
G01 X128.871107 Y42.696968 Z-1.000000
G01 X128.706117 Y42.606268 Z-1.000000
G01 X128.531117 Y42.536768 Z-1.000000
G01 X128.348117 Y42.489968 Z-1.000000
G01 X128.161117 Y42.466468 Z-1.000000
G01 X127.973117 Y42.466468 Z-1.000000
G00 Z30.000000

(End cutting path id: path4)


(Start cutting path id: path4)
(Change tool to Default tool)

G00 Z30.000000
G00 X72.170411 Y41.237074

G01 Z-1.000000 F100.0(Penetrate)
G01 X71.920911 Y41.261474 Z-1.000000 F400.000000
G01 X71.685511 Y41.347274 Z-1.000000
G01 X71.478611 Y41.488874 Z-1.000000
G01 X71.313511 Y41.677474 Z-1.000000
G01 X71.200412 Y41.901274 Z-1.000000
G01 X71.146712 Y42.145974 Z-1.000000
G01 X71.155412 Y42.396574 Z-1.000000
G01 X71.226212 Y42.637074 Z-1.000000
G01 X71.354511 Y42.852374 Z-1.000000
G01 X71.532412 Y43.029074 Z-1.000000
G01 X71.748611 Y43.155874 Z-1.000000
G01 X71.989612 Y43.224974 Z-1.000000
G01 X72.240111 Y43.231974 Z-1.000000
G01 X72.484613 Y43.176474 Z-1.000000
G01 X72.707511 Y43.061884 Z-1.000000
G01 X72.894913 Y42.895384 Z-1.000000
G01 X73.035113 Y42.687584 Z-1.000000
G01 X73.119213 Y42.451384 Z-1.000000
G01 X73.141913 Y42.201874 Z-1.000000
G01 X73.101813 Y41.954374 Z-1.000000
G01 X73.001512 Y41.724774 Z-1.000000
G01 X72.847115 Y41.527184 Z-1.000000
G01 X72.648614 Y41.374284 Z-1.000000
G01 X72.418214 Y41.275384 Z-1.000000
G01 X72.170411 Y41.237074 Z-1.000000
G00 Z30.000000

(End cutting path id: path4)


(Start cutting path id: path4)
(Change tool to Default tool)

G00 Z30.000000
G00 X106.830116 Y41.237070

G01 Z-1.000000 F100.0(Penetrate)
G01 X106.582116 Y41.275370 Z-1.000000 F400.000000
G01 X106.352106 Y41.374270 Z-1.000000
G01 X106.153116 Y41.527170 Z-1.000000
G01 X105.999116 Y41.724770 Z-1.000000
G01 X105.898116 Y41.954370 Z-1.000000
G01 X105.858116 Y42.201870 Z-1.000000
G01 X105.881116 Y42.451470 Z-1.000000
G01 X105.965116 Y42.687570 Z-1.000000
G01 X106.105116 Y42.895370 Z-1.000000
G01 X106.292116 Y43.061870 Z-1.000000
G01 X106.515116 Y43.176470 Z-1.000000
G01 X106.760116 Y43.231970 Z-1.000000
G01 X107.010116 Y43.224970 Z-1.000000
G01 X107.251116 Y43.155870 Z-1.000000
G01 X107.468116 Y43.029070 Z-1.000000
G01 X107.645116 Y42.852370 Z-1.000000
G01 X107.774116 Y42.637070 Z-1.000000
G01 X107.845116 Y42.396570 Z-1.000000
G01 X107.853116 Y42.145970 Z-1.000000
G01 X107.800116 Y41.901270 Z-1.000000
G01 X107.686116 Y41.677570 Z-1.000000
G01 X107.521116 Y41.488870 Z-1.000000
G01 X107.314116 Y41.347270 Z-1.000000
G01 X107.079116 Y41.261570 Z-1.000000
G01 X106.830116 Y41.237070 Z-1.000000
G00 Z30.000000

(End cutting path id: path4)


(Start cutting path id: path4)
(Change tool to Default tool)

G00 Z30.000000
G00 X101.989116 Y38.070271

G01 Z-1.000000 F100.0(Penetrate)
G01 X113.265116 Y42.174570 Z-1.000000 F400.000000
G01 X121.132114 Y20.561569 Z-1.000000
G01 X109.855114 Y16.457370 Z-1.000000
G01 X101.989116 Y38.070271 Z-1.000000
G00 Z30.000000

(End cutting path id: path4)


(Start cutting path id: path4)
(Change tool to Default tool)

G00 Z30.000000
G00 X57.868309 Y20.561575

G01 Z-1.000000 F100.0(Penetrate)
G01 X65.734810 Y42.174574 Z-1.000000 F400.000000
G01 X77.011111 Y38.070273 Z-1.000000
G01 X69.144708 Y16.457374 Z-1.000000
G01 X57.868309 Y20.561575 Z-1.000000
G00 Z30.000000

(End cutting path id: path4)


(Start cutting path id: path4)
(Change tool to Default tool)

G00 Z30.000000
G00 X116.235114 Y15.395579

G01 Z-1.000000 F100.0(Penetrate)
G01 X115.987114 Y15.433879 Z-1.000000 F400.000000
G01 X115.757114 Y15.532679 Z-1.000000
G01 X115.558104 Y15.685579 Z-1.000000
G01 X115.404114 Y15.883089 Z-1.000000
G01 X115.304104 Y16.112879 Z-1.000000
G01 X115.264104 Y16.360179 Z-1.000000
G01 X115.286104 Y16.609889 Z-1.000000
G01 X115.370104 Y16.846079 Z-1.000000
G01 X115.511104 Y17.053889 Z-1.000000
G01 X115.698104 Y17.220379 Z-1.000000
G01 X115.921104 Y17.334789 Z-1.000000
G01 X116.165104 Y17.390289 Z-1.000000
G01 X116.416104 Y17.383289 Z-1.000000
G01 X116.657104 Y17.314189 Z-1.000000
G01 X116.873104 Y17.187189 Z-1.000000
G01 X117.051104 Y17.010689 Z-1.000000
G01 X117.179104 Y16.795389 Z-1.000000
G01 X117.250104 Y16.554889 Z-1.000000
G01 X117.259104 Y16.304289 Z-1.000000
G01 X117.205104 Y16.059589 Z-1.000000
G01 X117.092104 Y15.835689 Z-1.000000
G01 X116.927104 Y15.647089 Z-1.000000
G01 X116.720104 Y15.505489 Z-1.000000
G01 X116.485104 Y15.419789 Z-1.000000
G01 X116.235114 Y15.395579 Z-1.000000
G00 Z30.000000

(End cutting path id: path4)


(Start cutting path id: path4)
(Change tool to Default tool)

G00 Z30.000000
G00 X62.764908 Y15.395584

G01 Z-1.000000 F100.0(Penetrate)
G01 X62.515408 Y15.419984 Z-1.000000 F400.000000
G01 X62.279807 Y15.505684 Z-1.000000
G01 X62.073009 Y15.647284 Z-1.000000
G01 X61.907909 Y15.835884 Z-1.000000
G01 X61.794908 Y16.059784 Z-1.000000
G01 X61.741008 Y16.304484 Z-1.000000
G01 X61.749908 Y16.555084 Z-1.000000
G01 X61.820708 Y16.795584 Z-1.000000
G01 X61.949010 Y17.010884 Z-1.000000
G01 X62.126709 Y17.187384 Z-1.000000
G01 X62.343009 Y17.314384 Z-1.000000
G01 X62.583909 Y17.383484 Z-1.000000
G01 X62.834610 Y17.390484 Z-1.000000
G01 X63.079008 Y17.334984 Z-1.000000
G01 X63.302009 Y17.220584 Z-1.000000
G01 X63.489408 Y17.054084 Z-1.000000
G01 X63.629609 Y16.846284 Z-1.000000
G01 X63.713709 Y16.610084 Z-1.000000
G01 X63.736409 Y16.360384 Z-1.000000
G01 X63.696309 Y16.113084 Z-1.000000
G01 X63.595907 Y15.883284 Z-1.000000
G01 X63.441607 Y15.685784 Z-1.000000
G01 X63.242908 Y15.532884 Z-1.000000
G01 X63.012506 Y15.434084 Z-1.000000
G01 X62.764908 Y15.395584 Z-1.000000
G00 Z30.000000

(End cutting path id: path4)


(Footer)
M5
G00 X0.0000 Y0.0000
M2
(Using default footer. To add your own footer create file "footer" in the output dir.)
(end)
%